; G-Code generated by Simplify3D(R) Version 4.0.1
; Jun 2, 2018 at 8:27:12 AM
; Settings Summary
;   processName,Process1
;   applyToModels,xyzCalibration_cube
;   profileName,Tevo Tornado (modified)
;   profileVersion,2018-05-20 11:19:53
;   baseProfile,Default
;   printMaterial,PLA
;   printQuality,High
;   printExtruders,
;   extruderName,Extruder 1
;   extruderToolheadNumber,0
;   extruderDiameter,0.4
;   extruderAutoWidth,1
;   extruderWidth,0.48
;   extrusionMultiplier,1
;   extruderUseRetract,1
;   extruderRetractionDistance,6
;   extruderExtraRestartDistance,0
;   extruderRetractionZLift,0
;   extruderRetractionSpeed,3300
;   extruderUseCoasting,0
;   extruderCoastingDistance,0.3
;   extruderUseWipe,0
;   extruderWipeDistance,0.5
;   primaryExtruder,0
;   layerHeight,0.1
;   topSolidLayers,4
;   bottomSolidLayers,4
;   perimeterOutlines,3
;   printPerimetersInsideOut,1
;   startPointOption,2
;   startPointOriginX,0
;   startPointOriginY,0
;   sequentialIslands,0
;   spiralVaseMode,0
;   firstLayerHeightPercentage,80
;   firstLayerWidthPercentage,100
;   firstLayerUnderspeed,0.4
;   useRaft,0
;   raftExtruder,0
;   raftTopLayers,3
;   raftBaseLayers,2
;   raftOffset,3
;   raftSeparationDistance,0.14
;   raftTopInfill,100
;   aboveRaftSpeedMultiplier,0.3
;   useSkirt,1
;   skirtExtruder,0
;   skirtLayers,2
;   skirtOutlines,3
;   skirtOffset,5
;   usePrimePillar,0
;   primePillarExtruder,999
;   primePillarWidth,12
;   primePillarLocation,7
;   primePillarSpeedMultiplier,1
;   useOozeShield,0
;   oozeShieldExtruder,999
;   oozeShieldOffset,2
;   oozeShieldOutlines,1
;   oozeShieldSidewallShape,1
;   oozeShieldSidewallAngle,30
;   oozeShieldSpeedMultiplier,1
;   infillExtruder,0
;   internalInfillPattern,Grid
;   externalInfillPattern,Rectilinear
;   infillPercentage,100
;   outlineOverlapPercentage,15
;   infillExtrusionWidthPercentage,100
;   minInfillLength,5
;   infillLayerInterval,1
;   internalInfillAngles,45,-45
;   overlapInternalInfillAngles,1
;   externalInfillAngles,45,-45
;   generateSupport,0
;   supportExtruder,0
;   supportInfillPercentage,40
;   supportExtraInflation,0
;   supportBaseLayers,0
;   denseSupportExtruder,0
;   denseSupportLayers,0
;   denseSupportInfillPercentage,70
;   supportLayerInterval,1
;   supportHorizontalPartOffset,0.3
;   supportUpperSeparationLayers,1
;   supportLowerSeparationLayers,1
;   supportType,1
;   supportGridSpacing,3
;   maxOverhangAngle,45
;   supportAngles,0
;   temperatureName,Primary Extruder,Heated Bed
;   temperatureNumber,0,0
;   temperatureSetpointCount,1,1
;   temperatureSetpointLayers,1,1
;   temperatureSetpointTemperatures,205,60
;   temperatureStabilizeAtStartup,1,1
;   temperatureHeatedBed,0,1
;   temperatureRelayBetweenLayers,0,0
;   temperatureRelayBetweenLoops,0,0
;   fanLayers,1,2,3
;   fanSpeeds,0,25,90
;   blipFanToFullPower,1
;   adjustSpeedForCooling,1
;   minSpeedLayerTime,10
;   minCoolingSpeedSlowdown,50
;   increaseFanForCooling,0
;   minFanLayerTime,45
;   maxCoolingFanSpeed,100
;   increaseFanForBridging,0
;   bridgingFanSpeed,100
;   use5D,1
;   relativeEdistances,0
;   allowEaxisZeroing,1
;   independentExtruderAxes,0
;   includeM10123,0
;   stickySupport,1
;   applyToolheadOffsets,0
;   gcodeXoffset,0
;   gcodeYoffset,0
;   gcodeZoffset,0
;   overrideMachineDefinition,1
;   machineTypeOverride,0
;   strokeXoverride,300
;   strokeYoverride,300
;   strokeZoverride,400
;   originOffsetXoverride,0
;   originOffsetYoverride,0
;   originOffsetZoverride,0
;   homeXdirOverride,-1
;   homeYdirOverride,-1
;   homeZdirOverride,-1
;   flipXoverride,1
;   flipYoverride,-1
;   flipZoverride,1
;   toolheadOffsets,100,100|0,0|0,0|0,0|0,0|0,0
;   overrideFirmwareConfiguration,1
;   firmwareTypeOverride,RepRap (Marlin/Repetier/Sprinter)
;   GPXconfigOverride,r2
;   baudRateOverride,250000
;   overridePrinterModels,0
;   printerModelsOverride
;   startingGcode,G28 ; home all axes,G29 ; level bed BL Touch,G1 Z5 F3000 ; lift,G1 X40 Y5 F1500 ; avoid binder clips,G92 E0 ; reset extrusion distance,G1 Z0 F3000; set to base,G1 X120 E10 F600 ; prime nozzle,G1 X150 F5000 ; quick wipe,M205 X10 ; Lower Jerk to 10,M204 P500 T1000 ; Lower Acceleration
;   layerChangeGcode,
;   retractionGcode,
;   toolChangeGcode,
;   endingGcode,G28 X0 ; Home X Axis,G1 X285 ; Present Build Plate,M106 S0 ; Turn off Cooling Fan,M104 S0 ; Turn Off Extruder Heat,M140 S0 ; Turn of Bed Heat,M84 ; Disable Steppers
;   exportFileFormat,gcode
;   celebration,0
;   celebrationSong,Random Song
;   postProcessing,
;   defaultSpeed,2400
;   outlineUnderspeed,0.8
;   solidInfillUnderspeed,0.8
;   supportUnderspeed,0.8
;   rapidXYspeed,2400
;   rapidZspeed,600
;   minBridgingArea,50
;   bridgingExtraInflation,0
;   bridgingExtrusionMultiplier,1
;   bridgingSpeedMultiplier,1
;   useFixedBridgingAngle,0
;   fixedBridgingAngle,0
;   applyBridgingToPerimeters,0
;   filamentDiameters,1.73|1.73|1.73|1.73|1.73|1.73
;   filamentPricesPerKg,18|18|18|18|18|18
;   filamentDensities,1.25|1.25|1.25|1.25|1.25|1.25
;   useMinPrintHeight,0
;   minPrintHeight,175.73
;   useMaxPrintHeight,0
;   maxPrintHeight,104.17
;   useDiaphragm,0
;   diaphragmLayerInterval,20
;   robustSlicing,1
;   mergeAllIntoSolid,0
;   onlyRetractWhenCrossingOutline,1
;   retractBetweenLayers,0
;   useRetractionMinTravel,0
;   retractionMinTravel,3
;   retractWhileWiping,0
;   onlyWipeOutlines,0
;   avoidCrossingOutline,1
;   maxMovementDetourFactor,300
;   toolChangeRetractionDistance,12
;   toolChangeExtraRestartDistance,-1
;   toolChangeRetractionSpeed,600
;   externalThinWallType,0
;   internalThinWallType,1
;   thinWallAllowedOverlapPercentage,50
;   singleExtrusionMinLength,1
;   singleExtrusionMinPrintingWidthPercentage,50
;   singleExtrusionMaxPrintingWidthPercentage,200
;   singleExtrusionEndpointExtension,0.2
;   horizontalSizeCompensation,0
G90
M82
M106 S255
G4 P500
M106 S0
M140 S60
M190 S60
M104 S205 T0
M109 S205 T0
G28 ; home all axes
G29 ; level bed BL Touch
G1 Z5 F3000 ; lift
G1 X40 Y5 F1500 ; avoid binder clips
G92 E0 ; reset extrusion distance
G1 Z0 F3000; set to base
G1 X120 E10 F600 ; prime nozzle
G1 X150 F5000 ; quick wipe
M205 X10 ; Lower Jerk to 10
M204 P500 T1000 ; Lower Acceleration
G92 E0
G1 E-6.0000 F3300
G1 Z0.080 F600
; process Process1
; layer 1, Z = 0.080
T0
; tool H0.100 W0.480
; skirt
G1 X133.983 Y137.249 F2400
G1 E0.0000 F990
G92 E0
G1 X137.249 Y133.983 E0.0943 F960
G1 X137.690 Y133.800 E0.1041
G1 X162.310 Y133.800 E0.6068
G1 X162.751 Y133.983 E0.6166
G1 X166.017 Y137.249 E0.7109
G1 X166.200 Y137.690 E0.7206
G1 X166.200 Y162.310 E1.2234
G1 X166.017 Y162.751 E1.2331
G1 X162.751 Y166.017 E1.3275
G1 X162.310 Y166.200 E1.3372
G1 X137.690 Y166.200 E1.8399
G1 X137.249 Y166.017 E1.8497
G1 X133.983 Y162.751 E1.9440
G1 X133.800 Y162.310 E1.9538
G1 X133.800 Y137.690 E2.4565
G1 X133.983 Y137.249 E2.4663
G1 X134.390 Y137.521 F2400
G92 E0
G1 X137.521 Y134.390 E0.0904 F960
G1 X137.786 Y134.280 E0.0963
G1 X162.214 Y134.280 E0.5951
G1 X162.479 Y134.390 E0.6010
G1 X165.610 Y137.521 E0.6914
G1 X165.720 Y137.786 E0.6972
G1 X165.720 Y162.214 E1.1961
G1 X165.610 Y162.479 E1.2019
G1 X162.479 Y165.610 E1.2924
G1 X162.214 Y165.720 E1.2982
G1 X137.786 Y165.720 E1.7970
G1 X137.521 Y165.610 E1.8029
G1 X134.390 Y162.479 E1.8933
G1 X134.280 Y162.214 E1.8992
G1 X134.280 Y137.786 E2.3980
G1 X134.390 Y137.521 E2.4039
G1 X134.797 Y137.793 F2400
G92 E0
G1 X137.793 Y134.797 E0.0865 F960
G1 X137.881 Y134.760 E0.0885
G1 X162.119 Y134.760 E0.5834
G1 X162.207 Y134.797 E0.5854
G1 X165.203 Y137.793 E0.6719
G1 X165.240 Y137.881 E0.6739
G1 X165.240 Y162.119 E1.1688
G1 X165.203 Y162.207 E1.1707
G1 X162.207 Y165.203 E1.2573
G1 X162.119 Y165.240 E1.2592
G1 X137.881 Y165.240 E1.7542
G1 X137.793 Y165.203 E1.7561
G1 X134.797 Y162.207 E1.8426
G1 X134.760 Y162.119 E1.8446
G1 X134.760 Y137.881 E2.3395
G1 X134.797 Y137.793 E2.3415
G92 E0
G1 E-6.0000 F3300
; inner perimeter
G1 X140.235 Y140.235 F2400
G1 X140.235 Y140.687 F2400
G1 X141.200 Y141.200 F2400
G1 E0.0000 F3300
G92 E0
G1 X158.800 Y141.200 E0.3594 F864
G1 X158.800 Y158.800 E0.7188
G1 X141.200 Y158.800 E1.0782
G1 X141.200 Y141.200 E1.4376
G1 X140.720 Y140.720 F2400
G92 E0
G1 X159.280 Y140.720 E0.3790 F864
G1 X159.280 Y159.280 E0.7580
G1 X140.720 Y159.280 E1.1370
G1 X140.720 Y140.720 E1.5160
; outer perimeter
G1 X140.240 Y140.240 F2400
G92 E0
G1 X159.760 Y140.240 E0.3986 F768
G1 X159.760 Y159.760 E0.7972
G1 X140.240 Y159.760 E1.1958
G1 X140.240 Y140.240 E1.5944
; solid layer
G1 X157.900 Y141.608 F2400
G92 E0
G1 X158.392 Y142.100 E0.0142 F768
G1 X158.392 Y142.779 E0.0281
G1 X157.221 Y141.608 E0.0619
G1 X156.542 Y141.608 E0.0758
G1 X158.392 Y143.458 E0.1292
G1 X158.392 Y144.137 E0.1430
G1 X155.863 Y141.608 E0.2161
G1 X155.184 Y141.608 E0.2299
G1 X158.392 Y144.816 E0.3226
G1 X158.392 Y145.494 E0.3364
G1 X154.506 Y141.608 E0.4487
G1 X153.827 Y141.608 E0.4625
G1 X158.392 Y146.173 E0.5943
G1 X158.392 Y146.852 E0.6082
G1 X153.148 Y141.608 E0.7597
G1 X152.469 Y141.608 E0.7735
G1 X158.392 Y147.531 E0.9446
G1 X158.392 Y148.210 E0.9584
G1 X151.790 Y141.608 E1.1491
G1 X151.112 Y141.608 E1.1629
G1 X158.392 Y148.888 E1.3732
G1 X158.392 Y149.567 E1.3870
G1 X150.433 Y141.608 E1.6169
G1 X149.754 Y141.608 E1.6307
G1 X158.392 Y150.246 E1.8802
G1 X158.392 Y150.925 E1.8941
G1 X149.075 Y141.608 E2.1631
G1 X148.396 Y141.608 E2.1770
G1 X158.392 Y151.604 E2.4656
G1 X158.392 Y152.283 E2.4795
G1 X147.717 Y141.608 E2.7878
G1 X147.039 Y141.608 E2.8016
G1 X158.392 Y152.961 E3.1295
G1 X158.392 Y153.640 E3.1434
G1 X146.360 Y141.608 E3.4908
G1 X145.681 Y141.608 E3.5047
G1 X158.392 Y154.319 E3.8718
G1 X158.392 Y154.998 E3.8856
G1 X145.002 Y141.608 E4.2723
G1 X144.323 Y141.608 E4.2862
G1 X158.392 Y155.677 E4.6925
G1 X158.392 Y156.356 E4.7063
G1 X143.644 Y141.608 E5.1322
G1 X142.966 Y141.608 E5.1461
G1 X158.392 Y157.034 E5.5916
G1 X158.392 Y157.713 E5.6054
G1 X142.287 Y141.608 E6.0705
G1 X141.608 Y141.608 E6.0844
G1 X158.392 Y158.392 E6.5691
G1 X157.713 Y158.392 E6.5829
G1 X141.608 Y142.287 E7.0480
G1 X141.608 Y142.966 E7.0619
G1 X157.034 Y158.392 E7.5074
G1 X156.356 Y158.392 E7.5212
G1 X141.608 Y143.644 E7.9471
G1 X141.608 Y144.323 E7.9610
G1 X155.677 Y158.392 E8.3673
G1 X154.998 Y158.392 E8.3811
G1 X141.608 Y145.002 E8.7678
G1 X141.608 Y145.681 E8.7817
G1 X154.319 Y158.392 E9.1488
G1 X153.640 Y158.392 E9.1626
G1 X141.608 Y146.360 E9.5101
G1 X141.608 Y147.039 E9.5239
G1 X152.961 Y158.392 E9.8518
G1 X152.283 Y158.392 E9.8657
G1 X141.608 Y147.717 E10.1739
G1 X141.608 Y148.396 E10.1878
G1 X151.604 Y158.392 E10.4765
G1 X150.925 Y158.392 E10.4903
G1 X141.608 Y149.075 E10.7594
G1 X141.608 Y149.754 E10.7733
G1 X150.246 Y158.392 E11.0227
G1 X149.567 Y158.392 E11.0366
G1 X141.608 Y150.433 E11.2664
G1 X141.608 Y151.112 E11.2803
G1 X148.888 Y158.392 E11.4905
G1 X148.210 Y158.392 E11.5044
G1 X141.608 Y151.790 E11.6950
G1 X141.608 Y152.469 E11.7089
G1 X147.531 Y158.392 E11.8799
G1 X146.852 Y158.392 E11.8938
G1 X141.608 Y153.148 E12.0452
G1 X141.608 Y153.827 E12.0591
G1 X146.173 Y158.392 E12.1909
G1 X145.494 Y158.392 E12.2048
G1 X141.608 Y154.506 E12.3170
G1 X141.608 Y155.184 E12.3309
G1 X144.816 Y158.392 E12.4235
G1 X144.137 Y158.392 E12.4374
G1 X141.608 Y155.863 E12.5104
G1 X141.608 Y156.542 E12.5243
G1 X143.458 Y158.392 E12.5777
G1 X142.779 Y158.392 E12.5916
G1 X141.608 Y157.221 E12.6254
G1 X141.608 Y157.900 E12.6392
G1 X142.100 Y158.392 E12.6535
G92 E0
G1 E-6.0000 F3300
; layer 2, Z = 0.180
M106 S255
G4 P500
M106 S63
; skirt
G1 X137.690 Y166.200 F2400
G1 Z0.180 F600
G1 E0.0000 F3300
G92 E0
G1 X137.249 Y166.017 E0.0097 F2400
G1 X133.983 Y162.751 E0.1041
G1 X133.800 Y162.310 E0.1138
G1 X133.800 Y137.690 E0.6166
G1 X133.983 Y137.249 E0.6263
G1 X137.249 Y133.983 E0.7206
G1 X137.690 Y133.800 E0.7304
G1 X162.310 Y133.800 E1.2331
G1 X162.751 Y133.983 E1.2429
G1 X166.017 Y137.249 E1.3372
G1 X166.200 Y137.690 E1.3470
G1 X166.200 Y162.310 E1.8497
G1 X166.017 Y162.751 E1.8594
G1 X162.751 Y166.017 E1.9538
G1 X162.310 Y166.200 E1.9635
G1 X137.690 Y166.200 E2.4663
G1 X137.786 Y165.720 F2400
G92 E0
G1 X137.521 Y165.610 E0.0058 F2400
G1 X134.390 Y162.479 E0.0963
G1 X134.280 Y162.214 E0.1021
G1 X134.280 Y137.786 E0.6010
G1 X134.390 Y137.521 E0.6068
G1 X137.521 Y134.390 E0.6972
G1 X137.786 Y134.280 E0.7031
G1 X162.214 Y134.280 E1.2019
G1 X162.479 Y134.390 E1.2078
G1 X165.610 Y137.521 E1.2982
G1 X165.720 Y137.786 E1.3041
G1 X165.720 Y162.214 E1.8029
G1 X165.610 Y162.479 E1.8087
G1 X162.479 Y165.610 E1.8992
G1 X162.214 Y165.720 E1.9050
G1 X137.786 Y165.720 E2.4039
G1 X137.881 Y165.240 F2400
G92 E0
G1 X137.793 Y165.203 E0.0019 F2400
G1 X134.797 Y162.207 E0.0885
G1 X134.760 Y162.119 E0.0904
G1 X134.760 Y137.881 E0.5854
G1 X134.797 Y137.793 E0.5873
G1 X137.793 Y134.797 E0.6739
G1 X137.881 Y134.760 E0.6758
G1 X162.119 Y134.760 E1.1707
G1 X162.207 Y134.797 E1.1727
G1 X165.203 Y137.793 E1.2592
G1 X165.240 Y137.881 E1.2612
G1 X165.240 Y162.119 E1.7561
G1 X165.203 Y162.207 E1.7581
G1 X162.207 Y165.203 E1.8446
G1 X162.119 Y165.240 E1.8465
G1 X137.881 Y165.240 E2.3415
G92 E0
G1 E-6.0000 F3300
; inner perimeter
G1 X140.235 Y159.765 F2400
G1 X140.703 Y159.765 F2400
G1 X141.200 Y158.800 F2400
G1 E0.0000 F3300
G92 E0
G1 X141.200 Y141.200 E0.3594 F2160
G1 X158.800 Y141.200 E0.7188
G1 X158.800 Y158.800 E1.0782
G1 X141.200 Y158.800 E1.4376
G1 X140.720 Y159.280 F2400
G92 E0
G1 X140.720 Y140.720 E0.3790 F2160
G1 X159.280 Y140.720 E0.7580
G1 X159.280 Y159.280 E1.1370
G1 X140.720 Y159.280 E1.5160
; outer perimeter
G1 X140.240 Y159.760 F2400
G92 E0
G1 X140.240 Y140.240 E0.3986 F1920
G1 X159.760 Y140.240 E0.7972
G1 X159.760 Y159.760 E1.1958
G1 X140.240 Y159.760 E1.5944
; solid layer
G1 X141.608 Y142.100 F2400
G92 E0
G1 X142.100 Y141.608 E0.0142 F1920
G1 X142.779 Y141.608 E0.0281
G1 X141.608 Y142.779 E0.0619
G1 X141.608 Y143.458 E0.0758
G1 X143.458 Y141.608 E0.1292
G1 X144.137 Y141.608 E0.1430
G1 X141.608 Y144.137 E0.2161
G1 X141.608 Y144.816 E0.2299
G1 X144.816 Y141.608 E0.3226
G1 X145.494 Y141.608 E0.3364
G1 X141.608 Y145.494 E0.4487
G1 X141.608 Y146.173 E0.4625
G1 X146.173 Y141.608 E0.5944
G1 X146.852 Y141.608 E0.6082
G1 X141.608 Y146.852 E0.7597
G1 X141.608 Y147.531 E0.7735
G1 X147.531 Y141.608 E0.9446
G1 X148.210 Y141.608 E0.9584
G1 X141.608 Y148.210 E1.1491
G1 X141.608 Y148.889 E1.1629
G1 X148.889 Y141.608 E1.3732
G1 X149.567 Y141.608 E1.3870
G1 X141.608 Y149.567 E1.6169
G1 X141.608 Y150.246 E1.6308
G1 X150.246 Y141.608 E1.8802
G1 X150.925 Y141.608 E1.8941
G1 X141.608 Y150.925 E2.1631
G1 X141.608 Y151.604 E2.1770
G1 X151.604 Y141.608 E2.4657
G1 X152.283 Y141.608 E2.4795
G1 X141.608 Y152.283 E2.7878
G1 X141.608 Y152.961 E2.8017
G1 X152.961 Y141.608 E3.1295
G1 X153.640 Y141.608 E3.1434
G1 X141.608 Y153.640 E3.4909
G1 X141.608 Y154.319 E3.5047
G1 X154.319 Y141.608 E3.8718
G1 X154.998 Y141.608 E3.8857
G1 X141.608 Y154.998 E4.2723
G1 X141.608 Y155.677 E4.2862
G1 X155.677 Y141.608 E4.6925
G1 X156.356 Y141.608 E4.7064
G1 X141.608 Y156.356 E5.1322
G1 X141.608 Y157.034 E5.1461
G1 X157.034 Y141.608 E5.5916
G1 X157.713 Y141.608 E5.6055
G1 X141.608 Y157.713 E6.0705
G1 X141.608 Y158.392 E6.0844
G1 X158.392 Y141.608 E6.5691
G1 X158.392 Y142.287 E6.5830
G1 X142.287 Y158.392 E7.0481
G1 X142.966 Y158.392 E7.0619
G1 X158.392 Y142.966 E7.5074
G1 X158.392 Y143.645 E7.5213
G1 X143.645 Y158.392 E7.9472
G1 X144.323 Y158.392 E7.9610
G1 X158.392 Y144.323 E8.3673
G1 X158.392 Y145.002 E8.3812
G1 X145.002 Y158.392 E8.7678
G1 X145.681 Y158.392 E8.7817
G1 X158.392 Y145.681 E9.1488
G1 X158.392 Y146.360 E9.1626
G1 X146.360 Y158.392 E9.5101
G1 X147.039 Y158.392 E9.5240
G1 X158.392 Y147.039 E9.8518
G1 X158.392 Y147.717 E9.8657
G1 X147.717 Y158.392 E10.1740
G1 X148.396 Y158.392 E10.1878
G1 X158.392 Y148.396 E10.4765
G1 X158.392 Y149.075 E10.4903
G1 X149.075 Y158.392 E10.7594
G1 X149.754 Y158.392 E10.7733
G1 X158.392 Y149.754 E11.0227
G1 X158.392 Y150.433 E11.0366
G1 X150.433 Y158.392 E11.2664
G1 X151.112 Y158.392 E11.2803
G1 X158.392 Y151.112 E11.4905
G1 X158.392 Y151.790 E11.5044
G1 X151.790 Y158.392 E11.6951
G1 X152.469 Y158.392 E11.7089
G1 X158.392 Y152.469 E11.8800
