; G-Code generated by Simplify3D(R) Version 4.0.1
; May 12, 2018 at 6:15:37 PM
; Settings Summary
;   processName,Process1
;   applyToModels,xyzCalibration_cube
;   profileName,TEVO Tornado medium Standard (modified)
;   profileVersion,2018-04-30 19:41:39
;   baseProfile,TEVO Tornado (modified)
;   printMaterial,PLA
;   printQuality,High
;   printExtruders,
;   extruderName,Primary Extruder
;   extruderToolheadNumber,0
;   extruderDiameter,0.4
;   extruderAutoWidth,1
;   extruderWidth,0.48
;   extrusionMultiplier,0.9
;   extruderUseRetract,1
;   extruderRetractionDistance,5
;   extruderExtraRestartDistance,0
;   extruderRetractionZLift,0
;   extruderRetractionSpeed,1800
;   extruderUseCoasting,0
;   extruderCoastingDistance,0.2
;   extruderUseWipe,0
;   extruderWipeDistance,5
;   primaryExtruder,0
;   layerHeight,0.2
;   topSolidLayers,4
;   bottomSolidLayers,4
;   perimeterOutlines,2
;   printPerimetersInsideOut,1
;   startPointOption,2
;   startPointOriginX,0
;   startPointOriginY,0
;   sequentialIslands,0
;   spiralVaseMode,0
;   firstLayerHeightPercentage,120
;   firstLayerWidthPercentage,150
;   firstLayerUnderspeed,0.4
;   useRaft,0
;   raftExtruder,0
;   raftTopLayers,3
;   raftBaseLayers,2
;   raftOffset,3
;   raftSeparationDistance,0.14
;   raftTopInfill,100
;   aboveRaftSpeedMultiplier,0.3
;   useSkirt,1
;   skirtExtruder,0
;   skirtLayers,2
;   skirtOutlines,2
;   skirtOffset,4
;   usePrimePillar,0
;   primePillarExtruder,999
;   primePillarWidth,12
;   primePillarLocation,7
;   primePillarSpeedMultiplier,1
;   useOozeShield,0
;   oozeShieldExtruder,999
;   oozeShieldOffset,2
;   oozeShieldOutlines,1
;   oozeShieldSidewallShape,1
;   oozeShieldSidewallAngle,30
;   oozeShieldSpeedMultiplier,1
;   infillExtruder,0
;   internalInfillPattern,Rectilinear
;   externalInfillPattern,Rectilinear
;   infillPercentage,80
;   outlineOverlapPercentage,15
;   infillExtrusionWidthPercentage,100
;   minInfillLength,5
;   infillLayerInterval,1
;   internalInfillAngles,45,-45
;   overlapInternalInfillAngles,0
;   externalInfillAngles,45,-45
;   generateSupport,1
;   supportExtruder,0
;   supportInfillPercentage,40
;   supportExtraInflation,0
;   supportBaseLayers,0
;   denseSupportExtruder,0
;   denseSupportLayers,0
;   denseSupportInfillPercentage,70
;   supportLayerInterval,1
;   supportHorizontalPartOffset,0.3
;   supportUpperSeparationLayers,1
;   supportLowerSeparationLayers,1
;   supportType,0
;   supportGridSpacing,4
;   maxOverhangAngle,45
;   supportAngles,0
;   temperatureName,Primary Extruder,Heated Bed
;   temperatureNumber,0,0
;   temperatureSetpointCount,1,1
;   temperatureSetpointLayers,1,1
;   temperatureSetpointTemperatures,200,60
;   temperatureStabilizeAtStartup,1,1
;   temperatureHeatedBed,0,1
;   temperatureRelayBetweenLayers,0,0
;   temperatureRelayBetweenLoops,0,0
;   fanLayers,1,2,3
;   fanSpeeds,0,50,100
;   blipFanToFullPower,0
;   adjustSpeedForCooling,1
;   minSpeedLayerTime,15
;   minCoolingSpeedSlowdown,20
;   increaseFanForCooling,0
;   minFanLayerTime,45
;   maxCoolingFanSpeed,100
;   increaseFanForBridging,0
;   bridgingFanSpeed,100
;   use5D,1
;   relativeEdistances,0
;   allowEaxisZeroing,1
;   independentExtruderAxes,0
;   includeM10123,0
;   stickySupport,1
;   applyToolheadOffsets,0
;   gcodeXoffset,0
;   gcodeYoffset,0
;   gcodeZoffset,0
;   overrideMachineDefinition,1
;   machineTypeOverride,0
;   strokeXoverride,300
;   strokeYoverride,300
;   strokeZoverride,400
;   originOffsetXoverride,0
;   originOffsetYoverride,0
;   originOffsetZoverride,0
;   homeXdirOverride,-1
;   homeYdirOverride,-1
;   homeZdirOverride,-1
;   flipXoverride,1
;   flipYoverride,-1
;   flipZoverride,1
;   toolheadOffsets,0,0|0,0|0,0|0,0|0,0|0,0
;   overrideFirmwareConfiguration,1
;   firmwareTypeOverride,RepRap (Marlin/Repetier/Sprinter)
;   GPXconfigOverride,r2
;   baudRateOverride,250000
;   overridePrinterModels,1
;   printerModelsOverride
;   startingGcode,G28 ; home all axes,G29 ; Auto Bed Leveling,G1 Z0.2 F3000 ; get ready to prime,G92 E0 ; reset extrusion distance,G1 X160 E15 F600 ; prime nozzle,G1 X180 F5000 ; quick wipe
;   layerChangeGcode,
;   retractionGcode,
;   toolChangeGcode,
;   endingGcode,G28 X0 ; home x axis,G1 Y295 F3000 ; bring the bed forward,M106 S0 ; turn off cooling fan,M104 S0 ; turn off extruder,M140 S0 ; turn off bed,M84 ; disable motors
;   exportFileFormat,gcode
;   celebration,0
;   celebrationSong,Random Song
;   postProcessing,
;   defaultSpeed,3000
;   outlineUnderspeed,0.5
;   solidInfillUnderspeed,0.8
;   supportUnderspeed,0.8
;   rapidXYspeed,4800
;   rapidZspeed,1002
;   minBridgingArea,50
;   bridgingExtraInflation,0
;   bridgingExtrusionMultiplier,1
;   bridgingSpeedMultiplier,1
;   useFixedBridgingAngle,0
;   fixedBridgingAngle,0
;   applyBridgingToPerimeters,0
;   filamentDiameters,1.75|1.75|1.75|1.75|1.75|1.75
;   filamentPricesPerKg,46|46|46|46|46|46
;   filamentDensities,1.25|1.25|1.25|1.25|1.25|1.25
;   useMinPrintHeight,0
;   minPrintHeight,0
;   useMaxPrintHeight,0
;   maxPrintHeight,0
;   useDiaphragm,0
;   diaphragmLayerInterval,20
;   robustSlicing,1
;   mergeAllIntoSolid,0
;   onlyRetractWhenCrossingOutline,1
;   retractBetweenLayers,1
;   useRetractionMinTravel,0
;   retractionMinTravel,3
;   retractWhileWiping,0
;   onlyWipeOutlines,1
;   avoidCrossingOutline,0
;   maxMovementDetourFactor,3
;   toolChangeRetractionDistance,12
;   toolChangeExtraRestartDistance,-0.5
;   toolChangeRetractionSpeed,600
;   externalThinWallType,0
;   internalThinWallType,2
;   thinWallAllowedOverlapPercentage,10
;   singleExtrusionMinLength,1
;   singleExtrusionMinPrintingWidthPercentage,50
;   singleExtrusionMaxPrintingWidthPercentage,200
;   singleExtrusionEndpointExtension,0.2
;   horizontalSizeCompensation,0
G90
M82
M106 S0
M140 S60
M190 S60
M104 S200 T0
M109 S200 T0
G28 ; home all axes
G29 ; Auto Bed Leveling
G1 Z0.2 F3000 ; get ready to prime
G92 E0 ; reset extrusion distance
G1 X160 E15 F600 ; prime nozzle
G1 X180 F5000 ; quick wipe
G92 E0
G1 E-5.0000 F1800
G1 Z0.240 F1002
; process Process1
; layer 1, Z = 0.240
T0
; tool H0.240 W0.720
; skirt
G1 X135.390 Y137.935 F4800
G1 E0.0000 F540
G92 E0
G1 X137.935 Y135.390 E0.2328 F1200
G1 X138.200 Y135.280 E0.2513
G1 X161.800 Y135.280 E1.7772
G1 X162.065 Y135.390 E1.7957
G1 X164.610 Y137.935 E2.0285
G1 X164.720 Y138.200 E2.0470
G1 X164.720 Y161.800 E3.5730
G1 X164.610 Y162.065 E3.5915
G1 X162.065 Y164.610 E3.8243
G1 X161.800 Y164.720 E3.8428
G1 X138.200 Y164.720 E5.3687
G1 X137.935 Y164.610 E5.3872
G1 X135.390 Y162.065 E5.6200
G1 X135.280 Y161.800 E5.6385
G1 X135.280 Y138.200 E7.1645
G1 X135.390 Y137.935 E7.1830
G1 X135.797 Y138.207 F4800
G92 E0
G1 X138.207 Y135.797 E0.2204 F1200
G1 X138.295 Y135.760 E0.2266
G1 X161.705 Y135.760 E1.7402
G1 X161.793 Y135.797 E1.7464
G1 X164.203 Y138.207 E1.9668
G1 X164.240 Y138.295 E1.9730
G1 X164.240 Y161.705 E3.4865
G1 X164.203 Y161.793 E3.4927
G1 X161.793 Y164.203 E3.7132
G1 X161.705 Y164.240 E3.7193
G1 X138.295 Y164.240 E5.2329
G1 X138.207 Y164.203 E5.2391
G1 X135.797 Y161.793 E5.4595
G1 X135.760 Y161.705 E5.4657
G1 X135.760 Y138.295 E6.9793
G1 X135.797 Y138.207 E6.9854
G92 E0
G1 E-5.0000 F1800
; inner perimeter
G1 X141.080 Y141.080 F4800
G1 E0.0000 F1800
G92 E0
G1 X158.920 Y141.080 E1.1535 F900
G1 X158.920 Y158.920 E2.3070
G1 X141.080 Y158.920 E3.4605
G1 X141.080 Y141.080 E4.6140
; outer perimeter
G1 X140.360 Y140.360 F4800
G92 E0
G1 X159.640 Y140.360 E1.2466 F600
G1 X159.640 Y159.640 E2.4932
G1 X140.360 Y159.640 E3.7398
G1 X140.360 Y140.360 E4.9864
; solid layer
G1 X157.984 Y141.692 F4800
G92 E0
G1 X158.308 Y142.016 E0.0296 F960
G1 X158.308 Y143.034 E0.0955
G1 X156.966 Y141.692 E0.2182
G1 X155.947 Y141.692 E0.2841
G1 X158.308 Y144.053 E0.4999
G1 X158.308 Y145.071 E0.5658
G1 X154.929 Y141.692 E0.8747
G1 X153.911 Y141.692 E0.9406
G1 X158.308 Y146.089 E1.3427
G1 X158.308 Y147.107 E1.4085
G1 X152.893 Y141.692 E1.9037
G1 X151.874 Y141.692 E1.9695
G1 X158.308 Y148.126 E2.5578
G1 X158.308 Y149.144 E2.6236
G1 X150.856 Y141.692 E3.3050
G1 X149.838 Y141.692 E3.3709
G1 X158.308 Y150.162 E4.1454
G1 X158.308 Y151.180 E4.2112
G1 X148.820 Y141.692 E5.0788
G1 X147.801 Y141.692 E5.1447
G1 X158.308 Y152.199 E6.1054
G1 X158.308 Y153.217 E6.1712
G1 X146.783 Y141.692 E7.2251
G1 X145.765 Y141.692 E7.2909
G1 X158.308 Y154.235 E8.4378
G1 X158.308 Y155.253 E8.5037
G1 X144.747 Y141.692 E9.7437
G1 X143.728 Y141.692 E9.8095
G1 X158.308 Y156.272 E11.1427
G1 X158.308 Y157.290 E11.2085
G1 X142.710 Y141.692 E12.6348
G1 X141.692 Y141.692 E12.7006
G1 X158.308 Y158.308 E14.2200
G1 X157.290 Y158.308 E14.2858
G1 X141.692 Y142.710 E15.7121
G1 X141.692 Y143.728 E15.7779
G1 X156.272 Y158.308 E17.1111
G1 X155.253 Y158.308 E17.1769
G1 X141.692 Y144.747 E18.4169
G1 X141.692 Y145.765 E18.4828
G1 X154.235 Y158.308 E19.6297
G1 X153.217 Y158.308 E19.6955
G1 X141.692 Y146.783 E20.7494
G1 X141.692 Y147.801 E20.8152
G1 X152.199 Y158.308 E21.7759
G1 X151.180 Y158.308 E21.8418
G1 X141.692 Y148.820 E22.7094
G1 X141.692 Y149.838 E22.7752
G1 X150.162 Y158.308 E23.5497
G1 X149.144 Y158.308 E23.6156
G1 X141.692 Y150.856 E24.2970
G1 X141.692 Y151.874 E24.3628
G1 X148.126 Y158.308 E24.9511
G1 X147.107 Y158.308 E25.0169
G1 X141.692 Y152.893 E25.5121
G1 X141.692 Y153.911 E25.5780
G1 X146.089 Y158.308 E25.9800
G1 X145.071 Y158.308 E26.0459
G1 X141.692 Y154.929 E26.3549
G1 X141.692 Y155.947 E26.4207
G1 X144.053 Y158.308 E26.6366
G1 X143.035 Y158.308 E26.7024
G1 X141.692 Y156.965 E26.8252
G1 X141.692 Y157.984 E26.8910
G1 X142.016 Y158.308 E26.9206
G92 E0
G1 E-5.0000 F1800
; layer 2, Z = 0.440
M106 S127
; tool H0.200 W0.480
; skirt
G1 X138.200 Y164.720 F4800
G1 Z0.440 F1002
G1 E0.0000 F1800
G92 E0
G1 X137.935 Y164.610 E0.0103 F3000
G1 X135.390 Y162.065 E0.1396
G1 X135.280 Y161.800 E0.1499
G1 X135.280 Y138.200 E0.9976
G1 X135.390 Y137.935 E1.0079
G1 X137.935 Y135.390 E1.1372
G1 X138.200 Y135.280 E1.1475
G1 X161.800 Y135.280 E1.9953
G1 X162.065 Y135.390 E2.0056
G1 X164.610 Y137.935 E2.1349
G1 X164.720 Y138.200 E2.1452
G1 X164.720 Y161.800 E2.9929
G1 X164.610 Y162.065 E3.0032
G1 X162.065 Y164.610 E3.1325
G1 X161.800 Y164.720 E3.1428
G1 X138.200 Y164.720 E3.9906
G1 X138.295 Y164.240 F4800
G92 E0
G1 X138.207 Y164.203 E0.0034 F3000
G1 X135.797 Y161.793 E0.1259
G1 X135.760 Y161.705 E0.1293
G1 X135.760 Y138.295 E0.9702
G1 X135.797 Y138.207 E0.9736
G1 X138.207 Y135.797 E1.0961
G1 X138.295 Y135.760 E1.0995
G1 X161.705 Y135.760 E1.9404
G1 X161.793 Y135.797 E1.9438
G1 X164.203 Y138.207 E2.0663
G1 X164.240 Y138.295 E2.0697
G1 X164.240 Y161.705 E2.9106
G1 X164.203 Y161.793 E2.9140
G1 X161.793 Y164.203 E3.0365
G1 X161.705 Y164.240 E3.0399
G1 X138.295 Y164.240 E3.8808
G92 E0
G1 E-5.0000 F1800
; inner perimeter
G1 X140.720 Y159.280 F4800
G1 E0.0000 F1800
G92 E0
G1 X140.720 Y140.720 E0.6667 F2250
G1 X159.280 Y140.720 E1.3334
G1 X159.280 Y159.280 E2.0001
G1 X140.720 Y159.280 E2.6668
; outer perimeter
G1 X140.240 Y159.760 F4800
G92 E0
G1 X140.240 Y140.240 E0.7012 F1500
G1 X159.760 Y140.240 E1.4024
G1 X159.760 Y159.760 E2.1035
G1 X140.240 Y159.760 E2.8047
; solid layer
G1 X141.128 Y141.223 F4800
G92 E0
G1 X141.223 Y141.128 E0.0048 F2400
G1 X141.901 Y141.128 E0.0292
G1 X141.128 Y141.901 E0.0685
G1 X141.128 Y142.580 E0.0929
G1 X142.580 Y141.128 E0.1666
G1 X143.259 Y141.128 E0.1910
G1 X141.128 Y143.259 E0.2993
G1 X141.128 Y143.938 E0.3237
G1 X143.938 Y141.128 E0.4664
G1 X144.617 Y141.128 E0.4908
G1 X141.128 Y144.617 E0.6680
G1 X141.128 Y145.296 E0.6924
G1 X145.296 Y141.128 E0.9041
G1 X145.974 Y141.128 E0.9285
G1 X141.128 Y145.974 E1.1747
G1 X141.128 Y146.653 E1.1991
G1 X146.653 Y141.128 E1.4798
G1 X147.332 Y141.128 E1.5042
G1 X141.128 Y147.332 E1.8193
G1 X141.128 Y148.011 E1.8437
G1 X148.011 Y141.128 E2.1934
G1 X148.690 Y141.128 E2.2177
G1 X141.128 Y148.690 E2.6019
G1 X141.128 Y149.369 E2.6263
G1 X149.369 Y141.128 E3.0449
G1 X150.047 Y141.128 E3.0693
G1 X141.128 Y150.047 E3.5224
G1 X141.128 Y150.726 E3.5467
G1 X150.726 Y141.128 E4.0343
G1 X151.405 Y141.128 E4.0587
G1 X141.128 Y151.405 E4.5808
G1 X141.128 Y152.084 E4.6052
G1 X152.084 Y141.128 E5.1617
G1 X152.763 Y141.128 E5.1861
G1 X141.128 Y152.763 E5.7771
G1 X141.128 Y153.441 E5.8015
G1 X153.441 Y141.128 E6.4271
G1 X154.120 Y141.128 E6.4514
G1 X141.128 Y154.120 E7.1114
G1 X141.128 Y154.799 E7.1358
G1 X154.799 Y141.128 E7.8303
G1 X155.478 Y141.128 E7.8547
G1 X141.128 Y155.478 E8.5837
G1 X141.128 Y156.157 E8.6081
G1 X156.157 Y141.128 E9.3715
G1 X156.836 Y141.128 E9.3959
G1 X141.128 Y156.836 E10.1938
G1 X141.128 Y157.514 E10.2182
G1 X157.514 Y141.128 E11.0507
G1 X158.193 Y141.128 E11.0750
G1 X141.128 Y158.193 E11.9420
G1 X141.128 Y158.872 E11.9663
G1 X158.872 Y141.128 E12.8677
G1 X158.872 Y141.807 E12.8921
G1 X141.807 Y158.872 E13.7590
G1 X142.486 Y158.872 E13.7834
G1 X158.872 Y142.486 E14.6158
G1 X158.872 Y143.165 E14.6402
G1 X143.165 Y158.872 E15.4381
G1 X143.843 Y158.872 E15.4625
G1 X158.872 Y143.843 E16.2260
G1 X158.872 Y144.522 E16.2504
G1 X144.522 Y158.872 E16.9793
G1 X145.201 Y158.872 E17.0037
G1 X158.872 Y145.201 E17.6982
G1 X158.872 Y145.880 E17.7226
G1 X145.880 Y158.872 E18.3826
G1 X146.559 Y158.872 E18.4070
G1 X158.872 Y146.559 E19.0325
G1 X158.872 Y147.237 E19.0569
G1 X147.237 Y158.872 E19.6479
G1 X147.916 Y158.872 E19.6723
G1 X158.872 Y147.916 E20.2289
G1 X158.872 Y148.595 E20.2532
G1 X148.595 Y158.872 E20.7753
G1 X149.274 Y158.872 E20.7997
G1 X158.872 Y149.274 E21.2873
G1 X158.872 Y149.953 E21.3117
G1 X149.953 Y158.872 E21.7648
G1 X150.632 Y158.872 E21.7891
G1 X158.872 Y150.632 E22.2077
G1 X158.872 Y151.310 E22.2321
G1 X151.310 Y158.872 E22.6163
G1 X151.989 Y158.872 E22.6406
G1 X158.872 Y151.989 E22.9903
G1 X158.872 Y152.668 E23.0147
G1 X152.668 Y158.872 E23.3298
G1 X153.347 Y158.872 E23.3542
G1 X158.872 Y153.347 E23.6349
G1 X158.872 Y154.026 E23.6593
G1 X154.026 Y158.872 E23.9055
G1 X154.704 Y158.872 E23.9299
G1 X158.872 Y154.704 E24.1416
G1 X158.872 Y155.383 E24.1660
G1 X155.383 Y158.872 E24.3432
G1 X156.062 Y158.872 E24.3676
G1 X158.872 Y156.062 E24.5103
G1 X158.872 Y156.741 E24.5347
G1 X156.741 Y158.872 E24.6429
G1 X157.420 Y158.872 E24.6673
G1 X158.872 Y157.420 E24.7411
G1 X158.872 Y158.099 E24.7655
G1 X158.099 Y158.872 E24.8048
G1 X158.777 Y158.872 E24.8292
G1 X158.872 Y158.777 E24.8340
G92 E0
G1 E-5.0000 F1800
; layer 3, Z = 0.640
M106 S255
; inner perimeter
G1 X159.280 Y159.280 F4800
G1 Z0.640 F1002
G1 E0.0000 F1800
G92 E0
G1 X140.720 Y159.280 E0.6667 F2250
G1 X140.720 Y140.720 E1.3334
G1 X159.280 Y140.720 E2.0001
G1 X159.280 Y159.280 E2.6668
; outer perimeter
G1 X159.760 Y159.760 F4800
G92 E0
G1 X140.240 Y159.760 E0.7012 F1500
G1 X140.240 Y140.240 E1.4024
G1 X159.760 Y140.240 E2.1035
G1 X159.760 Y159.760 E2.8047
; solid layer
G1 X141.223 Y158.872 F4800
G92 E0
G1 X141.128 Y158.777 E0.0048 F2400
G1 X141.128 Y158.099 E0.0292
G1 X141.901 Y158.872 E0.0685
G1 X142.580 Y158.872 E0.0929
G1 X141.128 Y157.420 E0.1666
G1 X141.128 Y156.741 E0.1910
G1 X143.259 Y158.872 E0.2993
G1 X143.938 Y158.872 E0.3237
G1 X141.128 Y156.062 E0.4664
G1 X141.128 Y155.383 E0.4908
G1 X144.617 Y158.872 E0.6680
G1 X145.296 Y158.872 E0.6924
G1 X141.128 Y154.704 E0.9041
G1 X141.128 Y154.026 E0.9285
G1 X145.974 Y158.872 E1.1747
G1 X146.653 Y158.872 E1.1991
G1 X141.128 Y153.347 E1.4798
G1 X141.128 Y152.668 E1.5041
G1 X147.332 Y158.872 E1.8193
G1 X148.011 Y158.872 E1.8437
G1 X141.128 Y151.989 E2.1933
G1 X141.128 Y151.310 E2.2177
G1 X148.690 Y158.872 E2.6019
G1 X149.368 Y158.872 E2.6262
G1 X141.128 Y150.632 E3.0449
G1 X141.128 Y149.953 E3.0692
G1 X150.047 Y158.872 E3.5223
G1 X150.726 Y158.872 E3.5467
G1 X141.128 Y149.274 E4.0343
G1 X141.128 Y148.595 E4.0587
G1 X151.405 Y158.872 E4.5808
G1 X152.084 Y158.872 E4.6051
G1 X141.128 Y147.916 E5.1617
G1 X141.128 Y147.237 E5.1861
G1 X152.763 Y158.872 E5.7771
G1 X153.441 Y158.872 E5.8015
G1 X141.128 Y146.559 E6.4270
G1 X141.128 Y145.880 E6.4514
G1 X154.120 Y158.872 E7.1114
G1 X154.799 Y158.872 E7.1358
G1 X141.128 Y145.201 E7.8303
G1 X141.128 Y144.522 E7.8547
G1 X155.478 Y158.872 E8.5836
G1 X156.157 Y158.872 E8.6080
G1 X141.128 Y143.843 E9.3715
G1 X141.128 Y143.164 E9.3959
