; G-Code generated by Simplify3D(R) Version 4.0.1
; May 28, 2018 at 9:55:56 PM
; Settings Summary
;   processName,Process1
;   applyToModels,xyzCalibration_cube
;   profileName,Tevo Tornado (modified)
;   profileVersion,2018-05-20 11:19:53
;   baseProfile,Default
;   printMaterial,PLA
;   printQuality,High
;   printExtruders,
;   extruderName,Extruder 1
;   extruderToolheadNumber,0
;   extruderDiameter,0.4
;   extruderAutoWidth,1
;   extruderWidth,0.48
;   extrusionMultiplier,1.03
;   extruderUseRetract,1
;   extruderRetractionDistance,6
;   extruderExtraRestartDistance,0
;   extruderRetractionZLift,0
;   extruderRetractionSpeed,3300
;   extruderUseCoasting,0
;   extruderCoastingDistance,0.3
;   extruderUseWipe,0
;   extruderWipeDistance,0.5
;   primaryExtruder,0
;   layerHeight,0.1
;   topSolidLayers,4
;   bottomSolidLayers,4
;   perimeterOutlines,3
;   printPerimetersInsideOut,1
;   startPointOption,2
;   startPointOriginX,0
;   startPointOriginY,0
;   sequentialIslands,0
;   spiralVaseMode,0
;   firstLayerHeightPercentage,80
;   firstLayerWidthPercentage,100
;   firstLayerUnderspeed,0.4
;   useRaft,0
;   raftExtruder,0
;   raftTopLayers,3
;   raftBaseLayers,2
;   raftOffset,3
;   raftSeparationDistance,0.14
;   raftTopInfill,100
;   aboveRaftSpeedMultiplier,0.3
;   useSkirt,1
;   skirtExtruder,0
;   skirtLayers,2
;   skirtOutlines,3
;   skirtOffset,5
;   usePrimePillar,0
;   primePillarExtruder,999
;   primePillarWidth,12
;   primePillarLocation,7
;   primePillarSpeedMultiplier,1
;   useOozeShield,0
;   oozeShieldExtruder,999
;   oozeShieldOffset,2
;   oozeShieldOutlines,1
;   oozeShieldSidewallShape,1
;   oozeShieldSidewallAngle,30
;   oozeShieldSpeedMultiplier,1
;   infillExtruder,0
;   internalInfillPattern,Grid
;   externalInfillPattern,Rectilinear
;   infillPercentage,100
;   outlineOverlapPercentage,15
;   infillExtrusionWidthPercentage,100
;   minInfillLength,5
;   infillLayerInterval,1
;   internalInfillAngles,45,-45
;   overlapInternalInfillAngles,1
;   externalInfillAngles,45,-45
;   generateSupport,0
;   supportExtruder,0
;   supportInfillPercentage,40
;   supportExtraInflation,0
;   supportBaseLayers,0
;   denseSupportExtruder,0
;   denseSupportLayers,0
;   denseSupportInfillPercentage,70
;   supportLayerInterval,1
;   supportHorizontalPartOffset,0.3
;   supportUpperSeparationLayers,1
;   supportLowerSeparationLayers,1
;   supportType,1
;   supportGridSpacing,3
;   maxOverhangAngle,45
;   supportAngles,0
;   temperatureName,Primary Extruder,Heated Bed
;   temperatureNumber,0,0
;   temperatureSetpointCount,1,1
;   temperatureSetpointLayers,1,1
;   temperatureSetpointTemperatures,205,50
;   temperatureStabilizeAtStartup,1,1
;   temperatureHeatedBed,0,1
;   temperatureRelayBetweenLayers,0,0
;   temperatureRelayBetweenLoops,0,0
;   fanLayers,1,2,3
;   fanSpeeds,0,25,90
;   blipFanToFullPower,1
;   adjustSpeedForCooling,1
;   minSpeedLayerTime,10
;   minCoolingSpeedSlowdown,50
;   increaseFanForCooling,0
;   minFanLayerTime,45
;   maxCoolingFanSpeed,100
;   increaseFanForBridging,0
;   bridgingFanSpeed,100
;   use5D,1
;   relativeEdistances,0
;   allowEaxisZeroing,1
;   independentExtruderAxes,0
;   includeM10123,0
;   stickySupport,1
;   applyToolheadOffsets,0
;   gcodeXoffset,0
;   gcodeYoffset,0
;   gcodeZoffset,0
;   overrideMachineDefinition,1
;   machineTypeOverride,0
;   strokeXoverride,300
;   strokeYoverride,300
;   strokeZoverride,400
;   originOffsetXoverride,0
;   originOffsetYoverride,0
;   originOffsetZoverride,0
;   homeXdirOverride,-1
;   homeYdirOverride,-1
;   homeZdirOverride,-1
;   flipXoverride,1
;   flipYoverride,-1
;   flipZoverride,1
;   toolheadOffsets,100,100|0,0|0,0|0,0|0,0|0,0
;   overrideFirmwareConfiguration,1
;   firmwareTypeOverride,RepRap (Marlin/Repetier/Sprinter)
;   GPXconfigOverride,r2
;   baudRateOverride,250000
;   overridePrinterModels,0
;   printerModelsOverride
;   startingGcode,G28 ; home all axes,G1 Z5 F3000 ; lift,G1 X40 Y5 F1500 ; avoid binder clips,G92 E0 ; reset extrusion distance,G1 Z0 F3000; set to base,G1 X120 E10 F600 ; prime nozzle,G1 X150 F5000 ; quick wipe,M205 X10 ; Lower Jerk to 10,M204 P500 T1000 ; Lower Acceleration
;   layerChangeGcode,
;   retractionGcode,
;   toolChangeGcode,
;   endingGcode,G28 X0 ; Home X Axis,G1 X285 ; Present Build Plate,M106 S0 ; Turn off Cooling Fan,M104 S0 ; Turn Off Extruder Heat,M140 S0 ; Turn of Bed Heat,M84 ; Disable Steppers
;   exportFileFormat,gcode
;   celebration,0
;   celebrationSong,Random Song
;   postProcessing,
;   defaultSpeed,2400
;   outlineUnderspeed,0.8
;   solidInfillUnderspeed,0.8
;   supportUnderspeed,0.8
;   rapidXYspeed,2400
;   rapidZspeed,600
;   minBridgingArea,50
;   bridgingExtraInflation,0
;   bridgingExtrusionMultiplier,1
;   bridgingSpeedMultiplier,1
;   useFixedBridgingAngle,0
;   fixedBridgingAngle,0
;   applyBridgingToPerimeters,0
;   filamentDiameters,1.73|1.73|1.73|1.73|1.73|1.73
;   filamentPricesPerKg,18|18|18|18|18|18
;   filamentDensities,1.25|1.25|1.25|1.25|1.25|1.25
;   useMinPrintHeight,0
;   minPrintHeight,175.73
;   useMaxPrintHeight,0
;   maxPrintHeight,104.17
;   useDiaphragm,0
;   diaphragmLayerInterval,20
;   robustSlicing,1
;   mergeAllIntoSolid,0
;   onlyRetractWhenCrossingOutline,1
;   retractBetweenLayers,0
;   useRetractionMinTravel,0
;   retractionMinTravel,3
;   retractWhileWiping,0
;   onlyWipeOutlines,0
;   avoidCrossingOutline,1
;   maxMovementDetourFactor,300
;   toolChangeRetractionDistance,12
;   toolChangeExtraRestartDistance,-1
;   toolChangeRetractionSpeed,600
;   externalThinWallType,0
;   internalThinWallType,1
;   thinWallAllowedOverlapPercentage,50
;   singleExtrusionMinLength,1
;   singleExtrusionMinPrintingWidthPercentage,50
;   singleExtrusionMaxPrintingWidthPercentage,200
;   singleExtrusionEndpointExtension,0.2
;   horizontalSizeCompensation,0
G90
M82
M106 S255
G4 P500
M106 S0
M140 S50
M190 S50
M104 S205 T0
M109 S205 T0
G28 ; home all axes
G1 Z5 F3000 ; lift
G1 X40 Y5 F1500 ; avoid binder clips
G92 E0 ; reset extrusion distance
G1 Z0 F3000; set to base
G1 X120 E10 F600 ; prime nozzle
G1 X150 F5000 ; quick wipe
M205 X10 ; Lower Jerk to 10
M204 P500 T1000 ; Lower Acceleration
G92 E0
G1 E-6.0000 F3300
G1 Z0.080 F600
; process Process1
; layer 1, Z = 0.080
T0
; tool H0.100 W0.480
; skirt
G1 X133.983 Y137.249 F2400
G1 E0.0000 F990
G92 E0
G1 X137.249 Y133.983 E0.0972 F960
G1 X137.690 Y133.800 E0.1072
G1 X162.310 Y133.800 E0.6250
G1 X162.751 Y133.983 E0.6351
G1 X166.017 Y137.249 E0.7322
G1 X166.200 Y137.690 E0.7423
G1 X166.200 Y162.310 E1.2601
G1 X166.017 Y162.751 E1.2701
G1 X162.751 Y166.017 E1.3673
G1 X162.310 Y166.200 E1.3773
G1 X137.690 Y166.200 E1.8951
G1 X137.249 Y166.017 E1.9052
G1 X133.983 Y162.751 E2.0023
G1 X133.800 Y162.310 E2.0124
G1 X133.800 Y137.690 E2.5302
G1 X133.983 Y137.249 E2.5402
G1 X134.390 Y137.521 F2400
G92 E0
G1 X137.521 Y134.390 E0.0931 F960
G1 X137.786 Y134.280 E0.0992
G1 X162.214 Y134.280 E0.6130
G1 X162.479 Y134.390 E0.6190
G1 X165.610 Y137.521 E0.7121
G1 X165.720 Y137.786 E0.7182
G1 X165.720 Y162.214 E1.2320
G1 X165.610 Y162.479 E1.2380
G1 X162.479 Y165.610 E1.3311
G1 X162.214 Y165.720 E1.3372
G1 X137.786 Y165.720 E1.8510
G1 X137.521 Y165.610 E1.8570
G1 X134.390 Y162.479 E1.9501
G1 X134.280 Y162.214 E1.9562
G1 X134.280 Y137.786 E2.4700
G1 X134.390 Y137.521 E2.4760
G1 X134.797 Y137.793 F2400
G92 E0
G1 X137.793 Y134.797 E0.0891 F960
G1 X137.881 Y134.760 E0.0911
G1 X162.119 Y134.760 E0.6009
G1 X162.207 Y134.797 E0.6029
G1 X165.203 Y137.793 E0.6921
G1 X165.240 Y137.881 E0.6941
G1 X165.240 Y162.119 E1.2039
G1 X165.203 Y162.207 E1.2059
G1 X162.207 Y165.203 E1.2950
G1 X162.119 Y165.240 E1.2970
G1 X137.881 Y165.240 E1.8068
G1 X137.793 Y165.203 E1.8088
G1 X134.797 Y162.207 E1.8979
G1 X134.760 Y162.119 E1.8999
G1 X134.760 Y137.881 E2.4097
G1 X134.797 Y137.793 E2.4117
G92 E0
G1 E-6.0000 F3300
; inner perimeter
G1 X140.235 Y140.235 F2400
G1 X140.235 Y140.687 F2400
G1 X141.200 Y141.200 F2400
G1 E0.0000 F3300
G92 E0
G1 X158.800 Y141.200 E0.3702 F864
G1 X158.800 Y158.800 E0.7404
G1 X141.200 Y158.800 E1.1105
G1 X141.200 Y141.200 E1.4807
G1 X140.720 Y140.720 F2400
G92 E0
G1 X159.280 Y140.720 E0.3904 F864
G1 X159.280 Y159.280 E0.7807
G1 X140.720 Y159.280 E1.1711
G1 X140.720 Y140.720 E1.5615
; outer perimeter
G1 X140.240 Y140.240 F2400
G92 E0
G1 X159.760 Y140.240 E0.4106 F768
G1 X159.760 Y159.760 E0.8211
G1 X140.240 Y159.760 E1.2317
G1 X140.240 Y140.240 E1.6422
; solid layer
G1 X157.900 Y141.608 F2400
G92 E0
G1 X158.392 Y142.100 E0.0146 F768
G1 X158.392 Y142.779 E0.0289
G1 X157.221 Y141.608 E0.0638
G1 X156.542 Y141.608 E0.0780
G1 X158.392 Y143.458 E0.1331
G1 X158.392 Y144.137 E0.1473
G1 X155.863 Y141.608 E0.2225
G1 X155.184 Y141.608 E0.2368
G1 X158.392 Y144.816 E0.3322
G1 X158.392 Y145.494 E0.3465
G1 X154.506 Y141.608 E0.4621
G1 X153.827 Y141.608 E0.4764
G1 X158.392 Y146.173 E0.6122
G1 X158.392 Y146.852 E0.6265
G1 X153.148 Y141.608 E0.7824
G1 X152.469 Y141.608 E0.7967
G1 X158.392 Y147.531 E0.9729
G1 X158.392 Y148.210 E0.9872
G1 X151.790 Y141.608 E1.1835
G1 X151.112 Y141.608 E1.1978
G1 X158.392 Y148.888 E1.4144
G1 X158.392 Y149.567 E1.4286
G1 X150.433 Y141.608 E1.6654
G1 X149.754 Y141.608 E1.6797
G1 X158.392 Y150.246 E1.9366
G1 X158.392 Y150.925 E1.9509
G1 X149.075 Y141.608 E2.2280
G1 X148.396 Y141.608 E2.2423
G1 X158.392 Y151.604 E2.5396
G1 X158.392 Y152.283 E2.5539
G1 X147.717 Y141.608 E2.8714
G1 X147.039 Y141.608 E2.8857
G1 X158.392 Y152.961 E3.2234
G1 X158.392 Y153.640 E3.2377
G1 X146.360 Y141.608 E3.5956
G1 X145.681 Y141.608 E3.6098
G1 X158.392 Y154.319 E3.9879
G1 X158.392 Y154.998 E4.0022
G1 X145.002 Y141.608 E4.4005
G1 X144.323 Y141.608 E4.4148
G1 X158.392 Y155.677 E4.8332
G1 X158.392 Y156.356 E4.8475
G1 X143.644 Y141.608 E5.2862
G1 X142.966 Y141.608 E5.3005
G1 X158.392 Y157.034 E5.7593
G1 X158.392 Y157.713 E5.7736
G1 X142.287 Y141.608 E6.2526
G1 X141.608 Y141.608 E6.2669
G1 X158.392 Y158.392 E6.7661
G1 X157.713 Y158.392 E6.7804
G1 X141.608 Y142.287 E7.2595
G1 X141.608 Y142.966 E7.2737
G1 X157.034 Y158.392 E7.7326
G1 X156.356 Y158.392 E7.7469
G1 X141.608 Y143.644 E8.1855
G1 X141.608 Y144.323 E8.1998
G1 X155.677 Y158.392 E8.6183
G1 X154.998 Y158.392 E8.6326
G1 X141.608 Y145.002 E9.0308
G1 X141.608 Y145.681 E9.0451
G1 X154.319 Y158.392 E9.4232
G1 X153.640 Y158.392 E9.4375
G1 X141.608 Y146.360 E9.7954
G1 X141.608 Y147.039 E9.8097
G1 X152.961 Y158.392 E10.1474
G1 X152.283 Y158.392 E10.1617
G1 X141.608 Y147.717 E10.4792
G1 X141.608 Y148.396 E10.4934
G1 X151.604 Y158.392 E10.7908
G1 X150.925 Y158.392 E10.8050
G1 X141.608 Y149.075 E11.0822
G1 X141.608 Y149.754 E11.0965
G1 X150.246 Y158.392 E11.3534
G1 X149.567 Y158.392 E11.3677
G1 X141.608 Y150.433 E11.6044
G1 X141.608 Y151.112 E11.6187
G1 X148.888 Y158.392 E11.8353
G1 X148.210 Y158.392 E11.8495
G1 X141.608 Y151.790 E12.0459
G1 X141.608 Y152.469 E12.0602
G1 X147.531 Y158.392 E12.2363
G1 X146.852 Y158.392 E12.2506
G1 X141.608 Y153.148 E12.4066
G1 X141.608 Y153.827 E12.4209
G1 X146.173 Y158.392 E12.5567
G1 X145.494 Y158.392 E12.5710
G1 X141.608 Y154.506 E12.6866
G1 X141.608 Y155.184 E12.7008
G1 X144.816 Y158.392 E12.7962
G1 X144.137 Y158.392 E12.8105
G1 X141.608 Y155.863 E12.8857
G1 X141.608 Y156.542 E12.9000
G1 X143.458 Y158.392 E12.9550
G1 X142.779 Y158.392 E12.9693
G1 X141.608 Y157.221 E13.0041
G1 X141.608 Y157.900 E13.0184
G1 X142.100 Y158.392 E13.0331
G92 E0
G1 E-6.0000 F3300
; layer 2, Z = 0.180
M106 S255
G4 P500
M106 S63
; skirt
G1 X137.690 Y166.200 F2400
G1 Z0.180 F600
G1 E0.0000 F3300
G92 E0
G1 X137.249 Y166.017 E0.0100 F2400
G1 X133.983 Y162.751 E0.1072
G1 X133.800 Y162.310 E0.1172
G1 X133.800 Y137.690 E0.6351
G1 X133.983 Y137.249 E0.6451
G1 X137.249 Y133.983 E0.7423
G1 X137.690 Y133.800 E0.7523
G1 X162.310 Y133.800 E1.2701
G1 X162.751 Y133.983 E1.2802
G1 X166.017 Y137.249 E1.3773
G1 X166.200 Y137.690 E1.3874
G1 X166.200 Y162.310 E1.9052
G1 X166.017 Y162.751 E1.9152
G1 X162.751 Y166.017 E2.0124
G1 X162.310 Y166.200 E2.0224
G1 X137.690 Y166.200 E2.5402
G1 X137.786 Y165.720 F2400
G92 E0
G1 X137.521 Y165.610 E0.0060 F2400
G1 X134.390 Y162.479 E0.0992
G1 X134.280 Y162.214 E0.1052
G1 X134.280 Y137.786 E0.6190
G1 X134.390 Y137.521 E0.6250
G1 X137.521 Y134.390 E0.7182
G1 X137.786 Y134.280 E0.7242
G1 X162.214 Y134.280 E1.2380
G1 X162.479 Y134.390 E1.2440
G1 X165.610 Y137.521 E1.3372
G1 X165.720 Y137.786 E1.3432
G1 X165.720 Y162.214 E1.8570
G1 X165.610 Y162.479 E1.8630
G1 X162.479 Y165.610 E1.9562
G1 X162.214 Y165.720 E1.9622
G1 X137.786 Y165.720 E2.4760
G1 X137.881 Y165.240 F2400
G92 E0
G1 X137.793 Y165.203 E0.0020 F2400
G1 X134.797 Y162.207 E0.0911
G1 X134.760 Y162.119 E0.0931
G1 X134.760 Y137.881 E0.6029
G1 X134.797 Y137.793 E0.6049
G1 X137.793 Y134.797 E0.6941
G1 X137.881 Y134.760 E0.6961
G1 X162.119 Y134.760 E1.2059
G1 X162.207 Y134.797 E1.2079
G1 X165.203 Y137.793 E1.2970
G1 X165.240 Y137.881 E1.2990
G1 X165.240 Y162.119 E1.8088
G1 X165.203 Y162.207 E1.8108
G1 X162.207 Y165.203 E1.8999
G1 X162.119 Y165.240 E1.9019
G1 X137.881 Y165.240 E2.4117
G92 E0
G1 E-6.0000 F3300
; inner perimeter
G1 X140.235 Y159.765 F2400
G1 X140.703 Y159.765 F2400
G1 X141.200 Y158.800 F2400
G1 E0.0000 F3300
G92 E0
G1 X141.200 Y141.200 E0.3702 F2160
G1 X158.800 Y141.200 E0.7404
G1 X158.800 Y158.800 E1.1105
G1 X141.200 Y158.800 E1.4807
G1 X140.720 Y159.280 F2400
G92 E0
G1 X140.720 Y140.720 E0.3904 F2160
G1 X159.280 Y140.720 E0.7807
G1 X159.280 Y159.280 E1.1711
G1 X140.720 Y159.280 E1.5615
; outer perimeter
G1 X140.240 Y159.760 F2400
G92 E0
G1 X140.240 Y140.240 E0.4106 F1920
G1 X159.760 Y140.240 E0.8211
G1 X159.760 Y159.760 E1.2317
G1 X140.240 Y159.760 E1.6422
; solid layer
G1 X141.608 Y142.100 F2400
G92 E0
G1 X142.100 Y141.608 E0.0146 F1920
G1 X142.779 Y141.608 E0.0289
G1 X141.608 Y142.779 E0.0638
G1 X141.608 Y143.458 E0.0780
G1 X143.458 Y141.608 E0.1331
G1 X144.137 Y141.608 E0.1473
G1 X141.608 Y144.137 E0.2226
G1 X141.608 Y144.816 E0.2368
G1 X144.816 Y141.608 E0.3322
G1 X145.494 Y141.608 E0.3465
G1 X141.608 Y145.494 E0.4621
G1 X141.608 Y146.173 E0.4764
G1 X146.173 Y141.608 E0.6122
G1 X146.852 Y141.608 E0.6265
G1 X141.608 Y146.852 E0.7825
G1 X141.608 Y147.531 E0.7967
G1 X147.531 Y141.608 E0.9729
G1 X148.210 Y141.608 E0.9872
G1 X141.608 Y148.210 E1.1835
G1 X141.608 Y148.889 E1.1978
G1 X148.889 Y141.608 E1.4144
G1 X149.567 Y141.608 E1.4287
G1 X141.608 Y149.567 E1.6654
G1 X141.608 Y150.246 E1.6797
G1 X150.246 Y141.608 E1.9366
G1 X150.925 Y141.608 E1.9509
G1 X141.608 Y150.925 E2.2280
G1 X141.608 Y151.604 E2.2423
G1 X151.604 Y141.608 E2.5396
G1 X152.283 Y141.608 E2.5539
G1 X141.608 Y152.283 E2.8714
G1 X141.608 Y152.961 E2.8857
G1 X152.961 Y141.608 E3.2234
G1 X153.640 Y141.608 E3.2377
G1 X141.608 Y153.640 E3.5956
G1 X141.608 Y154.319 E3.6099
G1 X154.319 Y141.608 E3.9880
G1 X154.998 Y141.608 E4.0022
G1 X141.608 Y154.998 E4.4005
G1 X141.608 Y155.677 E4.4148
G1 X155.677 Y141.608 E4.8333
G1 X156.356 Y141.608 E4.8475
G1 X141.608 Y156.356 E5.2862
G1 X141.608 Y157.034 E5.3005
G1 X157.034 Y141.608 E5.7593
G1 X157.713 Y141.608 E5.7736
G1 X141.608 Y157.713 E6.2527
G1 X141.608 Y158.392 E6.2669
G1 X158.392 Y141.608 E6.7662
G1 X158.392 Y142.287 E6.7805
G1 X142.287 Y158.392 E7.2595
G1 X142.966 Y158.392 E7.2738
G1 X158.392 Y142.966 E7.7326
G1 X158.392 Y143.645 E7.7469
G1 X143.645 Y158.392 E8.1856
G1 X144.323 Y158.392 E8.1998
G1 X158.392 Y144.323 E8.6183
G1 X158.392 Y145.002 E8.6326
G1 X145.002 Y158.392 E9.0309
G1 X145.681 Y158.392 E9.0452
G1 X158.392 Y145.681 E9.4232
G1 X158.392 Y146.360 E9.4375
G1 X146.360 Y158.392 E9.7954
G1 X147.039 Y158.392 E9.8097
G1 X158.392 Y147.039 E10.1474
G1 X158.392 Y147.717 E10.1617
G1 X147.717 Y158.392 E10.4792
G1 X148.396 Y158.392 E10.4935
G1 X158.392 Y148.396 E10.7908
G1 X158.392 Y149.075 E10.8051
G1 X149.075 Y158.392 E11.0822
G1 X149.754 Y158.392 E11.0965
G1 X158.392 Y149.754 E11.3534
G1 X158.392 Y150.433 E11.3677
G1 X150.433 Y158.392 E11.6044
G1 X151.112 Y158.392 E11.6187
G1 X158.392 Y151.112 E11.8353
G1 X158.392 Y151.790 E11.8495
G1 X151.790 Y158.392 E12.0459
G1 X152.469 Y158.392 E12.0602
G1 X158.392 Y152.469 E12.2364
G1 X158.392 Y153.148 E12.2506
G1 X153.148 Y158.392 E12.4066
