; G-Code generated by Simplify3D(R) Version 4.0.1
; May 29, 2018 at 7:31:43 PM
; Settings Summary
;   processName,Process1
;   applyToModels,Back_Left,Back_Right
;   profileName,Dremel Idea Builder
;   profileVersion,2015-05-01 08:00:00
;   baseProfile,
;   printMaterial,PLA
;   printQuality,Medium
;   printExtruders,
;   extruderName,Primary Extruder
;   extruderToolheadNumber,0
;   extruderDiameter,0.4
;   extruderAutoWidth,0
;   extruderWidth,0.4
;   extrusionMultiplier,1
;   extruderUseRetract,1
;   extruderRetractionDistance,1
;   extruderExtraRestartDistance,0
;   extruderRetractionZLift,0
;   extruderRetractionSpeed,1200
;   extruderUseCoasting,0
;   extruderCoastingDistance,0.2
;   extruderUseWipe,0
;   extruderWipeDistance,5
;   primaryExtruder,0
;   layerHeight,0.2
;   topSolidLayers,3
;   bottomSolidLayers,3
;   perimeterOutlines,2
;   printPerimetersInsideOut,1
;   startPointOption,2
;   startPointOriginX,0
;   startPointOriginY,0
;   sequentialIslands,0
;   spiralVaseMode,0
;   firstLayerHeightPercentage,90
;   firstLayerWidthPercentage,125
;   firstLayerUnderspeed,0.35
;   useRaft,0
;   raftExtruder,0
;   raftTopLayers,3
;   raftBaseLayers,2
;   raftOffset,3
;   raftSeparationDistance,0.14
;   raftTopInfill,100
;   aboveRaftSpeedMultiplier,0.3
;   useSkirt,1
;   skirtExtruder,0
;   skirtLayers,1
;   skirtOutlines,2
;   skirtOffset,4
;   usePrimePillar,0
;   primePillarExtruder,999
;   primePillarWidth,12
;   primePillarLocation,7
;   primePillarSpeedMultiplier,1
;   useOozeShield,0
;   oozeShieldExtruder,999
;   oozeShieldOffset,2
;   oozeShieldOutlines,1
;   oozeShieldSidewallShape,1
;   oozeShieldSidewallAngle,30
;   oozeShieldSpeedMultiplier,1
;   infillExtruder,0
;   internalInfillPattern,Rectilinear
;   externalInfillPattern,Rectilinear
;   infillPercentage,20
;   outlineOverlapPercentage,20
;   infillExtrusionWidthPercentage,200
;   minInfillLength,5
;   infillLayerInterval,1
;   internalInfillAngles,45,-45
;   overlapInternalInfillAngles,0
;   externalInfillAngles,45,-45
;   generateSupport,0
;   supportExtruder,0
;   supportInfillPercentage,30
;   supportExtraInflation,0
;   supportBaseLayers,0
;   denseSupportExtruder,0
;   denseSupportLayers,0
;   denseSupportInfillPercentage,70
;   supportLayerInterval,1
;   supportHorizontalPartOffset,0.3
;   supportUpperSeparationLayers,1
;   supportLowerSeparationLayers,1
;   supportType,0
;   supportGridSpacing,4
;   maxOverhangAngle,40
;   supportAngles,0
;   temperatureName,Primary Extruder
;   temperatureNumber,0
;   temperatureSetpointCount,1
;   temperatureSetpointLayers,1
;   temperatureSetpointTemperatures,220
;   temperatureStabilizeAtStartup,0
;   temperatureHeatedBed,0
;   temperatureRelayBetweenLayers,0
;   temperatureRelayBetweenLoops,0
;   fanLayers,1,2
;   fanSpeeds,0,100
;   blipFanToFullPower,0
;   adjustSpeedForCooling,1
;   minSpeedLayerTime,15
;   minCoolingSpeedSlowdown,20
;   increaseFanForCooling,0
;   minFanLayerTime,45
;   maxCoolingFanSpeed,100
;   increaseFanForBridging,1
;   bridgingFanSpeed,100
;   use5D,1
;   relativeEdistances,0
;   allowEaxisZeroing,0
;   independentExtruderAxes,1
;   includeM10123,0
;   stickySupport,1
;   applyToolheadOffsets,0
;   gcodeXoffset,0
;   gcodeYoffset,0
;   gcodeZoffset,0
;   overrideMachineDefinition,1
;   machineTypeOverride,0
;   strokeXoverride,230
;   strokeYoverride,150
;   strokeZoverride,140
;   originOffsetXoverride,115
;   originOffsetYoverride,75
;   originOffsetZoverride,0
;   homeXdirOverride,1
;   homeYdirOverride,1
;   homeZdirOverride,-1
;   flipXoverride,1
;   flipYoverride,-1
;   flipZoverride,1
;   toolheadOffsets,0,0|0,0|0,0|0,0|0,0|0,0
;   overrideFirmwareConfiguration,1
;   firmwareTypeOverride,FlashForge Dreamer Firmware
;   GPXconfigOverride,r2
;   baudRateOverride,115200
;   overridePrinterModels,1
;   printerModelsOverride
;   startingGcode,M104 S[extruder0_temperature] T0,M907 X100 Y100 Z40 A80 ; set motor current,M132 X Y Z A ; recall home offsets,G28 ; home axes,G1 Z100 F3300 ; lower Z,G1 X-110.5 Y-74 F6000 ; move to wait position,M6 T0 ; wait for extruder to reach target temp,G1 Z0.6 F3300 ; position nozzle
;   layerChangeGcode,
;   retractionGcode,
;   toolChangeGcode,
;   endingGcode,M104 S0 T0 ; cool down extruder,G1 Z140 F3300 ; send Z axis to bottom of machine,M107 ; disable cooling fan,G28 X0 Y0 ; home XY axes,M18 ; disable stepper
;   exportFileFormat,g3drem
;   celebration,0
;   celebrationSong,Random Song
;   postProcessing,{PREPEND DREMEL_HEADER},{REPLACE "M106 S0" "M107"}
;   defaultSpeed,3600
;   outlineUnderspeed,0.5
;   solidInfillUnderspeed,0.8
;   supportUnderspeed,0.8
;   rapidXYspeed,7200
;   rapidZspeed,3600
;   minBridgingArea,50
;   bridgingExtraInflation,0
;   bridgingExtrusionMultiplier,1
;   bridgingSpeedMultiplier,0.8
;   useFixedBridgingAngle,0
;   fixedBridgingAngle,0
;   applyBridgingToPerimeters,0
;   filamentDiameters,1.75|1.75|1.75|1.75|1.75|1.75
;   filamentPricesPerKg,46|46|46|46|46|46
;   filamentDensities,1.25|1.25|1.25|1.25|1.25|1.25
;   useMinPrintHeight,0
;   minPrintHeight,0
;   useMaxPrintHeight,0
;   maxPrintHeight,0
;   useDiaphragm,0
;   diaphragmLayerInterval,20
;   robustSlicing,1
;   mergeAllIntoSolid,0
;   onlyRetractWhenCrossingOutline,1
;   retractBetweenLayers,0
;   useRetractionMinTravel,0
;   retractionMinTravel,3
;   retractWhileWiping,0
;   onlyWipeOutlines,1
;   avoidCrossingOutline,0
;   maxMovementDetourFactor,3
;   toolChangeRetractionDistance,12
;   toolChangeExtraRestartDistance,-0.5
;   toolChangeRetractionSpeed,600
;   externalThinWallType,0
;   internalThinWallType,2
;   thinWallAllowedOverlapPercentage,10
;   singleExtrusionMinLength,1
;   singleExtrusionMinPrintingWidthPercentage,50
;   singleExtrusionMaxPrintingWidthPercentage,200
;   singleExtrusionEndpointExtension,0.2
;   horizontalSizeCompensation,0
G90
M82
M107
M104 S220 T0
M907 X100 Y100 Z40 A80 ; set motor current
M132 X Y Z A ; recall home offsets
G28 ; home axes
G1 Z100 F3300 ; lower Z
G1 X-110.5 Y-74 F6000 ; move to wait position
M6 T0 ; wait for extruder to reach target temp
G1 Z0.6 F3300 ; position nozzle
G1 E-1.0000 F1200
G1 Z0.180 F3600
; process Process1
; layer 1, Z = 0.180
M108 T0
; tool H0.200 W0.500
; skirt
G1 X1.781 Y-0.411 F7200
G1 E0.0000 F360
G1 X1.251 Y10.559 E0.4566 F1260
G1 X1.775 Y18.328 E0.7804
G1 X1.745 Y18.483 E0.7869
G1 X0.732 Y20.548 E0.8825
G1 X0.629 Y20.667 E0.8891
G1 X-1.443 Y22.060 E0.9929
G1 X-1.512 Y22.094 E0.9961
G1 X-2.550 Y22.459 E1.0418
G1 X-2.625 Y22.475 E1.0450
G1 X-4.065 Y22.594 E1.1051
G1 X-4.077 Y22.595 E1.1056
G1 X-4.255 Y22.602 E1.1130
G1 X-4.268 Y22.602 E1.1135
G1 X-8.378 Y22.602 E1.2844
G1 X-17.810 Y22.696 E1.6766
G1 X-17.812 Y31.793 E2.0548
G1 X-17.814 Y31.829 E2.0563
G1 X-17.877 Y32.344 E2.0779
G1 X-17.883 Y32.380 E2.0794
G1 X-18.358 Y34.310 E2.1620
G1 X-18.372 Y34.353 E2.1639
G1 X-18.620 Y34.952 E2.1908
G1 X-18.640 Y34.992 E2.1927
G1 X-19.143 Y35.828 E2.2333
G1 X-19.159 Y35.851 E2.2344
G1 X-19.391 Y36.168 E2.2507
G1 X-19.408 Y36.189 E2.2519
G1 X-20.154 Y37.031 E2.2986
G1 X-20.177 Y37.055 E2.3000
G1 X-20.529 Y37.373 E2.3197
G1 X-20.554 Y37.393 E2.3211
G1 X-21.398 Y38.003 E2.3644
G1 X-21.424 Y38.020 E2.3657
G1 X-21.806 Y38.241 E2.3840
G1 X-21.833 Y38.255 E2.3853
G1 X-22.964 Y38.761 E2.4368
G1 X-23.001 Y38.774 E2.4384
G1 X-23.547 Y38.937 E2.4621
G1 X-23.586 Y38.945 E2.4638
G1 X-24.950 Y39.160 E2.5212
G1 X-24.973 Y39.163 E2.5221
G1 X-25.308 Y39.189 E2.5361
G1 X-25.331 Y39.190 E2.5371
G1 X-57.773 Y39.190 E3.8858
G1 X-57.993 Y39.099 E3.8957
G1 X-60.505 Y36.587 E4.0434
G1 X-60.596 Y36.366 E4.0534
G1 X-60.596 Y-26.402 E6.6630
G1 X-88.408 Y-26.402 E7.8192
G1 X-88.633 Y-26.497 E7.8294
G1 X-91.161 Y-29.112 E7.9806
G1 X-91.248 Y-29.340 E7.9907
G1 X-91.145 Y-32.392 E8.1177
G1 X-91.140 Y-32.437 E8.1196
G1 X-91.020 Y-33.078 E8.1467
G1 X-91.008 Y-33.122 E8.1486
G1 X-90.383 Y-34.909 E8.2273
G1 X-90.364 Y-34.953 E8.2293
G1 X-90.037 Y-35.558 E8.2579
G1 X-90.010 Y-35.598 E8.2599
G1 X-89.153 Y-36.712 E8.3183
G1 X-89.126 Y-36.743 E8.3200
G1 X-88.705 Y-37.158 E8.3446
G1 X-88.673 Y-37.185 E8.3463
G1 X-87.451 Y-38.095 E8.4097
G1 X-87.418 Y-38.117 E8.4113
G1 X-86.930 Y-38.390 E8.4346
G1 X-86.895 Y-38.407 E8.4362
G1 X-85.888 Y-38.809 E8.4813
G1 X-85.856 Y-38.820 E8.4827
G1 X-85.389 Y-38.948 E8.5029
G1 X-85.356 Y-38.956 E8.5043
G1 X-84.046 Y-39.161 E8.5594
G1 X-84.023 Y-39.163 E8.5603
G1 X-83.690 Y-39.189 E8.5742
G1 X-83.666 Y-39.190 E8.5752
G1 X-20.633 Y-39.190 E11.1958
G1 X-20.413 Y-39.099 E11.2057
G1 X-17.901 Y-36.587 E11.3534
G1 X-17.810 Y-36.366 E11.3633
G1 X-17.810 Y-4.696 E12.6800
G1 X-9.159 Y-4.694 E13.0397
G1 X-9.157 Y-4.694 E13.0398
G1 X-9.137 Y-4.694 E13.0406
G1 X-3.969 Y-4.646 E13.2554
G1 X-3.916 Y-4.641 E13.2576
G1 X-3.170 Y-4.501 E13.2892
G1 X-3.119 Y-4.487 E13.2914
G1 X-2.804 Y-4.368 E13.3054
G1 X-2.505 Y-4.357 E13.3179
G1 X-2.422 Y-4.342 E13.3213
G1 X-1.273 Y-3.968 E13.3716
G1 X-1.197 Y-3.931 E13.3751
G1 X0.639 Y-2.691 E13.4672
G1 X0.741 Y-2.575 E13.4737
G1 X1.749 Y-0.562 E13.5672
G1 X1.781 Y-0.411 E13.5736
G1 E12.5736 F1200
G1 X25.597 Y-8.598 F7200
G1 E13.5736 F1200
G1 X88.366 Y-8.598 E16.1832 F1260
G1 X88.586 Y-8.507 E16.1932
G1 X91.098 Y-5.995 E16.3409
G1 X91.190 Y-5.774 E16.3508
G1 X91.189 Y26.682 E17.7002
G1 X91.188 Y26.705 E17.7011
G1 X91.163 Y27.029 E17.7146
G1 X91.161 Y27.051 E17.7156
G1 X90.964 Y28.342 E17.7698
G1 X90.956 Y28.381 E17.7715
G1 X90.797 Y28.927 E17.7951
G1 X90.783 Y28.964 E17.7968
G1 X90.224 Y30.232 E17.8544
G1 X90.207 Y30.266 E17.8560
G1 X89.927 Y30.731 E17.8785
G1 X89.905 Y30.762 E17.8801
G1 X89.202 Y31.655 E17.9274
G1 X89.185 Y31.675 E17.9285
G1 X88.931 Y31.945 E17.9439
G1 X88.913 Y31.963 E17.9449
G1 X88.339 Y32.478 E17.9770
G1 X88.319 Y32.494 E17.9781
G1 X88.020 Y32.719 E17.9936
G1 X87.999 Y32.733 E17.9947
G1 X87.104 Y33.291 E18.0385
G1 X87.082 Y33.304 E18.0396
G1 X86.748 Y33.474 E18.0551
G1 X86.724 Y33.485 E18.0562
G1 X86.057 Y33.754 E18.0862
G1 X86.034 Y33.762 E18.0872
G1 X85.706 Y33.865 E18.1015
G1 X85.683 Y33.871 E18.1025
G1 X84.723 Y34.090 E18.1434
G1 X84.700 Y34.094 E18.1444
G1 X84.362 Y34.143 E18.1585
G1 X84.339 Y34.145 E18.1595
G1 X83.749 Y34.184 E18.1841
G1 X83.739 Y34.184 E18.1845
G1 X83.599 Y34.189 E18.1903
G1 X83.589 Y34.189 E18.1907
G1 X15.633 Y34.190 E21.0160
G1 X15.413 Y34.099 E21.0259
G1 X12.901 Y31.587 E21.1736
G1 X12.809 Y31.366 E21.1836
G1 X12.809 Y-31.619 E23.8022
G1 X12.810 Y-31.635 E23.8029
G1 X12.823 Y-31.872 E23.8127
G1 X12.824 Y-31.889 E23.8134
G1 X12.932 Y-32.862 E23.8541
G1 X12.936 Y-32.887 E23.8552
G1 X13.005 Y-33.240 E23.8701
G1 X13.011 Y-33.264 E23.8712
G1 X13.206 Y-33.949 E23.9008
G1 X13.214 Y-33.973 E23.9018
G1 X13.343 Y-34.313 E23.9169
G1 X13.353 Y-34.336 E23.9180
G1 X13.828 Y-35.328 E23.9637
G1 X13.844 Y-35.358 E23.9651
G1 X14.095 Y-35.761 E23.9849
G1 X14.114 Y-35.789 E23.9863
G1 X14.796 Y-36.654 E24.0321
G1 X14.813 Y-36.673 E24.0331
G1 X15.063 Y-36.941 E24.0484
G1 X15.082 Y-36.958 E24.0494
G1 X15.654 Y-37.474 E24.0815
G1 X15.674 Y-37.491 E24.0825
G1 X15.974 Y-37.716 E24.0981
G1 X15.995 Y-37.731 E24.0992
G1 X16.878 Y-38.283 E24.1425
G1 X16.900 Y-38.295 E24.1435
G1 X17.226 Y-38.463 E24.1588
G1 X17.249 Y-38.473 E24.1598
G1 X17.920 Y-38.748 E24.1900
G1 X17.943 Y-38.756 E24.1910
G1 X18.287 Y-38.864 E24.2060
G1 X18.311 Y-38.871 E24.2070
G1 X19.359 Y-39.106 E24.2517
G1 X19.389 Y-39.111 E24.2529
G1 X19.812 Y-39.163 E24.2706
G1 X19.842 Y-39.165 E24.2719
G1 X22.697 Y-39.230 E24.3906
G1 X22.923 Y-39.141 E24.4007
G1 X25.504 Y-36.618 E24.5508
G1 X25.598 Y-36.395 E24.5608
G1 X25.598 Y-8.598 E25.7165
G1 X25.198 Y-8.198 F7200
G1 X88.286 Y-8.198 E28.3394 F1260
G1 X88.360 Y-8.168 E28.3427
G1 X90.759 Y-5.768 E28.4838
G1 X90.790 Y-5.695 E28.4871
G1 X90.789 Y26.675 E29.8329
G1 X90.788 Y26.682 E29.8332
G1 X90.765 Y26.991 E29.8460
G1 X90.764 Y26.999 E29.8464
G1 X90.571 Y28.269 E29.8998
G1 X90.568 Y28.282 E29.9003
G1 X90.416 Y28.802 E29.9229
G1 X90.412 Y28.815 E29.9234
G1 X89.863 Y30.059 E29.9800
G1 X89.857 Y30.070 E29.9805
G1 X89.591 Y30.514 E30.0020
G1 X89.583 Y30.525 E30.0025
G1 X88.893 Y31.401 E30.0489
G1 X88.887 Y31.407 E30.0493
G1 X88.646 Y31.665 E30.0640
G1 X88.639 Y31.671 E30.0643
G1 X88.078 Y32.174 E30.0957
G1 X88.072 Y32.180 E30.0960
G1 X87.787 Y32.394 E30.1108
G1 X87.780 Y32.399 E30.1112
G1 X86.900 Y32.947 E30.1543
G1 X86.893 Y32.951 E30.1547
G1 X86.574 Y33.113 E30.1695
G1 X86.567 Y33.117 E30.1699
G1 X85.914 Y33.380 E30.1991
G1 X85.907 Y33.383 E30.1994
G1 X85.594 Y33.481 E30.2131
G1 X85.586 Y33.483 E30.2134
G1 X84.642 Y33.698 E30.2536
G1 X84.634 Y33.699 E30.2540
G1 X84.312 Y33.746 E30.2675
G1 X84.305 Y33.747 E30.2678
G1 X83.726 Y33.785 E30.2919
G1 X83.723 Y33.785 E30.2921
G1 X83.589 Y33.789 E30.2976
G1 X83.586 Y33.789 E30.2978
G1 X15.713 Y33.790 E33.1196
G1 X15.639 Y33.760 E33.1229
G1 X13.240 Y31.360 E33.2640
G1 X13.210 Y31.287 E33.2673
G1 X13.210 Y-31.613 E35.8824
G1 X13.210 Y-31.619 E35.8826
G1 X13.222 Y-31.845 E35.8920
G1 X13.223 Y-31.850 E35.8922
G1 X13.329 Y-32.810 E35.9324
G1 X13.330 Y-32.818 E35.9327
G1 X13.396 Y-33.155 E35.9470
G1 X13.398 Y-33.163 E35.9473
G1 X13.589 Y-33.831 E35.9762
G1 X13.591 Y-33.839 E35.9766
G1 X13.714 Y-34.163 E35.9910
G1 X13.717 Y-34.171 E35.9913
G1 X14.184 Y-35.146 E36.0362
G1 X14.189 Y-35.155 E36.0367
G1 X14.429 Y-35.541 E36.0556
G1 X14.435 Y-35.550 E36.0560
G1 X15.105 Y-36.399 E36.1010
G1 X15.111 Y-36.406 E36.1014
G1 X15.350 Y-36.661 E36.1159
G1 X15.356 Y-36.667 E36.1163
G1 X15.915 Y-37.171 E36.1476
G1 X15.922 Y-37.176 E36.1479
G1 X16.207 Y-37.391 E36.1628
G1 X16.215 Y-37.396 E36.1631
G1 X17.082 Y-37.939 E36.2057
G1 X17.090 Y-37.943 E36.2060
G1 X17.401 Y-38.103 E36.2206
G1 X17.409 Y-38.106 E36.2209
G1 X18.063 Y-38.374 E36.2504
G1 X18.071 Y-38.377 E36.2507
G1 X18.399 Y-38.480 E36.2650
G1 X18.407 Y-38.482 E36.2653
G1 X19.437 Y-38.714 E36.3092
G1 X19.447 Y-38.715 E36.3096
G1 X19.851 Y-38.765 E36.3265
G1 X19.861 Y-38.765 E36.3270
G1 X22.626 Y-38.828 E36.4419
G1 X22.701 Y-38.798 E36.4453
G1 X25.166 Y-36.388 E36.5886
G1 X25.198 Y-36.314 E36.5920
G1 X25.198 Y-8.198 E37.7609
G1 E36.7609 F1200
G1 X1.368 Y-0.429 F7200
G1 E37.7609 F1200
G1 X1.379 Y-0.379 E37.7631 F1260
G1 X0.850 Y10.563 E38.2185
G1 X1.372 Y18.303 E38.5410
G1 X1.362 Y18.354 E38.5432
G1 X0.396 Y20.325 E38.6344
G1 X0.362 Y20.364 E38.6366
G1 X-1.645 Y21.714 E38.7372
G1 X-1.668 Y21.725 E38.7382
G1 X-2.658 Y22.073 E38.7819
G1 X-2.683 Y22.078 E38.7829
G1 X-4.094 Y22.195 E38.8418
G1 X-4.098 Y22.195 E38.8419
G1 X-4.268 Y22.202 E38.8490
G1 X-4.272 Y22.202 E38.8492
G1 X-8.380 Y22.202 E39.0200
G1 X-18.210 Y22.300 E39.4287
G1 X-18.212 Y31.781 E39.8229
G1 X-18.213 Y31.793 E39.8234
G1 X-18.273 Y32.284 E39.8439
G1 X-18.275 Y32.296 E39.8444
G1 X-18.743 Y34.200 E39.9259
G1 X-18.748 Y34.214 E39.9266
G1 X-18.984 Y34.785 E39.9523
G1 X-18.990 Y34.799 E39.9529
G1 X-19.481 Y35.614 E39.9924
G1 X-19.486 Y35.621 E39.9928
G1 X-19.708 Y35.924 E40.0084
G1 X-19.714 Y35.931 E40.0088
G1 X-20.446 Y36.758 E40.0547
G1 X-20.454 Y36.765 E40.0552
G1 X-20.789 Y37.069 E40.0740
G1 X-20.797 Y37.076 E40.0744
G1 X-21.624 Y37.673 E40.1168
G1 X-21.633 Y37.679 E40.1172
G1 X-21.997 Y37.889 E40.1347
G1 X-22.006 Y37.894 E40.1352
G1 X-23.115 Y38.390 E40.1857
G1 X-23.128 Y38.395 E40.1862
G1 X-23.648 Y38.549 E40.2088
G1 X-23.661 Y38.552 E40.2094
G1 X-25.004 Y38.764 E40.2659
G1 X-25.012 Y38.765 E40.2662
G1 X-25.331 Y38.790 E40.2795
G1 X-25.339 Y38.790 E40.2799
G1 X-57.693 Y38.790 E41.6250
G1 X-57.767 Y38.760 E41.6283
G1 X-60.166 Y36.360 E41.7694
G1 X-60.196 Y36.287 E41.7727
G1 X-60.196 Y-26.802 E44.3956
G1 X-88.327 Y-26.802 E45.5651
G1 X-88.402 Y-26.834 E45.5685
G1 X-90.817 Y-29.332 E45.7129
G1 X-90.846 Y-29.407 E45.7163
G1 X-90.746 Y-32.363 E45.8393
G1 X-90.744 Y-32.378 E45.8399
G1 X-90.630 Y-32.990 E45.8658
G1 X-90.626 Y-33.004 E45.8664
G1 X-90.011 Y-34.762 E45.9438
G1 X-90.005 Y-34.776 E45.9445
G1 X-89.692 Y-35.353 E45.9717
G1 X-89.684 Y-35.367 E45.9724
G1 X-88.845 Y-36.457 E46.0296
G1 X-88.835 Y-36.468 E46.0302
G1 X-88.434 Y-36.863 E46.0536
G1 X-88.423 Y-36.872 E46.0542
G1 X-87.222 Y-37.767 E46.1165
G1 X-87.211 Y-37.774 E46.1170
G1 X-86.746 Y-38.035 E46.1392
G1 X-86.734 Y-38.040 E46.1397
