; G-Code generated by Simplify3D(R) Version 4.0.1
; Aug 19, 2018 at 6:14:14 PM
; Settings Summary
;   processName,Process1
;   applyToModels,Bltouch_Mount
;   profileName,Dremel Idea Builder (modified)
;   profileVersion,2018-06-17 20:02:01
;   baseProfile,
;   printMaterial,PLA
;   printQuality,High
;   printExtruders,
;   extruderName,Primary Extruder
;   extruderToolheadNumber,0
;   extruderDiameter,0.4
;   extruderAutoWidth,0
;   extruderWidth,0.4
;   extrusionMultiplier,1
;   extruderUseRetract,1
;   extruderRetractionDistance,1
;   extruderExtraRestartDistance,0
;   extruderRetractionZLift,0
;   extruderRetractionSpeed,1200
;   extruderUseCoasting,0
;   extruderCoastingDistance,0.2
;   extruderUseWipe,0
;   extruderWipeDistance,5
;   primaryExtruder,0
;   layerHeight,0.1
;   topSolidLayers,4
;   bottomSolidLayers,4
;   perimeterOutlines,2
;   printPerimetersInsideOut,1
;   startPointOption,2
;   startPointOriginX,0
;   startPointOriginY,0
;   sequentialIslands,0
;   spiralVaseMode,0
;   firstLayerHeightPercentage,90
;   firstLayerWidthPercentage,125
;   firstLayerUnderspeed,0.35
;   useRaft,0
;   raftExtruder,0
;   raftTopLayers,3
;   raftBaseLayers,2
;   raftOffset,3
;   raftSeparationDistance,0.14
;   raftTopInfill,100
;   aboveRaftSpeedMultiplier,0.3
;   useSkirt,1
;   skirtExtruder,0
;   skirtLayers,2
;   skirtOutlines,2
;   skirtOffset,4
;   usePrimePillar,0
;   primePillarExtruder,999
;   primePillarWidth,12
;   primePillarLocation,7
;   primePillarSpeedMultiplier,1
;   useOozeShield,0
;   oozeShieldExtruder,999
;   oozeShieldOffset,2
;   oozeShieldOutlines,1
;   oozeShieldSidewallShape,1
;   oozeShieldSidewallAngle,30
;   oozeShieldSpeedMultiplier,1
;   infillExtruder,0
;   internalInfillPattern,Rectilinear
;   externalInfillPattern,Rectilinear
;   infillPercentage,100
;   outlineOverlapPercentage,20
;   infillExtrusionWidthPercentage,200
;   minInfillLength,5
;   infillLayerInterval,1
;   internalInfillAngles,45,-45
;   overlapInternalInfillAngles,0
;   externalInfillAngles,45,-45
;   generateSupport,0
;   supportExtruder,0
;   supportInfillPercentage,40
;   supportExtraInflation,0
;   supportBaseLayers,0
;   denseSupportExtruder,0
;   denseSupportLayers,0
;   denseSupportInfillPercentage,70
;   supportLayerInterval,1
;   supportHorizontalPartOffset,0.3
;   supportUpperSeparationLayers,1
;   supportLowerSeparationLayers,1
;   supportType,0
;   supportGridSpacing,4
;   maxOverhangAngle,40
;   supportAngles,0
;   temperatureName,Primary Extruder
;   temperatureNumber,0
;   temperatureSetpointCount,1
;   temperatureSetpointLayers,1
;   temperatureSetpointTemperatures,220
;   temperatureStabilizeAtStartup,0
;   temperatureHeatedBed,0
;   temperatureRelayBetweenLayers,0
;   temperatureRelayBetweenLoops,0
;   fanLayers,1,2
;   fanSpeeds,0,100
;   blipFanToFullPower,0
;   adjustSpeedForCooling,1
;   minSpeedLayerTime,15
;   minCoolingSpeedSlowdown,20
;   increaseFanForCooling,0
;   minFanLayerTime,45
;   maxCoolingFanSpeed,100
;   increaseFanForBridging,1
;   bridgingFanSpeed,100
;   use5D,1
;   relativeEdistances,0
;   allowEaxisZeroing,0
;   independentExtruderAxes,1
;   includeM10123,0
;   stickySupport,1
;   applyToolheadOffsets,0
;   gcodeXoffset,0
;   gcodeYoffset,0
;   gcodeZoffset,0
;   overrideMachineDefinition,1
;   machineTypeOverride,0
;   strokeXoverride,230
;   strokeYoverride,150
;   strokeZoverride,140
;   originOffsetXoverride,115
;   originOffsetYoverride,75
;   originOffsetZoverride,0
;   homeXdirOverride,1
;   homeYdirOverride,1
;   homeZdirOverride,-1
;   flipXoverride,1
;   flipYoverride,-1
;   flipZoverride,1
;   toolheadOffsets,0,0|0,0|0,0|0,0|0,0|0,0
;   overrideFirmwareConfiguration,1
;   firmwareTypeOverride,FlashForge Dreamer Firmware
;   GPXconfigOverride,r2
;   baudRateOverride,115200
;   overridePrinterModels,1
;   printerModelsOverride
;   startingGcode,M104 S[extruder0_temperature] T0,M907 X100 Y100 Z40 A80 ; set motor current,M132 X Y Z A ; recall home offsets,G28 ; home axes,G1 Z100 F3300 ; lower Z,G1 X-110.5 Y-74 F6000 ; move to wait position,M6 T0 ; wait for extruder to reach target temp,G1 Z0.6 F3300 ; position nozzle
;   layerChangeGcode,
;   retractionGcode,
;   toolChangeGcode,
;   endingGcode,M104 S0 T0 ; cool down extruder,G1 Z140 F3300 ; send Z axis to bottom of machine,M107 ; disable cooling fan,G28 X0 Y0 ; home XY axes,M18 ; disable stepper
;   exportFileFormat,g3drem
;   celebration,0
;   celebrationSong,Random Song
;   postProcessing,{PREPEND DREMEL_HEADER},{REPLACE "M106 S0" "M107"}
;   defaultSpeed,3600
;   outlineUnderspeed,0.5
;   solidInfillUnderspeed,0.8
;   supportUnderspeed,0.8
;   rapidXYspeed,7200
;   rapidZspeed,3600
;   minBridgingArea,50
;   bridgingExtraInflation,0
;   bridgingExtrusionMultiplier,1
;   bridgingSpeedMultiplier,0.8
;   useFixedBridgingAngle,0
;   fixedBridgingAngle,0
;   applyBridgingToPerimeters,0
;   filamentDiameters,1.75|1.75|1.75|1.75|1.75|1.75
;   filamentPricesPerKg,46|46|46|46|46|46
;   filamentDensities,1.25|1.25|1.25|1.25|1.25|1.25
;   useMinPrintHeight,0
;   minPrintHeight,0
;   useMaxPrintHeight,0
;   maxPrintHeight,0
;   useDiaphragm,0
;   diaphragmLayerInterval,20
;   robustSlicing,1
;   mergeAllIntoSolid,0
;   onlyRetractWhenCrossingOutline,1
;   retractBetweenLayers,0
;   useRetractionMinTravel,0
;   retractionMinTravel,3
;   retractWhileWiping,0
;   onlyWipeOutlines,1
;   avoidCrossingOutline,0
;   maxMovementDetourFactor,3
;   toolChangeRetractionDistance,12
;   toolChangeExtraRestartDistance,-0.5
;   toolChangeRetractionSpeed,600
;   externalThinWallType,0
;   internalThinWallType,2
;   thinWallAllowedOverlapPercentage,10
;   singleExtrusionMinLength,1
;   singleExtrusionMinPrintingWidthPercentage,50
;   singleExtrusionMaxPrintingWidthPercentage,200
;   singleExtrusionEndpointExtension,0.2
;   horizontalSizeCompensation,0
G90
M82
M107
M104 S220 T0
M907 X100 Y100 Z40 A80 ; set motor current
M132 X Y Z A ; recall home offsets
G28 ; home axes
G1 Z100 F3300 ; lower Z
G1 X-110.5 Y-74 F6000 ; move to wait position
M6 T0 ; wait for extruder to reach target temp
G1 Z0.6 F3300 ; position nozzle
G1 E-1.0000 F1200
G1 Z0.090 F3600
; process Process1
; layer 1, Z = 0.090
M108 T0
; tool H0.100 W0.500
; skirt
G1 X-4.204 Y8.448 F7200
G1 E0.0000 F360
G1 X-4.644 Y8.221 E0.0103 F1260
G1 X-5.275 Y7.948 E0.0246
G1 X-5.816 Y7.764 E0.0365
G1 X-6.373 Y7.620 E0.0484
G1 X-6.928 Y7.517 E0.0602
G1 X-7.497 Y7.454 E0.0721
G1 X-8.197 Y7.428 E0.0866
G1 X-15.672 Y7.428 E0.2420
G1 X-15.692 Y7.428 E0.2424
G1 X-15.973 Y7.409 E0.2483
G1 X-15.992 Y7.407 E0.2487
G1 X-16.670 Y7.318 E0.2629
G1 X-16.709 Y7.310 E0.2637
G1 X-17.253 Y7.165 E0.2754
G1 X-17.290 Y7.152 E0.2762
G1 X-18.052 Y6.836 E0.2934
G1 X-18.087 Y6.819 E0.2942
G1 X-18.576 Y6.537 E0.3059
G1 X-18.608 Y6.515 E0.3067
G1 X-19.262 Y6.013 E0.3239
G1 X-19.292 Y5.987 E0.3247
G1 X-19.690 Y5.589 E0.3364
G1 X-19.716 Y5.559 E0.3372
G1 X-20.218 Y4.905 E0.3544
G1 X-20.240 Y4.873 E0.3552
G1 X-20.522 Y4.384 E0.3669
G1 X-20.539 Y4.349 E0.3677
G1 X-20.855 Y3.587 E0.3849
G1 X-20.868 Y3.550 E0.3857
G1 X-21.013 Y3.006 E0.3974
G1 X-21.021 Y2.967 E0.3982
G1 X-21.110 Y2.289 E0.4124
G1 X-21.112 Y2.270 E0.4128
G1 X-21.131 Y1.989 E0.4187
G1 X-21.131 Y1.969 E0.4191
G1 X-21.131 Y-12.300 E0.7157
G1 X-21.131 Y-12.310 E0.7159
G1 X-21.127 Y-12.447 E0.7188
G1 X-21.126 Y-12.456 E0.7190
G1 X-21.083 Y-13.135 E0.7331
G1 X-21.081 Y-13.155 E0.7335
G1 X-21.044 Y-13.436 E0.7394
G1 X-21.041 Y-13.455 E0.7398
G1 X-20.869 Y-14.327 E0.7583
G1 X-20.864 Y-14.347 E0.7587
G1 X-20.789 Y-14.624 E0.7647
G1 X-20.784 Y-14.643 E0.7651
G1 X-20.540 Y-15.357 E0.7808
G1 X-20.534 Y-15.374 E0.7812
G1 X-20.430 Y-15.626 E0.7868
G1 X-20.422 Y-15.643 E0.7872
G1 X-20.067 Y-16.366 E0.8040
G1 X-20.058 Y-16.384 E0.8044
G1 X-19.913 Y-16.636 E0.8104
G1 X-19.902 Y-16.654 E0.8108
G1 X-19.438 Y-17.346 E0.8282
G1 X-19.426 Y-17.362 E0.8286
G1 X-19.257 Y-17.582 E0.8344
G1 X-19.245 Y-17.597 E0.8348
G1 X-18.732 Y-18.182 E0.8509
G1 X-18.719 Y-18.196 E0.8513
G1 X-18.523 Y-18.393 E0.8571
G1 X-18.508 Y-18.406 E0.8575
G1 X-17.905 Y-18.937 E0.8742
G1 X-17.889 Y-18.950 E0.8746
G1 X-17.666 Y-19.122 E0.8805
G1 X-17.650 Y-19.134 E0.8809
G1 X-16.980 Y-19.582 E0.8977
G1 X-16.964 Y-19.593 E0.8981
G1 X-16.721 Y-19.733 E0.9039
G1 X-16.704 Y-19.742 E0.9043
G1 X-15.990 Y-20.096 E0.9209
G1 X-15.972 Y-20.104 E0.9213
G1 X-15.713 Y-20.212 E0.9271
G1 X-15.695 Y-20.219 E0.9275
G1 X-14.929 Y-20.481 E0.9443
G1 X-14.910 Y-20.487 E0.9447
G1 X-14.636 Y-20.561 E0.9507
G1 X-14.616 Y-20.566 E0.9511
G1 X-13.818 Y-20.726 E0.9680
G1 X-13.799 Y-20.729 E0.9684
G1 X-13.518 Y-20.766 E0.9743
G1 X-13.498 Y-20.768 E0.9747
G1 X-12.763 Y-20.816 E0.9900
G1 X-12.753 Y-20.817 E0.9902
G1 X-12.612 Y-20.821 E0.9932
G1 X-12.602 Y-20.822 E0.9934
G1 X7.769 Y-20.822 E1.4168
G1 X7.780 Y-20.821 E1.4171
G1 X7.949 Y-20.815 E1.4206
G1 X7.961 Y-20.814 E1.4208
G1 X8.683 Y-20.757 E1.4359
G1 X8.706 Y-20.754 E1.4364
G1 X9.040 Y-20.702 E1.4434
G1 X9.063 Y-20.697 E1.4439
G1 X9.849 Y-20.508 E1.4607
G1 X9.872 Y-20.502 E1.4612
G1 X10.193 Y-20.397 E1.4682
G1 X10.215 Y-20.389 E1.4687
G1 X10.962 Y-20.080 E1.4855
G1 X10.984 Y-20.070 E1.4860
G1 X11.285 Y-19.917 E1.4930
G1 X11.306 Y-19.905 E1.4935
G1 X11.995 Y-19.483 E1.5103
G1 X12.015 Y-19.469 E1.5108
G1 X12.288 Y-19.271 E1.5178
G1 X12.306 Y-19.256 E1.5183
G1 X12.921 Y-18.731 E1.5351
G1 X12.939 Y-18.715 E1.5356
G1 X13.178 Y-18.476 E1.5426
G1 X13.194 Y-18.459 E1.5431
G1 X13.719 Y-17.844 E1.5599
G1 X13.733 Y-17.825 E1.5604
G1 X13.932 Y-17.552 E1.5675
G1 X13.945 Y-17.533 E1.5679
G1 X14.367 Y-16.843 E1.5848
G1 X14.379 Y-16.823 E1.5852
G1 X14.532 Y-16.522 E1.5923
G1 X14.542 Y-16.500 E1.5928
G1 X14.852 Y-15.753 E1.6096
G1 X14.860 Y-15.731 E1.6101
G1 X14.964 Y-15.409 E1.6171
G1 X14.971 Y-15.387 E1.6176
G1 X15.160 Y-14.600 E1.6344
G1 X15.164 Y-14.577 E1.6349
G1 X15.217 Y-14.244 E1.6419
G1 X15.220 Y-14.220 E1.6424
G1 X15.277 Y-13.498 E1.6574
G1 X15.277 Y-13.487 E1.6577
G1 X15.284 Y-13.318 E1.6612
G1 X15.284 Y-13.306 E1.6614
G1 X15.284 Y-1.626 E1.9042
G1 X15.452 Y-1.589 E1.9078
G1 X15.468 Y-1.586 E1.9082
G1 X16.384 Y-1.335 E1.9279
G1 X16.400 Y-1.330 E1.9282
G1 X16.617 Y-1.258 E1.9330
G1 X16.632 Y-1.253 E1.9333
G1 X17.517 Y-0.906 E1.9531
G1 X17.532 Y-0.899 E1.9534
G1 X17.741 Y-0.804 E1.9582
G1 X17.755 Y-0.797 E1.9585
G1 X18.598 Y-0.358 E1.9783
G1 X18.612 Y-0.350 E1.9786
G1 X18.810 Y-0.233 E1.9834
G1 X18.823 Y-0.225 E1.9837
G1 X19.614 Y0.302 E2.0035
G1 X19.627 Y0.311 E2.0038
G1 X19.811 Y0.448 E2.0086
G1 X19.824 Y0.458 E2.0089
G1 X20.554 Y1.066 E2.0287
G1 X20.566 Y1.077 E2.0290
G1 X20.735 Y1.233 E2.0338
G1 X20.746 Y1.244 E2.0341
G1 X21.407 Y1.926 E2.0539
G1 X21.418 Y1.938 E2.0542
G1 X21.569 Y2.111 E2.0590
G1 X21.579 Y2.123 E2.0593
G1 X22.164 Y2.872 E2.0790
G1 X22.173 Y2.885 E2.0794
G1 X22.305 Y3.074 E2.0842
G1 X22.314 Y3.087 E2.0845
G1 X22.816 Y3.894 E2.1042
G1 X22.824 Y3.908 E2.1046
G1 X22.934 Y4.109 E2.1093
G1 X22.942 Y4.123 E2.1097
G1 X23.355 Y4.979 E2.1294
G1 X23.361 Y4.994 E2.1298
G1 X23.450 Y5.205 E2.1345
G1 X23.455 Y5.220 E2.1349
G1 X23.775 Y6.115 E2.1546
G1 X23.780 Y6.130 E2.1550
G1 X23.845 Y6.351 E2.1597
G1 X23.849 Y6.366 E2.1601
G1 X24.071 Y7.290 E2.1798
G1 X24.075 Y7.306 E2.1802
G1 X24.116 Y7.531 E2.1849
G1 X24.119 Y7.547 E2.1853
G1 X24.241 Y8.490 E2.2050
G1 X24.243 Y8.505 E2.2053
G1 X24.260 Y8.734 E2.2101
G1 X24.261 Y8.750 E2.2104
G1 X24.282 Y9.700 E2.2302
G1 X24.282 Y9.716 E2.2305
G1 X24.275 Y9.946 E2.2353
G1 X24.274 Y9.962 E2.2356
G1 X24.194 Y10.909 E2.2554
G1 X24.192 Y10.925 E2.2557
G1 X24.161 Y11.152 E2.2605
G1 X24.158 Y11.168 E2.2608
G1 X23.977 Y12.101 E2.2806
G1 X23.974 Y12.116 E2.2809
G1 X23.918 Y12.339 E2.2857
G1 X23.914 Y12.355 E2.2860
G1 X23.635 Y13.263 E2.3058
G1 X23.630 Y13.278 E2.3061
G1 X23.551 Y13.494 E2.3109
G1 X23.545 Y13.509 E2.3112
G1 X23.171 Y14.382 E2.3310
G1 X23.164 Y14.396 E2.3313
G1 X23.062 Y14.602 E2.3361
G1 X23.055 Y14.616 E2.3364
G1 X22.590 Y15.445 E2.3562
G1 X22.581 Y15.459 E2.3565
G1 X22.458 Y15.653 E2.3613
G1 X22.449 Y15.666 E2.3616
G1 X21.899 Y16.440 E2.3814
G1 X21.889 Y16.453 E2.3817
G1 X21.746 Y16.633 E2.3865
G1 X21.736 Y16.645 E2.3868
G1 X21.106 Y17.356 E2.4065
G1 X21.095 Y17.368 E2.4069
G1 X20.933 Y17.531 E2.4116
G1 X20.922 Y17.542 E2.4120
G1 X20.219 Y18.182 E2.4317
G1 X20.207 Y18.193 E2.4321
G1 X20.029 Y18.338 E2.4368
G1 X20.017 Y18.348 E2.4372
G1 X19.250 Y18.909 E2.4569
G1 X19.237 Y18.918 E2.4573
G1 X19.045 Y19.044 E2.4620
G1 X19.031 Y19.052 E2.4624
G1 X18.209 Y19.529 E2.4821
G1 X18.195 Y19.536 E2.4824
G1 X17.990 Y19.641 E2.4872
G1 X17.976 Y19.647 E2.4876
G1 X17.108 Y20.034 E2.5073
G1 X17.093 Y20.040 E2.5076
G1 X16.878 Y20.122 E2.5124
G1 X16.863 Y20.127 E2.5127
G1 X15.959 Y20.418 E2.5325
G1 X15.943 Y20.423 E2.5328
G1 X15.721 Y20.481 E2.5376
G1 X15.706 Y20.485 E2.5379
G1 X14.775 Y20.678 E2.5577
G1 X14.760 Y20.681 E2.5580
G1 X14.533 Y20.716 E2.5628
G1 X14.517 Y20.718 E2.5631
G1 X13.571 Y20.811 E2.5829
G1 X13.555 Y20.812 E2.5832
G1 X13.326 Y20.822 E2.5880
G1 X13.310 Y20.822 E2.5883
G1 X12.360 Y20.814 E2.6081
G1 X12.344 Y20.814 E2.6084
G1 X12.114 Y20.799 E2.6132
G1 X12.098 Y20.798 E2.6135
G1 X11.154 Y20.688 E2.6333
G1 X11.139 Y20.686 E2.6336
G1 X10.912 Y20.647 E2.6384
G1 X10.897 Y20.644 E2.6387
G1 X9.970 Y20.435 E2.6585
G1 X9.954 Y20.431 E2.6588
G1 X9.733 Y20.368 E2.6636
G1 X9.718 Y20.364 E2.6639
G1 X8.819 Y20.056 E2.6836
G1 X8.804 Y20.051 E2.6840
G1 X8.591 Y19.965 E2.6888
G1 X8.576 Y19.959 E2.6891
G1 X7.715 Y19.558 E2.7088
G1 X7.701 Y19.550 E2.7092
G1 X7.498 Y19.442 E2.7139
G1 X7.484 Y19.435 E2.7143
G1 X6.670 Y18.944 E2.7340
G1 X6.657 Y18.935 E2.7344
G1 X6.467 Y18.806 E2.7391
G1 X6.454 Y18.797 E2.7395
G1 X5.697 Y18.222 E2.7592
G1 X5.684 Y18.212 E2.7596
G1 X5.509 Y18.064 E2.7643
G1 X5.497 Y18.053 E2.7647
G1 X4.848 Y17.440 E2.7832
G1 X4.842 Y17.435 E2.7834
G1 X4.761 Y17.354 E2.7858
G1 X4.755 Y17.348 E2.7859
G1 X-2.299 Y9.942 E2.9986
G1 X-2.779 Y9.474 E3.0125
G1 X-3.227 Y9.098 E3.0247
G1 X-3.702 Y8.756 E3.0368
G1 X-4.204 Y8.448 E3.0491
G1 X-4.007 Y8.099 F7200
G1 X-4.472 Y7.859 E3.0599 F1260
G1 X-5.131 Y7.574 E3.0749
G1 X-5.702 Y7.380 E3.0874
G1 X-6.286 Y7.229 E3.0999
G1 X-6.869 Y7.121 E3.1123
G1 X-7.468 Y7.054 E3.1248
G1 X-8.190 Y7.028 E3.1398
G1 X-15.666 Y7.028 E3.2952
G1 X-15.672 Y7.028 E3.2953
G1 X-15.940 Y7.011 E3.3009
G1 X-15.947 Y7.010 E3.3011
G1 X-16.605 Y6.923 E3.3149
G1 X-16.618 Y6.921 E3.3151
G1 X-17.137 Y6.782 E3.3263
G1 X-17.149 Y6.777 E3.3266
G1 X-17.887 Y6.472 E3.3432
G1 X-17.899 Y6.466 E3.3434
G1 X-18.364 Y6.197 E3.3546
G1 X-18.375 Y6.190 E3.3549
G1 X-19.008 Y5.704 E3.3715
G1 X-19.018 Y5.695 E3.3718
G1 X-19.398 Y5.315 E3.3829
G1 X-19.407 Y5.306 E3.3832
G1 X-19.893 Y4.672 E3.3998
G1 X-19.900 Y4.661 E3.4001
G1 X-20.169 Y4.196 E3.4113
G1 X-20.175 Y4.184 E3.4115
G1 X-20.480 Y3.446 E3.4281
G1 X-20.485 Y3.434 E3.4284
G1 X-20.624 Y2.915 E3.4396
G1 X-20.626 Y2.902 E3.4398
G1 X-20.713 Y2.244 E3.4536
G1 X-20.714 Y2.237 E3.4538
G1 X-20.731 Y1.969 E3.4594
G1 X-20.731 Y1.963 E3.4595
G1 X-20.731 Y-12.297 E3.7559
G1 X-20.731 Y-12.300 E3.7560
G1 X-20.727 Y-12.431 E3.7587
G1 X-20.727 Y-12.434 E3.7588
G1 X-20.684 Y-13.103 E3.7727
G1 X-20.683 Y-13.110 E3.7728
G1 X-20.648 Y-13.377 E3.7784
G1 X-20.647 Y-13.384 E3.7786
G1 X-20.477 Y-14.243 E3.7968
G1 X-20.476 Y-14.250 E3.7969
G1 X-20.405 Y-14.514 E3.8026
G1 X-20.403 Y-14.521 E3.8028
G1 X-20.164 Y-15.221 E3.8182
G1 X-20.162 Y-15.227 E3.8183
G1 X-20.062 Y-15.467 E3.8237
G1 X-20.060 Y-15.473 E3.8238
G1 X-19.711 Y-16.184 E3.8403
G1 X-19.708 Y-16.190 E3.8404
G1 X-19.570 Y-16.431 E3.8462
G1 X-19.566 Y-16.436 E3.8463
G1 X-19.109 Y-17.118 E3.8634
G1 X-19.105 Y-17.123 E3.8635
G1 X-18.944 Y-17.334 E3.8690
G1 X-18.940 Y-17.339 E3.8692
G1 X-18.435 Y-17.913 E3.8851
G1 X-18.431 Y-17.918 E3.8852
G1 X-18.244 Y-18.105 E3.8907
G1 X-18.239 Y-18.110 E3.8908
G1 X-17.645 Y-18.633 E3.9073
G1 X-17.640 Y-18.637 E3.9074
G1 X-17.427 Y-18.801 E3.9130
G1 X-17.422 Y-18.805 E3.9132
G1 X-16.763 Y-19.246 E3.9296
G1 X-16.758 Y-19.250 E3.9298
G1 X-16.526 Y-19.384 E3.9353
G1 X-16.521 Y-19.387 E3.9355
G1 X-15.818 Y-19.735 E3.9518
G1 X-15.812 Y-19.738 E3.9519
G1 X-15.566 Y-19.841 E3.9575
G1 X-15.559 Y-19.843 E3.9576
