; G-Code generated by Simplify3D(R) Version 4.0.1
; Jun 5, 2018 at 5:20:50 PM
; Settings Summary
;   processName,Process1
;   applyToModels,Bltouch_Mount
;   profileName,Tevo Tornado (modified)
;   profileVersion,2018-05-20 11:19:53
;   baseProfile,Default
;   printMaterial,PLA
;   printQuality,High
;   printExtruders,
;   extruderName,Extruder 1
;   extruderToolheadNumber,0
;   extruderDiameter,0.4
;   extruderAutoWidth,1
;   extruderWidth,0.48
;   extrusionMultiplier,1
;   extruderUseRetract,1
;   extruderRetractionDistance,6
;   extruderExtraRestartDistance,0
;   extruderRetractionZLift,0
;   extruderRetractionSpeed,3300
;   extruderUseCoasting,0
;   extruderCoastingDistance,0.3
;   extruderUseWipe,0
;   extruderWipeDistance,0.5
;   primaryExtruder,0
;   layerHeight,0.2
;   topSolidLayers,6
;   bottomSolidLayers,6
;   perimeterOutlines,6
;   printPerimetersInsideOut,1
;   startPointOption,2
;   startPointOriginX,0
;   startPointOriginY,0
;   sequentialIslands,0
;   spiralVaseMode,0
;   firstLayerHeightPercentage,80
;   firstLayerWidthPercentage,100
;   firstLayerUnderspeed,0.4
;   useRaft,1
;   raftExtruder,0
;   raftTopLayers,3
;   raftBaseLayers,2
;   raftOffset,5
;   raftSeparationDistance,0.14
;   raftTopInfill,100
;   aboveRaftSpeedMultiplier,0.3
;   useSkirt,1
;   skirtExtruder,0
;   skirtLayers,3
;   skirtOutlines,3
;   skirtOffset,5
;   usePrimePillar,0
;   primePillarExtruder,999
;   primePillarWidth,12
;   primePillarLocation,7
;   primePillarSpeedMultiplier,1
;   useOozeShield,0
;   oozeShieldExtruder,999
;   oozeShieldOffset,2
;   oozeShieldOutlines,1
;   oozeShieldSidewallShape,1
;   oozeShieldSidewallAngle,30
;   oozeShieldSpeedMultiplier,1
;   infillExtruder,0
;   internalInfillPattern,Grid
;   externalInfillPattern,Rectilinear
;   infillPercentage,100
;   outlineOverlapPercentage,15
;   infillExtrusionWidthPercentage,100
;   minInfillLength,5
;   infillLayerInterval,1
;   internalInfillAngles,45,-45
;   overlapInternalInfillAngles,1
;   externalInfillAngles,45,-45
;   generateSupport,0
;   supportExtruder,0
;   supportInfillPercentage,40
;   supportExtraInflation,0
;   supportBaseLayers,0
;   denseSupportExtruder,0
;   denseSupportLayers,0
;   denseSupportInfillPercentage,70
;   supportLayerInterval,1
;   supportHorizontalPartOffset,0.3
;   supportUpperSeparationLayers,1
;   supportLowerSeparationLayers,1
;   supportType,1
;   supportGridSpacing,3
;   maxOverhangAngle,45
;   supportAngles,0
;   temperatureName,Primary Extruder,Heated Bed
;   temperatureNumber,0,0
;   temperatureSetpointCount,1,1
;   temperatureSetpointLayers,1,1
;   temperatureSetpointTemperatures,205,60
;   temperatureStabilizeAtStartup,1,1
;   temperatureHeatedBed,0,1
;   temperatureRelayBetweenLayers,0,0
;   temperatureRelayBetweenLoops,0,0
;   fanLayers,1,2,3
;   fanSpeeds,0,25,90
;   blipFanToFullPower,1
;   adjustSpeedForCooling,1
;   minSpeedLayerTime,10
;   minCoolingSpeedSlowdown,50
;   increaseFanForCooling,0
;   minFanLayerTime,45
;   maxCoolingFanSpeed,100
;   increaseFanForBridging,0
;   bridgingFanSpeed,100
;   use5D,1
;   relativeEdistances,0
;   allowEaxisZeroing,1
;   independentExtruderAxes,0
;   includeM10123,0
;   stickySupport,1
;   applyToolheadOffsets,0
;   gcodeXoffset,0
;   gcodeYoffset,0
;   gcodeZoffset,0
;   overrideMachineDefinition,1
;   machineTypeOverride,0
;   strokeXoverride,300
;   strokeYoverride,300
;   strokeZoverride,400
;   originOffsetXoverride,0
;   originOffsetYoverride,0
;   originOffsetZoverride,0
;   homeXdirOverride,-1
;   homeYdirOverride,-1
;   homeZdirOverride,-1
;   flipXoverride,1
;   flipYoverride,-1
;   flipZoverride,1
;   toolheadOffsets,100,100|0,0|0,0|0,0|0,0|0,0
;   overrideFirmwareConfiguration,1
;   firmwareTypeOverride,RepRap (Marlin/Repetier/Sprinter)
;   GPXconfigOverride,r2
;   baudRateOverride,250000
;   overridePrinterModels,0
;   printerModelsOverride
;   startingGcode,G28 ; home all axes,G29 ; level bed BL Touch,G1 Z5 F3000 ; lift,G1 X40 Y5 F1500 ; avoid binder clips,G92 E0 ; reset extrusion distance,G1 Z0 F3000; set to base,G1 X120 E10 F600 ; prime nozzle,G1 X150 F5000 ; quick wipe,M205 X10 ; Lower Jerk to 10,M204 P500 T1000 ; Lower Acceleration
;   layerChangeGcode,
;   retractionGcode,
;   toolChangeGcode,
;   endingGcode,G28 X0 ; Home X Axis,G1 X285 ; Present Build Plate,M106 S0 ; Turn off Cooling Fan,M104 S0 ; Turn Off Extruder Heat,M140 S0 ; Turn of Bed Heat,M84 ; Disable Steppers
;   exportFileFormat,gcode
;   celebration,0
;   celebrationSong,Random Song
;   postProcessing,
;   defaultSpeed,2400
;   outlineUnderspeed,0.8
;   solidInfillUnderspeed,0.8
;   supportUnderspeed,0.8
;   rapidXYspeed,2400
;   rapidZspeed,600
;   minBridgingArea,50
;   bridgingExtraInflation,0
;   bridgingExtrusionMultiplier,1
;   bridgingSpeedMultiplier,1
;   useFixedBridgingAngle,0
;   fixedBridgingAngle,0
;   applyBridgingToPerimeters,0
;   filamentDiameters,1.73|1.73|1.73|1.73|1.73|1.73
;   filamentPricesPerKg,18|18|18|18|18|18
;   filamentDensities,1.25|1.25|1.25|1.25|1.25|1.25
;   useMinPrintHeight,0
;   minPrintHeight,175.73
;   useMaxPrintHeight,0
;   maxPrintHeight,104.17
;   useDiaphragm,0
;   diaphragmLayerInterval,20
;   robustSlicing,1
;   mergeAllIntoSolid,0
;   onlyRetractWhenCrossingOutline,1
;   retractBetweenLayers,0
;   useRetractionMinTravel,0
;   retractionMinTravel,3
;   retractWhileWiping,0
;   onlyWipeOutlines,0
;   avoidCrossingOutline,1
;   maxMovementDetourFactor,300
;   toolChangeRetractionDistance,12
;   toolChangeExtraRestartDistance,-1
;   toolChangeRetractionSpeed,600
;   externalThinWallType,0
;   internalThinWallType,1
;   thinWallAllowedOverlapPercentage,50
;   singleExtrusionMinLength,1
;   singleExtrusionMinPrintingWidthPercentage,50
;   singleExtrusionMaxPrintingWidthPercentage,200
;   singleExtrusionEndpointExtension,0.2
;   horizontalSizeCompensation,0
G90
M82
M106 S255
G4 P500
M106 S0
M140 S60
M190 S60
M104 S205 T0
M109 S205 T0
G28 ; home all axes
G29 ; level bed BL Touch
G1 Z5 F3000 ; lift
G1 X40 Y5 F1500 ; avoid binder clips
G92 E0 ; reset extrusion distance
G1 Z0 F3000; set to base
G1 X120 E10 F600 ; prime nozzle
G1 X150 F5000 ; quick wipe
M205 X10 ; Lower Jerk to 10
M204 P500 T1000 ; Lower Acceleration
G92 E0
G1 E-6.0000 F3300
G1 Z0.400 F600
; process Process1
; layer 1, Z = 0.400
T0
; tool H0.500 W0.480
; skirt
G1 X90.022 Y158.234 F2400
G1 E0.0000 F990
G92 E0
G1 X90.056 Y158.216 E0.0039 F960
G1 X91.144 Y157.675 E0.1280
G1 X91.180 Y157.659 E0.1320
G1 X91.824 Y157.391 E0.2033
G1 X91.861 Y157.377 E0.2073
G1 X93.020 Y156.981 E0.3323
G1 X93.057 Y156.970 E0.3363
G1 X93.731 Y156.788 E0.4076
G1 X93.770 Y156.779 E0.4116
G1 X94.970 Y156.539 E0.5366
G1 X95.009 Y156.532 E0.5406
G1 X95.700 Y156.441 E0.6118
G1 X95.740 Y156.437 E0.6158
G1 X96.787 Y156.368 E0.7230
G1 X96.806 Y156.367 E0.7250
G1 X97.155 Y156.355 E0.7606
G1 X97.175 Y156.355 E0.7626
G1 X117.773 Y156.355 E2.8657
G1 X117.797 Y156.356 E2.8681
G1 X118.213 Y156.372 E2.9107
G1 X118.236 Y156.373 E2.9131
G1 X119.329 Y156.459 E3.0249
G1 X119.375 Y156.465 E3.0297
G1 X120.198 Y156.595 E3.1148
G1 X120.244 Y156.604 E3.1196
G1 X121.512 Y156.909 E3.2527
G1 X121.557 Y156.921 E3.2575
G1 X122.349 Y157.179 E3.3425
G1 X122.393 Y157.195 E3.3473
G1 X123.598 Y157.694 E3.4804
G1 X123.640 Y157.714 E3.4852
G1 X124.383 Y158.092 E3.5703
G1 X124.424 Y158.115 E3.5751
G1 X125.535 Y158.796 E3.7082
G1 X125.575 Y158.822 E3.7130
G1 X126.248 Y159.312 E3.7981
G1 X126.285 Y159.341 E3.8029
G1 X127.277 Y160.188 E3.9360
G1 X127.311 Y160.220 E3.9408
G1 X127.900 Y160.809 E4.0258
G1 X127.932 Y160.843 E4.0307
G1 X128.779 Y161.835 E4.1638
G1 X128.808 Y161.872 E4.1686
G1 X129.298 Y162.545 E4.2536
G1 X129.324 Y162.585 E4.2584
G1 X130.005 Y163.696 E4.3915
G1 X130.028 Y163.737 E4.3963
G1 X130.406 Y164.479 E4.4814
G1 X130.426 Y164.522 E4.4862
G1 X130.925 Y165.727 E4.6193
G1 X130.941 Y165.771 E4.6241
G1 X131.199 Y166.563 E4.7092
G1 X131.212 Y166.609 E4.7140
G1 X131.516 Y167.876 E4.8471
G1 X131.525 Y167.923 E4.8519
G1 X131.655 Y168.745 E4.9369
G1 X131.661 Y168.792 E4.9418
G1 X131.747 Y169.884 E5.0536
G1 X131.748 Y169.907 E5.0560
G1 X131.765 Y170.323 E5.0985
G1 X131.765 Y170.347 E5.1009
G1 X131.765 Y177.694 E5.8510
G1 X132.194 Y177.948 E5.9020
G1 X132.221 Y177.965 E5.9052
G1 X133.293 Y178.678 E6.0366
G1 X133.319 Y178.696 E6.0399
G1 X133.772 Y179.035 E6.0977
G1 X133.798 Y179.055 E6.1010
G1 X134.787 Y179.878 E6.2323
G1 X134.811 Y179.899 E6.2356
G1 X135.226 Y180.284 E6.2934
G1 X135.249 Y180.306 E6.2967
G1 X136.144 Y181.230 E6.4280
G1 X136.166 Y181.254 E6.4313
G1 X136.538 Y181.681 E6.4891
G1 X136.558 Y181.705 E6.4924
G1 X137.350 Y182.719 E6.6237
G1 X137.369 Y182.745 E6.6270
G1 X137.693 Y183.209 E6.6848
G1 X137.711 Y183.236 E6.6881
G1 X138.390 Y184.329 E6.8194
G1 X138.406 Y184.356 E6.8227
G1 X138.679 Y184.852 E6.8805
G1 X138.694 Y184.881 E6.8838
G1 X139.253 Y186.040 E7.0152
G1 X139.266 Y186.069 E7.0184
G1 X139.484 Y186.591 E7.0762
G1 X139.496 Y186.621 E7.0795
G1 X139.928 Y187.833 E7.2108
G1 X139.938 Y187.863 E7.2141
G1 X140.100 Y188.406 E7.2719
G1 X140.108 Y188.437 E7.2752
G1 X140.409 Y189.688 E7.4066
G1 X140.416 Y189.719 E7.4098
G1 X140.518 Y190.276 E7.4677
G1 X140.523 Y190.308 E7.4709
G1 X140.689 Y191.584 E7.6023
G1 X140.692 Y191.615 E7.6056
G1 X140.735 Y192.180 E7.6634
G1 X140.737 Y192.212 E7.6666
G1 X140.765 Y193.498 E7.7980
G1 X140.765 Y193.530 E7.8013
G1 X140.748 Y194.096 E7.8591
G1 X140.746 Y194.128 E7.8623
G1 X140.637 Y195.410 E7.9937
G1 X140.634 Y195.442 E7.9970
G1 X140.556 Y196.003 E8.0548
G1 X140.550 Y196.034 E8.0581
G1 X140.306 Y197.298 E8.1894
G1 X140.299 Y197.329 E8.1927
G1 X140.162 Y197.878 E8.2505
G1 X140.153 Y197.909 E8.2538
G1 X139.775 Y199.139 E8.3851
G1 X139.765 Y199.169 E8.3884
G1 X139.570 Y199.700 E8.4462
G1 X139.558 Y199.730 E8.4495
G1 X139.052 Y200.913 E8.5808
G1 X139.038 Y200.942 E8.5841
G1 X138.788 Y201.450 E8.6419
G1 X138.773 Y201.478 E8.6452
G1 X138.143 Y202.600 E8.7765
G1 X138.127 Y202.627 E8.7798
G1 X137.823 Y203.106 E8.8376
G1 X137.806 Y203.132 E8.8409
G1 X137.060 Y204.180 E8.9723
G1 X137.040 Y204.206 E8.9755
G1 X136.688 Y204.649 E9.0333
G1 X136.667 Y204.674 E9.0366
G1 X135.814 Y205.637 E9.1680
G1 X135.792 Y205.660 E9.1713
G1 X135.394 Y206.063 E9.2291
G1 X135.371 Y206.085 E9.2323
G1 X134.420 Y206.952 E9.3637
G1 X134.396 Y206.973 E9.3670
G1 X133.957 Y207.331 E9.4248
G1 X133.932 Y207.351 E9.4280
G1 X132.894 Y208.111 E9.5594
G1 X132.868 Y208.129 E9.5627
G1 X132.394 Y208.438 E9.6205
G1 X132.366 Y208.455 E9.6237
G1 X131.253 Y209.100 E9.7551
G1 X131.225 Y209.116 E9.7584
G1 X130.721 Y209.373 E9.8162
G1 X130.692 Y209.387 E9.8194
G1 X129.516 Y209.909 E9.9508
G1 X129.487 Y209.922 E9.9541
G1 X128.958 Y210.124 E10.0119
G1 X128.927 Y210.134 E10.0152
G1 X127.703 Y210.529 E10.1465
G1 X127.672 Y210.538 E10.1498
G1 X127.125 Y210.682 E10.2076
G1 X127.094 Y210.690 E10.2109
G1 X125.834 Y210.951 E10.3422
G1 X125.802 Y210.957 E10.3455
G1 X125.243 Y211.043 E10.4033
G1 X125.211 Y211.047 E10.4066
G1 X123.930 Y211.172 E10.5380
G1 X123.898 Y211.175 E10.5412
G1 X123.333 Y211.200 E10.5990
G1 X123.301 Y211.200 E10.6023
G1 X122.014 Y211.189 E10.7336
G1 X121.982 Y211.188 E10.7369
G1 X121.417 Y211.153 E10.7947
G1 X121.385 Y211.150 E10.7980
G1 X120.107 Y211.002 E10.9294
G1 X120.075 Y210.997 E10.9327
G1 X119.518 Y210.902 E10.9904
G1 X119.486 Y210.896 E10.9937
G1 X118.231 Y210.612 E11.1251
G1 X118.200 Y210.604 E11.1283
G1 X117.655 Y210.450 E11.1862
G1 X117.625 Y210.440 E11.1894
G1 X116.407 Y210.024 E11.3208
G1 X116.377 Y210.013 E11.3241
G1 X115.852 Y209.802 E11.3819
G1 X115.823 Y209.789 E11.3851
G1 X114.656 Y209.246 E11.5165
G1 X114.628 Y209.232 E11.5198
G1 X114.128 Y208.966 E11.5776
G1 X114.100 Y208.950 E11.5808
G1 X112.998 Y208.285 E11.7122
G1 X112.971 Y208.268 E11.7155
G1 X112.503 Y207.950 E11.7733
G1 X112.477 Y207.931 E11.7766
G1 X111.452 Y207.153 E11.9079
G1 X111.427 Y207.133 E11.9112
G1 X110.995 Y206.767 E11.9690
G1 X110.971 Y206.746 E11.9723
G1 X110.138 Y205.960 E12.0892
G1 X110.127 Y205.949 E12.0908
G1 X109.926 Y205.749 E12.1197
G1 X109.915 Y205.738 E12.1213
G1 X102.887 Y198.359 E13.1618
G1 X102.669 Y198.147 E13.1928
G1 X102.596 Y198.086 E13.2025
G1 X102.519 Y198.030 E13.2122
G1 X102.426 Y197.973 E13.2233
G1 X102.403 Y197.961 E13.2260
G1 X102.238 Y197.890 E13.2444
G1 X102.175 Y197.868 E13.2512
G1 X102.061 Y197.839 E13.2632
G1 X102.012 Y197.830 E13.2683
G1 X101.885 Y197.816 E13.2814
G1 X101.580 Y197.805 E13.3126
G1 X94.003 Y197.805 E14.0862
G1 X93.963 Y197.804 E14.0902
G1 X93.271 Y197.758 E14.1611
G1 X93.232 Y197.755 E14.1651
G1 X91.940 Y197.585 E14.2981
G1 X91.863 Y197.569 E14.3061
G1 X90.521 Y197.210 E14.4479
G1 X90.447 Y197.184 E14.4559
G1 X88.922 Y196.553 E14.6245
G1 X88.851 Y196.518 E14.6325
G1 X87.648 Y195.823 E14.7744
G1 X87.582 Y195.780 E14.7824
G1 X86.273 Y194.775 E14.9509
G1 X86.214 Y194.723 E14.9589
G1 X85.232 Y193.741 E15.1008
G1 X85.180 Y193.682 E15.1088
G1 X84.175 Y192.372 E15.2773
G1 X84.132 Y192.307 E15.2853
G1 X83.437 Y191.104 E15.4272
G1 X83.402 Y191.033 E15.4352
G1 X82.770 Y189.508 E15.6038
G1 X82.745 Y189.434 E15.6118
G1 X82.385 Y188.092 E15.7536
G1 X82.370 Y188.014 E15.7617
G1 X82.200 Y186.723 E15.8947
G1 X82.196 Y186.684 E15.8987
G1 X82.151 Y185.991 E15.9696
G1 X82.150 Y185.952 E15.9736
G1 X82.150 Y171.360 E17.4635
G1 X82.150 Y171.340 E17.4655
G1 X82.162 Y170.993 E17.5009
G1 X82.163 Y170.974 E17.5029
G1 X82.228 Y169.987 E17.6039
G1 X82.231 Y169.948 E17.6079
G1 X82.321 Y169.264 E17.6783
G1 X82.327 Y169.225 E17.6823
G1 X82.575 Y167.975 E17.8124
G1 X82.584 Y167.936 E17.8165
G1 X82.764 Y167.262 E17.8877
G1 X82.776 Y167.224 E17.8918
G1 X83.146 Y166.135 E18.0092
G1 X83.159 Y166.100 E18.0131
G1 X83.410 Y165.488 E18.0806
G1 X83.425 Y165.454 E18.0844
G1 X83.952 Y164.369 E18.2075
G1 X83.970 Y164.334 E18.2115
G1 X84.316 Y163.728 E18.2828
G1 X84.336 Y163.694 E18.2868
G1 X85.011 Y162.673 E18.4117
G1 X85.034 Y162.641 E18.4158
G1 X85.456 Y162.085 E18.4870
G1 X85.480 Y162.054 E18.4911
G1 X86.300 Y161.111 E18.6187
G1 X86.329 Y161.080 E18.6230
G1 X86.860 Y160.550 E18.6996
G1 X86.891 Y160.521 E18.7039
G1 X87.863 Y159.678 E18.8353
G1 X87.893 Y159.654 E18.8392
G1 X88.420 Y159.252 E18.9069
G1 X88.450 Y159.230 E18.9107
G1 X89.401 Y158.595 E19.0274
G1 X89.433 Y158.575 E19.0313
G1 X90.022 Y158.234 E19.1008
G92 E0
G1 E-6.0000 F3300
G1 X90.256 Y158.653 F2400
G1 E0.0000 F3300
G92 E0
G1 X90.276 Y158.642 E0.0024 F960
G1 X91.351 Y158.109 E0.1248
G1 X91.372 Y158.099 E0.1272
G1 X92.002 Y157.837 E0.1969
G1 X92.024 Y157.828 E0.1993
G1 X93.167 Y157.438 E0.3226
G1 X93.190 Y157.431 E0.3251
G1 X93.849 Y157.253 E0.3947
G1 X93.872 Y157.248 E0.3971
G1 X95.056 Y157.011 E0.5205
G1 X95.080 Y157.007 E0.5229
G1 X95.756 Y156.918 E0.5925
G1 X95.779 Y156.915 E0.5949
G1 X96.814 Y156.847 E0.7009
G1 X96.826 Y156.847 E0.7021
G1 X97.167 Y156.835 E0.7369
G1 X97.179 Y156.835 E0.7381
G1 X117.769 Y156.835 E2.8403
G1 X117.783 Y156.835 E2.8418
G1 X118.189 Y156.851 E2.8833
G1 X118.204 Y156.852 E2.8848
G1 X119.281 Y156.937 E2.9952
G1 X119.310 Y156.940 E2.9980
G1 X120.113 Y157.068 E3.0812
G1 X120.141 Y157.073 E3.0840
G1 X121.390 Y157.373 E3.2152
G1 X121.418 Y157.381 E3.2181
G1 X122.192 Y157.632 E3.3012
G1 X122.218 Y157.642 E3.3041
G1 X123.405 Y158.134 E3.4353
G1 X123.431 Y158.146 E3.4382
G1 X124.156 Y158.515 E3.5213
G1 X124.181 Y158.529 E3.5242
G1 X125.277 Y159.200 E3.6554
G1 X125.300 Y159.216 E3.6583
G1 X125.959 Y159.695 E3.7414
G1 X125.981 Y159.712 E3.7442
G1 X126.958 Y160.547 E3.8754
G1 X126.979 Y160.566 E3.8783
G1 X127.554 Y161.141 E3.9614
G1 X127.574 Y161.162 E3.9643
G1 X128.408 Y162.139 E4.0955
G1 X128.425 Y162.161 E4.0984
G1 X128.904 Y162.820 E4.1815
G1 X128.920 Y162.843 E4.1844
G1 X129.591 Y163.939 E4.3156
G1 X129.605 Y163.964 E4.3185
G1 X129.974 Y164.689 E4.4016
G1 X129.986 Y164.715 E4.4045
G1 X130.478 Y165.902 E4.5357
G1 X130.488 Y165.928 E4.5385
G1 X130.739 Y166.703 E4.6217
G1 X130.747 Y166.730 E4.6246
G1 X131.047 Y167.979 E4.7557
G1 X131.052 Y168.007 E4.7586
G1 X131.180 Y168.811 E4.8418
G1 X131.183 Y168.839 E4.8446
G1 X131.268 Y169.917 E4.9550
G1 X131.269 Y169.931 E4.9565
G1 X131.285 Y170.338 E4.9980
G1 X131.285 Y170.352 E4.9995
