; G-Code generated by Simplify3D(R) Version 4.0.1
; Aug 30, 2018 at 3:20:37 PM
; Settings Summary
;   processName,Process1
;   applyToModels,10x10x.5Doubled
;   profileName,Tevo Tornado (modified)
;   profileVersion,2018-08-29 07:09:04
;   baseProfile,Default
;   printMaterial,PLA (Hatchbox)
;   printQuality,Fast
;   printExtruders,
;   extruderName,Extruder 1
;   extruderToolheadNumber,0
;   extruderDiameter,0.4
;   extruderAutoWidth,1
;   extruderWidth,0.48
;   extrusionMultiplier,1
;   extruderUseRetract,1
;   extruderRetractionDistance,6
;   extruderExtraRestartDistance,0
;   extruderRetractionZLift,0
;   extruderRetractionSpeed,3600
;   extruderUseCoasting,1
;   extruderCoastingDistance,0.3
;   extruderUseWipe,0
;   extruderWipeDistance,0.5
;   primaryExtruder,0
;   layerHeight,0.3
;   topSolidLayers,4
;   bottomSolidLayers,4
;   perimeterOutlines,4
;   printPerimetersInsideOut,1
;   startPointOption,2
;   startPointOriginX,0
;   startPointOriginY,0
;   sequentialIslands,0
;   spiralVaseMode,0
;   firstLayerHeightPercentage,90
;   firstLayerWidthPercentage,100
;   firstLayerUnderspeed,0.4
;   useRaft,0
;   raftExtruder,0
;   raftTopLayers,3
;   raftBaseLayers,2
;   raftOffset,5
;   raftSeparationDistance,0.14
;   raftTopInfill,100
;   aboveRaftSpeedMultiplier,0.3
;   useSkirt,1
;   skirtExtruder,0
;   skirtLayers,1
;   skirtOutlines,3
;   skirtOffset,5
;   usePrimePillar,0
;   primePillarExtruder,999
;   primePillarWidth,12
;   primePillarLocation,7
;   primePillarSpeedMultiplier,1
;   useOozeShield,0
;   oozeShieldExtruder,999
;   oozeShieldOffset,2
;   oozeShieldOutlines,1
;   oozeShieldSidewallShape,1
;   oozeShieldSidewallAngle,30
;   oozeShieldSpeedMultiplier,1
;   infillExtruder,0
;   internalInfillPattern,Grid
;   externalInfillPattern,Rectilinear
;   infillPercentage,15
;   outlineOverlapPercentage,15
;   infillExtrusionWidthPercentage,100
;   minInfillLength,5
;   infillLayerInterval,1
;   internalInfillAngles,45,-45
;   overlapInternalInfillAngles,1
;   externalInfillAngles,45,-45
;   generateSupport,0
;   supportExtruder,0
;   supportInfillPercentage,25
;   supportExtraInflation,0
;   supportBaseLayers,0
;   denseSupportExtruder,0
;   denseSupportLayers,0
;   denseSupportInfillPercentage,70
;   supportLayerInterval,1
;   supportHorizontalPartOffset,0.3
;   supportUpperSeparationLayers,1
;   supportLowerSeparationLayers,1
;   supportType,1
;   supportGridSpacing,3
;   maxOverhangAngle,45
;   supportAngles,0
;   temperatureName,Primary Extruder,Heated Bed
;   temperatureNumber,0,0
;   temperatureSetpointCount,1,1
;   temperatureSetpointLayers,1,1
;   temperatureSetpointTemperatures,205,60
;   temperatureStabilizeAtStartup,1,1
;   temperatureHeatedBed,0,1
;   temperatureRelayBetweenLayers,0,0
;   temperatureRelayBetweenLoops,0,0
;   fanLayers,1,2,3
;   fanSpeeds,0,25,100
;   blipFanToFullPower,1
;   adjustSpeedForCooling,1
;   minSpeedLayerTime,10
;   minCoolingSpeedSlowdown,50
;   increaseFanForCooling,0
;   minFanLayerTime,45
;   maxCoolingFanSpeed,100
;   increaseFanForBridging,0
;   bridgingFanSpeed,100
;   use5D,1
;   relativeEdistances,0
;   allowEaxisZeroing,1
;   independentExtruderAxes,0
;   includeM10123,0
;   stickySupport,1
;   applyToolheadOffsets,0
;   gcodeXoffset,0
;   gcodeYoffset,0
;   gcodeZoffset,0
;   overrideMachineDefinition,1
;   machineTypeOverride,0
;   strokeXoverride,300
;   strokeYoverride,300
;   strokeZoverride,400
;   originOffsetXoverride,0
;   originOffsetYoverride,0
;   originOffsetZoverride,0
;   homeXdirOverride,-1
;   homeYdirOverride,-1
;   homeZdirOverride,-1
;   flipXoverride,1
;   flipYoverride,-1
;   flipZoverride,1
;   toolheadOffsets,100,100|0,0|0,0|0,0|0,0|0,0
;   overrideFirmwareConfiguration,1
;   firmwareTypeOverride,RepRap (Marlin/Repetier/Sprinter)
;   GPXconfigOverride,r2
;   baudRateOverride,250000
;   overridePrinterModels,0
;   printerModelsOverride
;   startingGcode,G28 ; home all axes,G29 ; level bed BL Touch,M301 P23.39 I2.16 D63.23,G1 Z5 F3000 ; lift,G1 X40 Y5 F1500 ; avoid binder clips,G92 E0 ; reset extrusion distance,G1 Z0 F3000; set to base,G1 X120 E10 F600 ; prime nozzle,G1 X150 F5000 ; quick wipe,M205 X10 ; Lower Jerk to 10,M204 P500 T1000 ; Lower Acceleration
;   layerChangeGcode,
;   retractionGcode,
;   toolChangeGcode,
;   endingGcode,G28 X0 ; Home X Axis,G1 X285 ; Present Build Plate,M106 S0 ; Turn off Cooling Fan,M104 S0 ; Turn Off Extruder Heat,M140 S0 ; Turn of Bed Heat,M84 ; Disable Steppers,M117 Printing done!
;   exportFileFormat,gcode
;   celebration,0
;   celebrationSong,Random Song
;   postProcessing,
;   defaultSpeed,4500
;   outlineUnderspeed,0.8
;   solidInfillUnderspeed,0.8
;   supportUnderspeed,0.8
;   rapidXYspeed,3900
;   rapidZspeed,1200
;   minBridgingArea,50
;   bridgingExtraInflation,0
;   bridgingExtrusionMultiplier,1
;   bridgingSpeedMultiplier,1
;   useFixedBridgingAngle,0
;   fixedBridgingAngle,0
;   applyBridgingToPerimeters,0
;   filamentDiameters,1.75|1.73|1.73|1.73|1.73|1.73
;   filamentPricesPerKg,18|18|18|18|18|18
;   filamentDensities,1.25|1.25|1.25|1.25|1.25|1.25
;   useMinPrintHeight,0
;   minPrintHeight,175.73
;   useMaxPrintHeight,0
;   maxPrintHeight,104.17
;   useDiaphragm,0
;   diaphragmLayerInterval,20
;   robustSlicing,1
;   mergeAllIntoSolid,0
;   onlyRetractWhenCrossingOutline,0
;   retractBetweenLayers,0
;   useRetractionMinTravel,0
;   retractionMinTravel,3
;   retractWhileWiping,0
;   onlyWipeOutlines,0
;   avoidCrossingOutline,1
;   maxMovementDetourFactor,300
;   toolChangeRetractionDistance,12
;   toolChangeExtraRestartDistance,-1
;   toolChangeRetractionSpeed,600
;   externalThinWallType,0
;   internalThinWallType,1
;   thinWallAllowedOverlapPercentage,50
;   singleExtrusionMinLength,1
;   singleExtrusionMinPrintingWidthPercentage,50
;   singleExtrusionMaxPrintingWidthPercentage,200
;   singleExtrusionEndpointExtension,0.2
;   horizontalSizeCompensation,0
G90
M82
M106 S255
G4 P500
M106 S0
M140 S60
M190 S60
M104 S205 T0
M109 S205 T0
G28 ; home all axes
G29 ; level bed BL Touch
M301 P23.39 I2.16 D63.23
G1 Z5 F3000 ; lift
G1 X40 Y5 F1500 ; avoid binder clips
G92 E0 ; reset extrusion distance
G1 Z0 F3000; set to base
G1 X120 E10 F600 ; prime nozzle
G1 X150 F5000 ; quick wipe
M205 X10 ; Lower Jerk to 10
M204 P500 T1000 ; Lower Acceleration
G92 E0
G1 E-6.0000 F3600
G1 Z0.270 F1200
; process Process1
; layer 1, Z = 0.270
T0
; tool H0.300 W0.480
; skirt
G1 X91.483 Y94.749 F3900
G1 E0.0000 F1080
G92 E0
G1 X94.749 Y91.483 E0.2766 F1800
G1 X95.190 Y91.300 E0.3051
G1 X204.810 Y91.300 E6.8679
G1 X205.251 Y91.483 E6.8965
G1 X208.517 Y94.749 E7.1730
G1 X208.700 Y95.190 E7.2016
G1 X208.700 Y204.810 E13.7643
G1 X208.517 Y205.251 E13.7929
G1 X205.251 Y208.517 E14.0695
G1 X204.810 Y208.700 E14.0980
G1 X95.190 Y208.700 E20.6608
G1 X94.749 Y208.517 E20.6894
G1 X91.483 Y205.251 E20.9659
G1 X91.300 Y204.810 E20.9945
G1 X91.300 Y95.190 E27.5572
G1 X91.368 Y95.026 E27.5678
G1 X91.483 Y94.749 F1800
G92 E0
G1 E-6.0000 F3600
G1 X91.890 Y95.021 F3900
G1 E0.0000 F3600
G92 E0
G1 X95.021 Y91.890 E0.2651 F1800
G1 X95.286 Y91.780 E0.2823
G1 X204.714 Y91.780 E6.8336
G1 X204.979 Y91.890 E6.8507
G1 X208.110 Y95.021 E7.1159
G1 X208.220 Y95.286 E7.1330
G1 X208.220 Y204.714 E13.6843
G1 X208.110 Y204.979 E13.7014
G1 X204.979 Y208.110 E13.9666
G1 X204.714 Y208.220 E13.9837
G1 X95.286 Y208.220 E20.5350
G1 X95.021 Y208.110 E20.5522
G1 X91.890 Y204.979 E20.8173
G1 X91.780 Y204.714 E20.8345
G1 X91.780 Y95.299 E27.3849
G1 X91.780 Y95.286 F1800
G1 X91.890 Y95.021 F1800
G92 E0
G1 E-6.0000 F3600
G1 X92.297 Y95.293 F3900
G1 E0.0000 F3600
G92 E0
G1 X95.293 Y92.297 E0.2537 F1800
G1 X95.381 Y92.260 E0.2594
G1 X204.619 Y92.260 E6.7993
G1 X204.707 Y92.297 E6.8050
G1 X207.703 Y95.293 E7.0587
G1 X207.740 Y95.381 E7.0644
G1 X207.740 Y204.619 E13.6043
G1 X207.703 Y204.707 E13.6100
G1 X204.707 Y207.703 E13.8637
G1 X204.619 Y207.740 E13.8694
G1 X95.381 Y207.740 E20.4093
G1 X95.293 Y207.703 E20.4150
G1 X92.297 Y204.707 E20.6687
G1 X92.260 Y204.619 E20.6744
G1 X92.260 Y95.586 E27.2020
G1 X92.260 Y95.381 F1800
G1 X92.297 Y95.293 F1800
G92 E0
G1 E-6.0000 F3600
; inner perimeter
G1 X97.735 Y97.735 F3900
G1 X97.735 Y98.364 F3900
G1 X99.180 Y99.180 F3900
G1 E0.0000 F3600
G92 E0
G1 X200.820 Y99.180 E6.0850 F1620
G1 X200.820 Y200.820 E12.1700
G1 X99.180 Y200.820 E18.2550
G1 X99.180 Y99.480 E24.3221
G1 X99.180 Y99.180 F1620
G92 E0
G1 E-6.0000 F3600
G1 X98.700 Y98.700 F3900
G1 E0.0000 F3600
G92 E0
G1 X201.300 Y98.700 E6.1425 F1620
G1 X201.300 Y201.300 E12.2850
G1 X98.700 Y201.300 E18.4274
G1 X98.700 Y99.000 E24.5520
G1 X98.700 Y98.700 F1620
G92 E0
G1 E-6.0000 F3600
G1 X98.220 Y98.220 F3900
G1 E0.0000 F3600
G92 E0
G1 X201.780 Y98.220 E6.2000 F1620
G1 X201.780 Y201.780 E12.3999
G1 X98.220 Y201.780 E18.5999
G1 X98.220 Y98.520 E24.7819
G1 X98.220 Y98.220 F1620
G92 E0
G1 E-6.0000 F3600
; outer perimeter
G1 X97.740 Y97.740 F3900
G1 E0.0000 F3600
G92 E0
G1 X202.260 Y97.740 E6.2574 F1440
G1 X202.260 Y202.260 E12.5149
G1 X97.740 Y202.260 E18.7723
G1 X97.740 Y98.040 E25.0118
G1 X97.740 Y97.740 F1440
G92 E0
G1 E-6.0000 F3600
; inner perimeter
G1 X100.820 Y100.820 F3900
G1 E0.0000 F3600
G92 E0
G1 X100.820 Y129.342 E1.7076 F1620
G1 X102.492 Y129.761 E1.8108
G1 X102.246 Y130.220 E1.8419
G1 X100.820 Y134.922 E2.1361
G1 X100.820 Y165.078 E3.9415
G1 X102.246 Y169.780 E4.2356
G1 X102.492 Y170.239 E4.2668
G1 X100.820 Y170.658 E4.3699
G1 X100.820 Y199.180 E6.0775
G1 X129.342 Y199.180 E7.7851
G1 X129.761 Y197.508 E7.8883
G1 X130.220 Y197.754 E7.9194
G1 X134.922 Y199.180 E8.2136
G1 X165.078 Y199.180 E10.0190
G1 X169.780 Y197.754 E10.3132
G1 X170.239 Y197.508 E10.3443
G1 X170.658 Y199.180 E10.4475
G1 X199.180 Y199.180 E12.1550
G1 X199.180 Y170.658 E13.8626
G1 X197.508 Y170.239 E13.9658
G1 X197.754 Y169.780 E13.9969
G1 X199.180 Y165.078 E14.2911
G1 X199.180 Y134.922 E16.0965
G1 X197.754 Y130.220 E16.3907
G1 X197.508 Y129.761 E16.4218
G1 X199.180 Y129.342 E16.5250
G1 X199.180 Y100.820 E18.2326
G1 X170.658 Y100.820 E19.9402
G1 X170.239 Y102.492 E20.0433
G1 X169.780 Y102.246 E20.0745
G1 X165.078 Y100.820 E20.3686
G1 X134.922 Y100.820 E22.1740
G1 X130.220 Y102.246 E22.4682
G1 X129.761 Y102.492 E22.4993
G1 X129.342 Y100.820 E22.6025
G1 X101.120 Y100.820 E24.2921
G1 X100.820 Y100.820 F1620
G92 E0
G1 E-6.0000 F3600
G1 X101.300 Y101.300 F3900
G1 E0.0000 F3600
G92 E0
G1 X101.300 Y128.968 E1.6564 F1620
G1 X103.205 Y129.445 E1.7740
G1 X102.692 Y130.404 E1.8391
G1 X101.300 Y134.993 E2.1262
G1 X101.300 Y165.007 E3.9231
G1 X102.692 Y169.596 E4.2101
G1 X103.205 Y170.555 E4.2753
G1 X101.300 Y171.032 E4.3928
G1 X101.300 Y198.700 E6.0493
G1 X128.968 Y198.700 E7.7057
G1 X129.445 Y196.795 E7.8232
G1 X130.404 Y197.308 E7.8884
G1 X134.993 Y198.700 E8.1755
G1 X165.007 Y198.700 E9.9723
G1 X169.596 Y197.308 E10.2594
G1 X170.555 Y196.795 E10.3245
G1 X171.032 Y198.700 E10.4421
G1 X198.700 Y198.700 E12.0985
G1 X198.700 Y171.032 E13.7550
G1 X196.795 Y170.555 E13.8725
G1 X197.308 Y169.596 E13.9376
G1 X198.700 Y165.007 E14.2247
G1 X198.700 Y134.993 E16.0216
G1 X197.308 Y130.404 E16.3087
G1 X196.795 Y129.445 E16.3738
G1 X198.700 Y128.968 E16.4914
G1 X198.700 Y101.300 E18.1478
G1 X171.032 Y101.300 E19.8042
G1 X170.555 Y103.205 E19.9218
G1 X169.596 Y102.692 E19.9869
G1 X165.007 Y101.300 E20.2740
G1 X134.993 Y101.300 E22.0709
G1 X130.404 Y102.692 E22.3579
G1 X129.445 Y103.205 E22.4231
G1 X128.968 Y101.300 E22.5406
G1 X101.600 Y101.300 E24.1791
G1 X101.300 Y101.300 F1620
G92 E0
G1 E-6.0000 F3600
G1 X102.265 Y102.265 F3900
G1 X102.265 Y102.265 F3900
G1 X128.215 Y102.265 F3900
G1 X128.304 Y102.621 F3900
G1 X120.964 Y106.544 F3900
G1 X113.044 Y113.044 F3900
G1 X114.133 Y114.133 F3900
G1 E0.0000 F3600
G92 E0
G1 X107.825 Y121.820 E0.5953 F1620
G1 X103.138 Y130.589 E1.1906
G1 X101.780 Y135.064 E1.4706
G1 X101.780 Y164.936 E3.2589
G1 X103.138 Y169.411 E3.5389
G1 X107.825 Y178.181 E4.1342
G1 X114.133 Y185.867 E4.7295
G1 X121.820 Y192.175 E5.3248
G1 X130.589 Y196.862 E5.9201
G1 X135.064 Y198.220 E6.2001
G1 X164.936 Y198.220 E7.9885
G1 X169.411 Y196.862 E8.2685
G1 X178.180 Y192.175 E8.8638
G1 X185.867 Y185.867 E9.4591
G1 X192.175 Y178.180 E10.0544
G1 X196.862 Y169.411 E10.6497
G1 X198.220 Y164.936 E10.9297
G1 X198.220 Y135.064 E12.7180
G1 X196.862 Y130.589 E12.9980
G1 X192.175 Y121.820 E13.5933
G1 X185.867 Y114.133 E14.1886
G1 X178.180 Y107.825 E14.7839
G1 X169.411 Y103.138 E15.3792
G1 X164.936 Y101.780 E15.6592
G1 X135.064 Y101.780 E17.4475
G1 X130.589 Y103.138 E17.7275
G1 X121.820 Y107.825 E18.3228
G1 X114.365 Y113.943 E18.9002
G1 X114.133 Y114.133 F1620
G92 E0
G1 E-6.0000 F3600
; outer perimeter
G1 X114.474 Y114.474 F3900
G1 E0.0000 F3600
G92 E0
G1 X108.226 Y122.088 E0.5896 F1440
G1 X103.583 Y130.774 E1.1793
G1 X102.260 Y135.136 E1.4522
G1 X102.260 Y164.864 E3.2320
G1 X103.583 Y169.226 E3.5049
G1 X108.226 Y177.913 E4.0945
G1 X114.474 Y185.526 E4.6842
G1 X122.088 Y191.774 E5.2738
G1 X130.774 Y196.417 E5.8635
G1 X135.136 Y197.740 E6.1364
G1 X164.864 Y197.740 E7.9162
G1 X169.226 Y196.417 E8.1891
G1 X177.912 Y191.774 E8.7787
G1 X185.526 Y185.526 E9.3684
G1 X191.774 Y177.912 E9.9580
G1 X196.417 Y169.226 E10.5476
G1 X197.740 Y164.864 E10.8205
G1 X197.740 Y135.136 E12.6003
G1 X196.417 Y130.774 E12.8732
G1 X191.774 Y122.088 E13.4629
G1 X185.526 Y114.474 E14.0525
G1 X177.912 Y108.226 E14.6422
G1 X169.226 Y103.583 E15.2318
G1 X164.864 Y102.260 E15.5047
G1 X135.136 Y102.260 E17.2845
G1 X130.774 Y103.583 E17.5574
G1 X122.087 Y108.226 E18.1471
G1 X114.706 Y114.284 E18.7188
G1 X114.474 Y114.474 F1440
G92 E0
G1 E-6.0000 F3600
; inner perimeter
G1 X113.388 Y113.388 F3900
G1 E0.0000 F3600
G92 E0
G1 X121.234 Y106.949 E0.6077 F1620
G1 X128.866 Y102.870 E1.1257
G1 X128.593 Y101.780 E1.1930
G1 X101.780 Y101.780 E2.7983
G1 X101.780 Y128.593 E4.4035
G1 X102.870 Y128.866 E4.4708
G1 X106.949 Y121.235 E4.9889
G1 X113.198 Y113.620 E5.5786
G1 X113.388 Y113.388 F1620
G92 E0
G1 E-6.0000 F3600
; outer perimeter
G1 X113.047 Y113.047 F3900
G1 E0.0000 F3600
G92 E0
G1 X120.966 Y106.548 E0.6133 F1440
G1 X128.310 Y102.623 E1.1118
G1 X128.219 Y102.260 E1.1342
G1 X102.260 Y102.260 E2.6883
G1 X102.260 Y128.219 E4.2424
G1 X102.623 Y128.310 E4.2649
G1 X106.548 Y120.967 E4.7633
G1 X112.857 Y113.279 E5.3587
G1 X113.047 Y113.047 F1440
G92 E0
G1 E-6.0000 F3600
; inner perimeter
G1 X112.341 Y117.081 F3900
G1 X108.230 Y122.090 F3900
G1 X103.588 Y130.775 F3900
G1 X102.265 Y135.136 F3900
G1 X102.265 Y164.864 F3900
G1 X103.345 Y168.424 F3900
G1 X102.870 Y171.134 F3900
G1 E0.0000 F3600
G92 E0
G1 X101.780 Y171.407 E0.0673 F1620
G1 X101.780 Y198.220 E1.6725
G1 X128.593 Y198.220 E3.2778
G1 X128.866 Y197.130 E3.3451
G1 X121.235 Y193.051 E3.8632
G1 X113.389 Y186.612 E4.4708
G1 X106.949 Y178.766 E5.0785
G1 X103.012 Y171.398 E5.5786
G1 X102.870 Y171.134 F1620
G92 E0
G1 E-6.0000 F3600
; outer perimeter
G1 X102.623 Y171.690 F3900
G1 E0.0000 F3600
G92 E0
G1 X102.260 Y171.781 E0.0224 F1440
G1 X102.260 Y197.740 E1.5765
G1 X128.219 Y197.740 E3.1306
G1 X128.310 Y197.377 E3.1531
G1 X120.967 Y193.452 E3.6515
G1 X113.047 Y186.953 E4.2649
G1 X106.548 Y179.034 E4.8782
G1 X102.765 Y171.955 E5.3587
G1 X102.623 Y171.690 F1440
G92 E0
G1 E-6.0000 F3600
; inner perimeter
G1 X105.471 Y172.748 F3900
G1 X108.230 Y177.910 F3900
G1 X114.478 Y185.522 F3900
G1 X122.090 Y191.770 F3900
G1 X130.775 Y196.412 F3900
G1 X135.136 Y197.735 F3900
G1 X164.864 Y197.735 F3900
G1 X169.212 Y196.416 F3900
G1 X171.134 Y197.130 F3900
G1 E0.0000 F3600
G92 E0
G1 X171.407 Y198.220 E0.0673 F1620
G1 X198.220 Y198.220 E1.6725
G1 X198.220 Y171.407 E3.2778
G1 X197.130 Y171.134 E3.3451
G1 X193.051 Y178.765 E3.8632
G1 X186.612 Y186.612 E4.4708
G1 X178.765 Y193.051 E5.0785
G1 X171.398 Y196.988 E5.5786
G1 X171.134 Y197.130 F1620
G92 E0
G1 E-6.0000 F3600
; outer perimeter
G1 X171.690 Y197.377 F3900
G1 E0.0000 F3600
G92 E0
G1 X171.781 Y197.740 E0.0224 F1440
G1 X197.740 Y197.740 E1.5765
G1 X197.740 Y171.781 E3.1306
G1 X197.377 Y171.690 E3.1531
G1 X193.452 Y179.033 E3.6515
G1 X186.953 Y186.953 E4.2649
G1 X179.033 Y193.452 E4.8782
G1 X171.955 Y197.235 E5.3587
G1 X171.690 Y197.377 F1440
G92 E0
G1 E-6.0000 F3600
