; G-Code generated by Simplify3D(R) Version 4.0.1
; Aug 29, 2018 at 7:29:14 PM
; Settings Summary
;   processName,Process1
;   applyToModels,Heat_tower_190-240_Bridge
;   profileName,Tevo Tornado heat test (modified)
;   profileVersion,2018-05-20 11:19:53
;   baseProfile,Default
;   printMaterial,PLA
;   printQuality,Fast
;   printExtruders,
;   extruderName,Extruder 1
;   extruderToolheadNumber,0
;   extruderDiameter,0.4
;   extruderAutoWidth,0
;   extruderWidth,0.4
;   extrusionMultiplier,1.03
;   extruderUseRetract,1
;   extruderRetractionDistance,6
;   extruderExtraRestartDistance,0
;   extruderRetractionZLift,0
;   extruderRetractionSpeed,3300
;   extruderUseCoasting,0
;   extruderCoastingDistance,0.3
;   extruderUseWipe,0
;   extruderWipeDistance,0.5
;   primaryExtruder,0
;   layerHeight,0.1
;   topSolidLayers,3
;   bottomSolidLayers,3
;   perimeterOutlines,3
;   printPerimetersInsideOut,1
;   startPointOption,2
;   startPointOriginX,0
;   startPointOriginY,0
;   sequentialIslands,0
;   spiralVaseMode,0
;   firstLayerHeightPercentage,80
;   firstLayerWidthPercentage,100
;   firstLayerUnderspeed,0.4
;   useRaft,1
;   raftExtruder,0
;   raftTopLayers,3
;   raftBaseLayers,2
;   raftOffset,3
;   raftSeparationDistance,0.14
;   raftTopInfill,100
;   aboveRaftSpeedMultiplier,0.3
;   useSkirt,1
;   skirtExtruder,0
;   skirtLayers,1
;   skirtOutlines,3
;   skirtOffset,5
;   usePrimePillar,0
;   primePillarExtruder,999
;   primePillarWidth,12
;   primePillarLocation,7
;   primePillarSpeedMultiplier,1
;   useOozeShield,0
;   oozeShieldExtruder,999
;   oozeShieldOffset,2
;   oozeShieldOutlines,1
;   oozeShieldSidewallShape,1
;   oozeShieldSidewallAngle,30
;   oozeShieldSpeedMultiplier,1
;   infillExtruder,0
;   internalInfillPattern,Grid
;   externalInfillPattern,Rectilinear
;   infillPercentage,15
;   outlineOverlapPercentage,15
;   infillExtrusionWidthPercentage,100
;   minInfillLength,5
;   infillLayerInterval,1
;   internalInfillAngles,45,-45
;   overlapInternalInfillAngles,1
;   externalInfillAngles,45,-45
;   generateSupport,0
;   supportExtruder,0
;   supportInfillPercentage,25
;   supportExtraInflation,0
;   supportBaseLayers,0
;   denseSupportExtruder,0
;   denseSupportLayers,0
;   denseSupportInfillPercentage,70
;   supportLayerInterval,1
;   supportHorizontalPartOffset,0.3
;   supportUpperSeparationLayers,1
;   supportLowerSeparationLayers,1
;   supportType,1
;   supportGridSpacing,3
;   maxOverhangAngle,45
;   supportAngles,0
;   temperatureName,Primary Extruder,Heated Bed
;   temperatureNumber,0,0
;   temperatureSetpointCount,11,1
;   temperatureSetpointLayers,1,50,100,150,200,250,300,350,400,450,500,1
;   temperatureSetpointTemperatures,240,235,230,225,220,215,210,205,200,195,190,55
;   temperatureStabilizeAtStartup,1,1
;   temperatureHeatedBed,0,1
;   temperatureRelayBetweenLayers,0,0
;   temperatureRelayBetweenLoops,0,0
;   fanLayers,1,2,3
;   fanSpeeds,0,25,90
;   blipFanToFullPower,1
;   adjustSpeedForCooling,1
;   minSpeedLayerTime,10
;   minCoolingSpeedSlowdown,50
;   increaseFanForCooling,0
;   minFanLayerTime,45
;   maxCoolingFanSpeed,100
;   increaseFanForBridging,0
;   bridgingFanSpeed,100
;   use5D,1
;   relativeEdistances,0
;   allowEaxisZeroing,1
;   independentExtruderAxes,0
;   includeM10123,0
;   stickySupport,1
;   applyToolheadOffsets,0
;   gcodeXoffset,0
;   gcodeYoffset,0
;   gcodeZoffset,0
;   overrideMachineDefinition,1
;   machineTypeOverride,0
;   strokeXoverride,300
;   strokeYoverride,300
;   strokeZoverride,400
;   originOffsetXoverride,0
;   originOffsetYoverride,0
;   originOffsetZoverride,0
;   homeXdirOverride,-1
;   homeYdirOverride,-1
;   homeZdirOverride,-1
;   flipXoverride,1
;   flipYoverride,-1
;   flipZoverride,1
;   toolheadOffsets,100,100|0,0|0,0|0,0|0,0|0,0
;   overrideFirmwareConfiguration,1
;   firmwareTypeOverride,RepRap (Marlin/Repetier/Sprinter)
;   GPXconfigOverride,r2
;   baudRateOverride,250000
;   overridePrinterModels,0
;   printerModelsOverride
;   startingGcode,G28 ; home all axes,M301 P23.39 I2.16 D63.23 ; setup to 205 tuned,G1 Z5 F3000 ; lift,G1 X40 Y2 F1500 ; avoid binder clips,G1 Z0.2 F3000 ; get ready to prime,G92 E0 ; reset extrusion distance,G1 X120 E10 F600 ; prime nozzle,G1 X150 F5000 ; quick wipe,M205 X10 ; Lower Jerk to 10,M204 P500 T1000 ; Lower Acceleration
;   layerChangeGcode,// CraftWare Script to adjust the temperature as Z is increased. Used for temperature calibration.,var minTemp = 190;,var maxTemp = 240;,var maxZ = 55; // excluding the base hight in mm,var baseZ = 0.5; // hight of the base if any. So total Hight is baseZ + maxZ,var segments = 11;,,var transitionZ = Math.floor(maxZ / segments);,var tempChange = Math.floor((maxTemp-minTemp)/(segments-1));,,if (z > baseZ) {,setHeadTemp( Math.max( (maxTemp - tempChange * Math.floor((z-baseZ)/transitionZ)), minTemp));,}
;   retractionGcode,
;   toolChangeGcode,
;   endingGcode,G28 X0 ; Home X Axis,G1 X285 ; Present Build Plate,M106 S0 ; Turn off Cooling Fan,M104 S0 ; Turn Off Extruder Heat,M140 S0 ; Turn of Bed Heat,M84 ; Disable Steppers
;   exportFileFormat,gcode
;   celebration,0
;   celebrationSong,Random Song
;   postProcessing,
;   defaultSpeed,3000
;   outlineUnderspeed,0.8
;   solidInfillUnderspeed,0.8
;   supportUnderspeed,0.8
;   rapidXYspeed,2400
;   rapidZspeed,600
;   minBridgingArea,50
;   bridgingExtraInflation,0
;   bridgingExtrusionMultiplier,1
;   bridgingSpeedMultiplier,1
;   useFixedBridgingAngle,0
;   fixedBridgingAngle,0
;   applyBridgingToPerimeters,0
;   filamentDiameters,1.73|1.73|1.73|1.73|1.73|1.73
;   filamentPricesPerKg,18|18|18|18|18|18
;   filamentDensities,1.25|1.25|1.25|1.25|1.25|1.25
;   useMinPrintHeight,0
;   minPrintHeight,175.73
;   useMaxPrintHeight,0
;   maxPrintHeight,104.17
;   useDiaphragm,0
;   diaphragmLayerInterval,20
;   robustSlicing,1
;   mergeAllIntoSolid,0
;   onlyRetractWhenCrossingOutline,1
;   retractBetweenLayers,0
;   useRetractionMinTravel,0
;   retractionMinTravel,3
;   retractWhileWiping,0
;   onlyWipeOutlines,0
;   avoidCrossingOutline,1
;   maxMovementDetourFactor,300
;   toolChangeRetractionDistance,12
;   toolChangeExtraRestartDistance,-1
;   toolChangeRetractionSpeed,600
;   externalThinWallType,0
;   internalThinWallType,1
;   thinWallAllowedOverlapPercentage,50
;   singleExtrusionMinLength,1
;   singleExtrusionMinPrintingWidthPercentage,50
;   singleExtrusionMaxPrintingWidthPercentage,200
;   singleExtrusionEndpointExtension,0.2
;   horizontalSizeCompensation,0
G90
M82
M106 S255
G4 P500
M106 S0
M140 S55
M190 S55
M104 S240 T0
M109 S240 T0
G28 ; home all axes
M301 P23.39 I2.16 D63.23 ; setup to 205 tuned
G1 Z5 F3000 ; lift
G1 X40 Y2 F1500 ; avoid binder clips
G1 Z0.2 F3000 ; get ready to prime
G92 E0 ; reset extrusion distance
G1 X120 E10 F600 ; prime nozzle
G1 X150 F5000 ; quick wipe
M205 X10 ; Lower Jerk to 10
M204 P500 T1000 ; Lower Acceleration
G92 E0
G1 E-6.0000 F3300
G1 Z0.400 F600
; process Process1
; layer 1, Z = 0.400
// CraftWare Script to adjust the temperature as Z is increased. Used for temperature calibration.
var minTemp = 190;
var maxTemp = 240;
var maxZ = 55; // excluding the base hight in mm
var baseZ = 0.5; // hight of the base if any. So total Hight is baseZ + maxZ
var segments = 11;

var transitionZ = Math.floor(maxZ / segments);
var tempChange = Math.floor((maxTemp-minTemp)/(segments-1));

if (z > baseZ) {
setHeadTemp( Math.max( (maxTemp - tempChange * Math.floor((z-baseZ)/transitionZ))
 minTemp));
}
T0
; tool H0.500 W0.400
; skirt
G1 X127.620 Y131.445 F2400
G1 E0.0000 F990
G92 E0
G1 X127.987 Y131.293 E0.0349 F1200
G1 X137.013 Y131.293 E0.8258
G1 X137.380 Y131.445 E0.8607
G1 X141.000 Y135.065 E1.3093
G1 X144.620 Y131.445 E1.7579
G1 X144.987 Y131.293 E1.7928
G1 X167.063 Y131.293 E3.7274
G1 X167.430 Y131.445 E3.7623
G1 X172.398 Y136.413 E4.3779
G1 X172.550 Y136.780 E4.4128
G1 X172.550 Y154.256 E5.9443
G1 X172.519 Y154.429 E5.9597
G1 X171.484 Y157.258 E6.2237
G1 X171.395 Y157.410 E6.2392
G1 X162.632 Y167.774 E7.4286
G1 X162.414 Y167.926 E7.4519
G1 X158.077 Y169.459 E7.8550
G1 X157.811 Y169.479 E7.8783
G1 X153.931 Y168.736 E8.2246
G1 X153.897 Y168.729 E8.2276
G1 X153.330 Y168.579 E8.2790
G1 X153.297 Y168.569 E8.2821
G1 X151.517 Y167.964 E8.4468
G1 X151.486 Y167.953 E8.4497
G1 X150.972 Y167.740 E8.4984
G1 X150.942 Y167.726 E8.5013
G1 X149.270 Y166.902 E8.6647
G1 X149.241 Y166.886 E8.6676
G1 X148.759 Y166.608 E8.7164
G1 X148.731 Y166.591 E8.7192
G1 X147.181 Y165.555 E8.8826
G1 X147.154 Y165.536 E8.8855
G1 X146.713 Y165.197 E8.9343
G1 X146.688 Y165.176 E8.9371
G1 X145.286 Y163.947 E9.1005
G1 X145.262 Y163.925 E9.1034
G1 X144.868 Y163.531 E9.1522
G1 X144.846 Y163.507 E9.1551
G1 X143.616 Y162.105 E9.3185
G1 X143.596 Y162.080 E9.3213
G1 X143.257 Y161.638 E9.3701
G1 X143.238 Y161.612 E9.3730
G1 X142.202 Y160.061 E9.5364
G1 X142.185 Y160.034 E9.5392
G1 X141.906 Y159.552 E9.5880
G1 X141.891 Y159.523 E9.5909
G1 X141.066 Y157.851 E9.7543
G1 X141.053 Y157.821 E9.7571
G1 X140.840 Y157.307 E9.8059
G1 X140.828 Y157.276 E9.8088
G1 X140.427 Y156.094 E9.9182
G1 X137.380 Y159.141 E10.2958
G1 X137.013 Y159.293 E10.3307
G1 X127.987 Y159.293 E11.1216
G1 X127.620 Y159.141 E11.1565
G1 X122.652 Y154.173 E11.7722
G1 X122.500 Y153.805 E11.8070
G1 X122.500 Y136.780 E13.2990
G1 X122.652 Y136.413 E13.3339
G1 X127.620 Y131.445 E13.9496
G92 E0
G1 E-6.0000 F3300
G1 X127.846 Y131.784 F2400
G1 E0.0000 F3300
G92 E0
G1 X128.067 Y131.693 E0.0209 F1200
G1 X136.933 Y131.693 E0.7979
G1 X137.154 Y131.784 E0.8188
G1 X141.000 Y135.631 E1.2956
G1 X144.846 Y131.784 E1.7723
G1 X145.067 Y131.693 E1.7932
G1 X166.983 Y131.693 E3.7138
G1 X167.204 Y131.784 E3.7348
G1 X172.059 Y136.639 E4.3365
G1 X172.150 Y136.860 E4.3574
G1 X172.150 Y154.221 E5.8789
G1 X172.132 Y154.325 E5.8881
G1 X171.120 Y157.088 E6.1460
G1 X171.067 Y157.179 E6.1552
G1 X162.361 Y167.476 E7.3369
G1 X162.230 Y167.566 E7.3509
G1 X157.993 Y169.064 E7.7447
G1 X157.834 Y169.076 E7.7587
G1 X154.013 Y168.345 E8.0996
G1 X153.993 Y168.340 E8.1014
G1 X153.439 Y168.194 E8.1517
G1 X153.419 Y168.188 E8.1535
G1 X151.652 Y167.588 E8.3170
G1 X151.633 Y167.581 E8.3188
G1 X151.131 Y167.373 E8.3664
G1 X151.113 Y167.365 E8.3681
G1 X149.453 Y166.546 E8.5304
G1 X149.435 Y166.537 E8.5321
G1 X148.965 Y166.265 E8.5797
G1 X148.948 Y166.255 E8.5814
G1 X147.409 Y165.226 E8.7437
G1 X147.393 Y165.215 E8.7454
G1 X146.961 Y164.884 E8.7930
G1 X146.946 Y164.871 E8.7948
G1 X145.554 Y163.651 E8.9570
G1 X145.540 Y163.637 E8.9587
G1 X145.156 Y163.253 E9.0064
G1 X145.142 Y163.238 E9.0081
G1 X143.921 Y161.846 E9.1703
G1 X143.909 Y161.831 E9.1721
G1 X143.578 Y161.400 E9.2197
G1 X143.567 Y161.384 E9.2214
G1 X142.538 Y159.845 E9.3837
G1 X142.528 Y159.828 E9.3854
G1 X142.256 Y159.358 E9.4330
G1 X142.247 Y159.340 E9.4347
G1 X141.428 Y157.680 E9.5970
G1 X141.420 Y157.662 E9.5987
G1 X141.212 Y157.160 E9.6463
G1 X141.205 Y157.141 E9.6481
G1 X140.610 Y155.388 E9.8103
G1 X140.604 Y155.369 E9.8120
G1 X140.600 Y155.355 E9.8133
G1 X137.154 Y158.801 E10.2405
G1 X136.933 Y158.893 E10.2614
G1 X128.067 Y158.893 E11.0384
G1 X127.846 Y158.801 E11.0593
G1 X122.991 Y153.946 E11.6611
G1 X122.900 Y153.726 E11.6820
G1 X122.900 Y136.860 E13.1601
G1 X122.991 Y136.639 E13.1810
G1 X127.846 Y131.784 E13.7827
G92 E0
G1 E-6.0000 F3300
G1 X128.073 Y132.123 F2400
G1 E0.0000 F3300
G92 E0
G1 X128.147 Y132.093 E0.0070 F1200
G1 X136.853 Y132.093 E0.7700
G1 X136.927 Y132.123 E0.7770
G1 X141.000 Y136.196 E1.2818
G1 X145.073 Y132.123 E1.7866
G1 X145.146 Y132.093 E1.7936
G1 X166.903 Y132.093 E3.7003
G1 X166.977 Y132.123 E3.7073
G1 X171.720 Y136.866 E4.2950
G1 X171.750 Y136.939 E4.3020
G1 X171.750 Y154.186 E5.8134
G1 X171.744 Y154.220 E5.8165
G1 X170.757 Y156.917 E6.0682
G1 X170.739 Y156.947 E6.0713
G1 X162.090 Y167.177 E7.2452
G1 X162.046 Y167.207 E7.2498
G1 X157.910 Y168.669 E7.6343
G1 X157.857 Y168.673 E7.6390
G1 X154.095 Y167.953 E7.9747
G1 X154.088 Y167.952 E7.9753
G1 X153.547 Y167.809 E8.0243
G1 X153.541 Y167.807 E8.0249
G1 X151.786 Y167.211 E8.1873
G1 X151.780 Y167.209 E8.1879
G1 X151.290 Y167.006 E8.2343
G1 X151.284 Y167.003 E8.2349
G1 X149.635 Y166.190 E8.3960
G1 X149.630 Y166.187 E8.3966
G1 X149.170 Y165.922 E8.4431
G1 X149.165 Y165.918 E8.4436
G1 X147.636 Y164.897 E8.6048
G1 X147.631 Y164.893 E8.6053
G1 X147.210 Y164.570 E8.6518
G1 X147.205 Y164.566 E8.6524
G1 X145.823 Y163.354 E8.8135
G1 X145.818 Y163.350 E8.8141
G1 X145.443 Y162.975 E8.8605
G1 X145.439 Y162.970 E8.8611
G1 X144.226 Y161.588 E9.0222
G1 X144.222 Y161.583 E9.0228
G1 X143.899 Y161.162 E9.0693
G1 X143.896 Y161.156 E9.0699
G1 X142.874 Y159.628 E9.2310
G1 X142.871 Y159.622 E9.2315
G1 X142.606 Y159.163 E9.2780
G1 X142.603 Y159.157 E9.2786
G1 X141.790 Y157.509 E9.4397
G1 X141.787 Y157.503 E9.4403
G1 X141.584 Y157.013 E9.4867
G1 X141.582 Y157.006 E9.4873
G1 X140.991 Y155.266 E9.6484
G1 X140.989 Y155.259 E9.6490
G1 X140.852 Y154.747 E9.6955
G1 X140.850 Y154.741 E9.6961
G1 X140.817 Y154.573 E9.7111
G1 X136.927 Y158.462 E10.1931
G1 X136.853 Y158.493 E10.2001
G1 X128.147 Y158.493 E10.9632
G1 X128.073 Y158.462 E10.9701
G1 X123.330 Y153.720 E11.5579
G1 X123.300 Y153.646 E11.5649
G1 X123.300 Y136.939 E13.0290
G1 X123.330 Y136.866 E13.0360
G1 X128.073 Y132.123 E13.6238
G92 E0
G1 E-6.0000 F3300
; tool H0.500 W0.800
; raft
G1 X130.423 Y137.693 F2400
G1 E0.0000 F3300
G92 E0
G1 X134.577 Y137.693 E0.7281 F300
G1 X136.100 Y139.216 E1.1056
G1 X136.100 Y151.370 E3.2358
G1 X134.577 Y152.893 E3.6134
G1 X130.423 Y152.893 E4.3414
G1 X128.900 Y151.370 E4.7190
G1 X128.900 Y139.216 E6.8492
G1 X130.423 Y137.693 E7.2267
G92 E0
G1 E-6.0000 F3300
G1 X145.900 Y139.216 F2400
G1 E0.0000 F3300
G92 E0
G1 X147.423 Y137.693 E0.3775 F300
G1 X164.627 Y137.693 E3.3929
G1 X166.150 Y139.216 E3.7705
G1 X166.150 Y153.211 E6.2234
G1 X165.833 Y154.076 E6.3850
G1 X158.775 Y162.424 E8.3009
G1 X157.448 Y162.893 E8.5478
G1 X155.335 Y162.489 E8.9248
G1 X155.161 Y162.443 E8.9563
G1 X153.757 Y161.966 E9.2162
G1 X153.600 Y161.901 E9.2460
G1 X152.274 Y161.247 E9.5051
G1 X152.126 Y161.162 E9.5350
G1 X150.897 Y160.341 E9.7941
G1 X150.762 Y160.237 E9.8239
G1 X149.651 Y159.262 E10.0831
G1 X149.530 Y159.142 E10.1129
G1 X148.555 Y158.031 E10.3720
G1 X148.452 Y157.896 E10.4018
G1 X147.631 Y156.666 E10.6609
G1 X147.546 Y156.519 E10.6907
G1 X146.892 Y155.193 E10.9498
G1 X146.827 Y155.036 E10.9797
G1 X146.351 Y153.636 E11.2388
G1 X146.307 Y153.472 E11.2686
G1 X146.019 Y152.022 E11.5277
G1 X145.997 Y151.853 E11.5576
G1 X145.904 Y150.433 E11.8069
G1 X145.901 Y150.349 E11.8218
G1 X145.900 Y139.216 E13.7731
G92 E0
G1 E-6.0000 F3300
G1 X147.676 Y138.571 F2400
G1 E0.0000 F3300
G92 E0
G1 X164.374 Y138.571 E2.9268 F300
G1 X165.350 Y139.547 E3.1687
G1 X165.350 Y140.857 E3.3983
G1 X146.700 Y140.857 E6.6671
G1 X146.700 Y143.143 E7.0677
G1 X165.350 Y143.143 E10.3365
G1 X165.350 Y145.429 E10.7372
G1 X146.700 Y145.429 E14.0059
G1 X146.701 Y147.714 E14.4066
G1 X165.350 Y147.714 E17.6753
G1 X165.350 Y150.000 E18.0759
G1 X146.701 Y150.000 E21.3446
G1 X146.701 Y150.335 E21.4034
G1 X146.703 Y150.394 E21.4137
G1 X146.793 Y151.775 E21.6562
G1 X146.809 Y151.891 E21.6768
G1 X146.887 Y152.286 E21.7473
G1 X165.350 Y152.286 E24.9833
G1 X165.350 Y153.069 E25.1206
G1 X165.131 Y153.668 E25.2325
G1 X164.367 Y154.571 E25.4398
G1 X147.514 Y154.571 E28.3937
G1 X147.576 Y154.754 E28.4275
G1 X147.621 Y154.863 E28.4482
G1 X148.251 Y156.142 E28.6981
G1 X148.310 Y156.244 E28.7187
G1 X148.720 Y156.857 E28.8480
G1 X162.434 Y156.857 E31.2517
G1 X160.502 Y159.143 E31.7764
G1 X150.728 Y159.143 E33.4895
G1 X151.270 Y159.619 E33.6160
G1 X151.363 Y159.690 E33.6366
G1 X152.549 Y160.482 E33.8865
G1 X152.651 Y160.541 E33.9072
G1 X153.930 Y161.172 E34.1571
G1 X154.039 Y161.217 E34.1778
G1 X154.662 Y161.429 E34.2931
G1 X158.569 Y161.429 E34.9779
G92 E0
G1 E-6.0000 F3300
G1 X129.700 Y150.000 F2400
G1 E0.0000 F3300
G92 E0
G1 X135.300 Y150.000 E0.9815 F300
G1 X135.300 Y147.714 E1.3822
G1 X129.700 Y147.714 E2.3637
G1 X129.700 Y145.429 E2.7643
G1 X135.300 Y145.429 E3.7458
G1 X135.300 Y143.143 E4.1465
G1 X129.700 Y143.143 E5.1280
G1 X129.700 Y140.857 E5.5286
G1 X135.300 Y140.857 E6.5101
