; G-Code generated by Simplify3D(R) Version 4.0.1
; Apr 21, 2018 at 6:46:45 AM
; Settings Summary
;   processName,Process1
;   applyToModels,3DBenchy
;   profileName,Dremel Idea Builder 3D20(3) (modified)
;   profileVersion,2017-08-11 08:00:00
;   baseProfile,
;   printMaterial,PLA
;   printQuality,Medium
;   printExtruders,
;   extruderName,Primary Extruder
;   extruderToolheadNumber,0
;   extruderDiameter,0.6
;   extruderAutoWidth,1
;   extruderWidth,0.72
;   extrusionMultiplier,1
;   extruderUseRetract,1
;   extruderRetractionDistance,1.2
;   extruderExtraRestartDistance,0
;   extruderRetractionZLift,0
;   extruderRetractionSpeed,1200
;   extruderUseCoasting,1
;   extruderCoastingDistance,0.2
;   extruderUseWipe,1
;   extruderWipeDistance,5
;   primaryExtruder,0
;   layerHeight,0.15
;   topSolidLayers,5
;   bottomSolidLayers,5
;   perimeterOutlines,5
;   printPerimetersInsideOut,1
;   startPointOption,2
;   startPointOriginX,0
;   startPointOriginY,0
;   sequentialIslands,0
;   spiralVaseMode,0
;   firstLayerHeightPercentage,90
;   firstLayerWidthPercentage,125
;   firstLayerUnderspeed,0.35
;   useRaft,0
;   raftExtruder,0
;   raftTopLayers,3
;   raftBaseLayers,2
;   raftOffset,3
;   raftSeparationDistance,0.14
;   raftTopInfill,100
;   aboveRaftSpeedMultiplier,0.3
;   useSkirt,0
;   skirtExtruder,0
;   skirtLayers,1
;   skirtOutlines,2
;   skirtOffset,4
;   usePrimePillar,0
;   primePillarExtruder,999
;   primePillarWidth,12
;   primePillarLocation,7
;   primePillarSpeedMultiplier,1
;   useOozeShield,0
;   oozeShieldExtruder,999
;   oozeShieldOffset,2
;   oozeShieldOutlines,1
;   oozeShieldSidewallShape,1
;   oozeShieldSidewallAngle,30
;   oozeShieldSpeedMultiplier,1
;   infillExtruder,0
;   internalInfillPattern,Rectilinear
;   externalInfillPattern,Rectilinear
;   infillPercentage,20
;   outlineOverlapPercentage,20
;   infillExtrusionWidthPercentage,200
;   minInfillLength,5
;   infillLayerInterval,1
;   internalInfillAngles,45,-45
;   overlapInternalInfillAngles,0
;   externalInfillAngles,45,-45
;   generateSupport,0
;   supportExtruder,0
;   supportInfillPercentage,30
;   supportExtraInflation,0
;   supportBaseLayers,0
;   denseSupportExtruder,0
;   denseSupportLayers,0
;   denseSupportInfillPercentage,70
;   supportLayerInterval,1
;   supportHorizontalPartOffset,0.3
;   supportUpperSeparationLayers,1
;   supportLowerSeparationLayers,1
;   supportType,0
;   supportGridSpacing,4
;   maxOverhangAngle,40
;   supportAngles,0
;   temperatureName,Primary Extruder
;   temperatureNumber,0
;   temperatureSetpointCount,1
;   temperatureSetpointLayers,1
;   temperatureSetpointTemperatures,220
;   temperatureStabilizeAtStartup,0
;   temperatureHeatedBed,0
;   temperatureRelayBetweenLayers,0
;   temperatureRelayBetweenLoops,0
;   fanLayers,1,2
;   fanSpeeds,0,100
;   blipFanToFullPower,0
;   adjustSpeedForCooling,1
;   minSpeedLayerTime,15
;   minCoolingSpeedSlowdown,20
;   increaseFanForCooling,0
;   minFanLayerTime,45
;   maxCoolingFanSpeed,100
;   increaseFanForBridging,1
;   bridgingFanSpeed,100
;   use5D,1
;   relativeEdistances,0
;   allowEaxisZeroing,0
;   independentExtruderAxes,1
;   includeM10123,0
;   stickySupport,1
;   applyToolheadOffsets,0
;   gcodeXoffset,0
;   gcodeYoffset,0
;   gcodeZoffset,0
;   overrideMachineDefinition,1
;   machineTypeOverride,0
;   strokeXoverride,230
;   strokeYoverride,150
;   strokeZoverride,140
;   originOffsetXoverride,115
;   originOffsetYoverride,75
;   originOffsetZoverride,0
;   homeXdirOverride,1
;   homeYdirOverride,1
;   homeZdirOverride,-1
;   flipXoverride,1
;   flipYoverride,-1
;   flipZoverride,1
;   toolheadOffsets,0,0|0,0|0,0|0,0|0,0|0,0
;   overrideFirmwareConfiguration,1
;   firmwareTypeOverride,FlashForge Dreamer Firmware
;   GPXconfigOverride,r2
;   baudRateOverride,115200
;   overridePrinterModels,1
;   printerModelsOverride
;   startingGcode,M104 S[extruder0_temperature] T0,M907 X100 Y100 Z40 A80 ; set motor current,M132 X Y Z A ; recall home offsets,G28 ; home axes,G1 Z100 F3300 ; lower Z,G1 X-110.5 Y-74 F6000 ; move to wait position,M6 T0 ; wait for extruder to reach target temp,G1 Z0.6 F3300 ; position nozzle
;   layerChangeGcode,
;   retractionGcode,
;   toolChangeGcode,
;   endingGcode,M104 S0 T0 ; cool down extruder,G1 Z140 F3300 ; send Z axis to bottom of machine,M107 ; disable cooling fan,G28 X0 Y0 ; home XY axes,M18 ; disable stepper
;   exportFileFormat,g3drem
;   celebration,0
;   celebrationSong,Random Song
;   postProcessing,{PREPEND DREMEL_HEADER},{REPLACE "M106 S0" "M107"}
;   defaultSpeed,3600
;   outlineUnderspeed,0.5
;   solidInfillUnderspeed,0.8
;   supportUnderspeed,0.8
;   rapidXYspeed,7200
;   rapidZspeed,3600
;   minBridgingArea,50
;   bridgingExtraInflation,0
;   bridgingExtrusionMultiplier,1
;   bridgingSpeedMultiplier,0.8
;   useFixedBridgingAngle,0
;   fixedBridgingAngle,0
;   applyBridgingToPerimeters,0
;   filamentDiameters,1.75|1.75|1.75|1.75|1.75|1.75
;   filamentPricesPerKg,46|46|46|46|46|46
;   filamentDensities,1.25|1.25|1.25|1.25|1.25|1.25
;   useMinPrintHeight,0
;   minPrintHeight,0
;   useMaxPrintHeight,0
;   maxPrintHeight,0
;   useDiaphragm,0
;   diaphragmLayerInterval,20
;   robustSlicing,1
;   mergeAllIntoSolid,0
;   onlyRetractWhenCrossingOutline,1
;   retractBetweenLayers,0
;   useRetractionMinTravel,0
;   retractionMinTravel,3
;   retractWhileWiping,0
;   onlyWipeOutlines,1
;   avoidCrossingOutline,0
;   maxMovementDetourFactor,3
;   toolChangeRetractionDistance,12
;   toolChangeExtraRestartDistance,-0.5
;   toolChangeRetractionSpeed,600
;   externalThinWallType,0
;   internalThinWallType,2
;   thinWallAllowedOverlapPercentage,10
;   singleExtrusionMinLength,1
;   singleExtrusionMinPrintingWidthPercentage,50
;   singleExtrusionMaxPrintingWidthPercentage,200
;   singleExtrusionEndpointExtension,0.2
;   horizontalSizeCompensation,0
G90
M82
M107
M104 S220 T0
M907 X100 Y100 Z40 A80 ; set motor current
M132 X Y Z A ; recall home offsets
G28 ; home axes
G1 Z100 F3300 ; lower Z
G1 X-110.5 Y-74 F6000 ; move to wait position
M6 T0 ; wait for extruder to reach target temp
G1 Z0.6 F3300 ; position nozzle
G1 E-1.2000 F1200
G1 Z0.135 F3600
; process Process1
; layer 1, Z = 0.135
M108 T0
; tool H0.150 W0.900
; inner perimeter
G1 X0.252 Y-3.568 F7200
G1 E0.0000 F360
G1 X-0.524 Y-3.764 E0.0449 F945
G1 X-1.120 Y-3.770 E0.0784
G1 X-1.687 Y-3.657 E0.1108
G1 X-2.189 Y-3.441 E0.1415
G1 X-2.851 Y-3.002 E0.1861
G1 X-3.094 Y-3.377 E0.2111
G1 X-3.370 Y-3.725 E0.2360
G1 X-3.738 Y-4.097 E0.2654
G1 X-4.094 Y-4.380 E0.2909
G1 X-4.460 Y-4.611 E0.3153
G1 X-5.107 Y-4.927 E0.3557
G1 X-4.985 Y-5.539 E0.3907
G1 X-0.444 Y-5.814 E0.6461
G1 X0.352 Y-5.821 E0.6908
G1 X0.972 Y-5.792 E0.7256
G1 X1.683 Y-5.720 E0.7657
G1 X2.176 Y-5.645 E0.7937
G1 X2.883 Y-5.502 E0.8342
G1 X3.554 Y-5.328 E0.8731
G1 X4.231 Y-5.112 E0.9129
G1 X4.930 Y-4.842 E0.9550
G1 X5.551 Y-4.562 E0.9932
G1 X5.847 Y-4.407 E1.0120
G1 X5.805 Y-3.872 E1.0421
G1 X4.702 Y-3.505 E1.1073
G1 X4.537 Y-3.389 E1.1187
G1 X4.288 Y-3.536 E1.1349
G1 X3.547 Y-3.748 E1.1782
G1 X2.939 Y-3.775 E1.2123
G1 X2.385 Y-3.686 E1.2438
G1 X2.150 Y-3.597 E1.2579
G1 X1.833 Y-3.753 E1.2777
G1 X0.725 Y-3.772 E1.3399
G1 X0.436 Y-3.647 E1.3577
G1 X0.252 Y-3.568 F945
G1 X-0.224 Y-2.760 F7200
G1 X-0.641 Y-2.865 E1.3818 F945
G1 X-1.036 Y-2.869 E1.4039
G1 X-1.418 Y-2.793 E1.4258
G1 X-1.759 Y-2.646 E1.4467
G1 X-2.077 Y-2.436 E1.4681
G1 X-2.382 Y-2.111 E1.4930
G1 X-2.676 Y-1.522 E1.5300
G1 X-3.219 Y-1.563 E1.5605
G1 X-3.332 Y-1.914 E1.5812
G1 X-3.470 Y-2.246 E1.6014
G1 X-3.636 Y-2.560 E1.6213
G1 X-3.826 Y-2.851 E1.6408
G1 X-4.044 Y-3.127 E1.6606
G1 X-4.340 Y-3.426 E1.6842
G1 X-4.615 Y-3.645 E1.7039
G1 X-4.899 Y-3.824 E1.7228
G1 X-5.197 Y-3.969 E1.7414
G1 X-5.532 Y-4.091 E1.7614
G1 X-6.184 Y-4.234 E1.7988
G1 X-6.985 Y-4.300 E1.8439
G1 X-7.688 Y-4.299 E1.8834
G1 X-7.792 Y-4.301 E1.8892
G1 X-8.445 Y-4.316 E1.9259
G1 X-8.974 Y-4.226 E1.9560
G1 X-9.430 Y-4.025 E1.9840
G1 X-9.914 Y-3.650 E2.0183
G1 X-10.162 Y-3.866 E2.0368
G1 X-10.441 Y-4.054 E2.0557
G1 X-10.754 Y-4.212 E2.0753
G1 X-11.093 Y-4.332 E2.0955
G1 X-11.534 Y-4.427 E2.1209
G1 X-11.776 Y-4.459 E2.1346
G1 X-12.302 Y-4.482 E2.1641
G1 X-12.743 Y-4.453 E2.1890
G1 X-13.128 Y-4.390 E2.2108
G1 X-13.565 Y-4.266 E2.2363
G1 X-14.193 Y-3.979 E2.2751
G1 X-14.707 Y-4.246 E2.3076
G1 X-15.210 Y-4.309 E2.3361
G1 X-16.555 Y-4.304 E2.4115
G1 X-16.892 Y-4.302 E2.4304
G1 X-18.470 Y-4.294 E2.5190
G1 X-18.976 Y-4.336 E2.5475
G1 X-19.436 Y-4.327 E2.5733
G1 X-20.033 Y-4.134 E2.6085
G1 X-20.343 Y-3.874 E2.6313
G1 X-20.599 Y-4.039 E2.6483
G1 X-20.888 Y-4.186 E2.6666
G1 X-21.213 Y-4.309 E2.6861
G1 X-21.561 Y-4.399 E2.7062
G1 X-21.926 Y-4.455 E2.7270
G1 X-22.301 Y-4.478 E2.7480
G1 X-22.779 Y-4.465 E2.7749
G1 X-23.419 Y-4.359 E2.8113
G1 X-23.786 Y-4.242 E2.8329
G1 X-24.507 Y-3.936 E2.8769
G1 X-24.507 Y-4.810 E2.9259
G1 X-24.499 Y-4.918 E2.9320
G1 X-24.490 Y-4.975 E2.9352
G1 X-24.383 Y-5.267 E2.9526
G1 X-0.475 Y-6.714 E4.2970
G1 X0.369 Y-6.721 E4.3444
G1 X1.039 Y-6.690 E4.3820
G1 X1.796 Y-6.613 E4.4247
G1 X2.333 Y-6.531 E4.4552
G1 X3.085 Y-6.380 E4.4982
G1 X3.805 Y-6.193 E4.5400
G1 X4.529 Y-5.961 E4.5827
G1 X5.277 Y-5.673 E4.6277
G1 X5.944 Y-5.371 E4.6687
G1 X6.631 Y-5.013 E4.7122
G1 X7.202 Y-4.674 E4.7494
G1 X7.967 Y-4.159 E4.8012
G1 X8.548 Y-3.715 E4.8423
G1 X8.920 Y-3.394 E4.8699
G1 X8.719 Y-2.864 E4.9017
G1 X8.103 Y-2.872 E4.9362
G1 X7.675 Y-2.859 E4.9603
G1 X7.239 Y-2.795 E4.9850
G1 X6.782 Y-2.620 E5.0124
G1 X6.282 Y-2.833 E5.0429
G1 X5.685 Y-2.884 E5.0766
G1 X5.117 Y-2.695 E5.1102
G1 X4.530 Y-2.275 E5.1507
G1 X4.293 Y-2.487 E5.1685
G1 X3.929 Y-2.702 E5.1922
G1 X3.401 Y-2.854 E5.2231
G1 X2.991 Y-2.872 E5.2461
G1 X2.619 Y-2.812 E5.2673
G1 X2.103 Y-2.616 E5.2982
G1 X1.616 Y-2.857 E5.3287
G1 X0.904 Y-2.869 E5.3687
G1 X0.155 Y-2.546 E5.4144
G1 X-0.050 Y-2.662 E5.4277
G1 X-0.224 Y-2.760 F945
G1 E4.2277 F1200
G1 X0.139 Y4.083 F7200
G1 E5.4277 F1200
G1 X0.361 Y4.250 E5.4433 F945
G1 X0.958 Y4.474 E5.4791
G1 X0.933 Y5.141 E5.5165
G1 X0.985 Y5.495 E5.5366
G1 X1.099 Y5.829 E5.5564
G1 X1.534 Y6.652 E5.6086
G1 X0.628 Y6.714 E5.6596
G1 X0.289 Y6.724 E5.6786
G1 X-0.488 Y6.714 E5.7223
G1 X-24.441 Y5.262 E7.0692
G1 X-24.506 Y4.838 E7.0932
G1 X-24.506 Y3.854 E7.1485
G1 X-23.858 Y4.145 E7.1883
G1 X-23.516 Y4.260 E7.2086
G1 X-23.121 Y4.349 E7.2313
G1 X-22.745 Y4.394 E7.2526
G1 X-22.337 Y4.408 E7.2755
G1 X-21.693 Y4.354 E7.3118
G1 X-21.318 Y4.271 E7.3333
G1 X-20.855 Y4.106 E7.3609
G1 X-20.433 Y3.871 E7.3880
G1 X-20.135 Y3.644 E7.4091
G1 X-19.811 Y3.308 E7.4352
G1 X-19.525 Y2.899 E7.4633
G1 X-19.021 Y2.982 E7.4919
G1 X-18.900 Y3.400 E7.5163
G1 X-18.437 Y3.910 E7.5550
G1 X-17.901 Y4.174 E7.5885
G1 X-17.387 Y4.265 E7.6178
G1 X-16.992 Y4.248 E7.6400
G1 X-16.635 Y4.162 E7.6606
G1 X-16.283 Y3.999 E7.6824
G1 X-15.960 Y3.741 E7.7056
G1 X-15.709 Y3.423 E7.7283
G1 X-15.488 Y2.968 E7.7567
G1 X-14.980 Y2.968 E7.7852
G1 X-14.819 Y3.301 E7.8060
G1 X-14.467 Y3.708 E7.8362
G1 X-14.070 Y3.989 E7.8635
G1 X-13.748 Y4.147 E7.8837
G1 X-13.325 Y4.287 E7.9087
G1 X-12.800 Y4.384 E7.9386
G1 X-12.122 Y4.407 E7.9767
G1 X-11.745 Y4.378 E7.9979
G1 X-11.413 Y4.322 E8.0168
G1 X-11.093 Y4.234 E8.0354
G1 X-10.755 Y4.102 E8.0558
G1 X-10.339 Y3.866 E8.0826
G1 X-9.882 Y3.519 E8.1148
G1 X-9.639 Y3.843 E8.1376
G1 X-9.104 Y4.174 E8.1729
G1 X-8.542 Y4.277 E8.2049
G1 X-7.928 Y4.227 E8.2395
G1 X-7.134 Y4.234 E8.2841
G1 X-6.703 Y4.217 E8.3083
G1 X-6.157 Y4.157 E8.3391
G1 X-5.657 Y4.047 E8.3678
G1 X-5.065 Y3.831 E8.4032
G1 X-4.860 Y4.070 E8.4209
G1 X-4.407 Y4.410 E8.4527
G1 X-3.996 Y4.592 E8.4779
G1 X-3.595 Y4.691 E8.5011
G1 X-3.182 Y4.719 E8.5243
G1 X-2.769 Y4.674 E8.5476
G1 X-2.338 Y4.547 E8.5728
G1 X-1.777 Y4.234 E8.6089
G1 X-1.484 Y4.358 E8.6268
G1 X-1.096 Y4.438 E8.6490
G1 X-0.571 Y4.415 E8.6785
G1 X-0.043 Y4.168 E8.7113
G1 X0.139 Y4.083 F945
G1 E7.5113 F1200
G1 X5.611 Y4.953 F7200
G1 E8.7113 F1200
G1 X6.108 Y3.674 E8.7883 F945
G1 X6.712 Y4.210 E8.8337
G1 X6.940 Y4.299 E8.8474
G1 X6.979 Y4.806 E8.8759
G1 X6.520 Y5.074 E8.9057
G1 X6.026 Y5.327 E8.9369
G1 X5.760 Y5.087 E8.9570
G1 X5.611 Y4.953 F945
G1 E7.7570 F1200
G1 X-14.271 Y0.576 F7200
G1 E8.9570 F1200
G1 X-14.632 Y0.860 E8.9828 F945
G1 X-14.882 Y1.172 E9.0052
G1 X-15.424 Y0.982 E9.0374
G1 X-15.424 Y-0.600 E9.1262
G1 X-14.456 Y-0.823 E9.1820
G1 X-14.469 Y-0.117 E9.2216
G1 X-14.406 Y0.255 E9.2428
G1 X-14.349 Y0.391 E9.2511
G1 X-14.271 Y0.576 F945
G1 E8.0511 F1200
G1 X-19.057 Y0.794 F7200
G1 E9.2511 F1200
G1 X-19.547 Y1.008 E9.2811 F945
G1 X-20.020 Y0.563 E9.3175
G1 X-20.667 Y0.197 E9.3592
G1 X-20.608 Y-0.333 E9.3891
G1 X-20.346 Y-0.414 E9.4046
G1 X-19.865 Y-0.740 E9.4372
G1 X-19.452 Y-0.622 E9.4613
G1 X-19.066 Y-0.602 E9.4830
G1 X-19.059 Y0.594 E9.5501
G1 X-19.057 Y0.794 F945
G1 X-21.720 Y0.265 F7200
G1 X-21.953 Y0.328 E9.5636 F945
G1 X-22.170 Y0.459 E9.5779
G1 X-22.581 Y0.228 E9.6043
G1 X-22.586 Y-0.747 E9.6590
G1 X-21.665 Y-0.292 E9.7166
G1 X-21.701 Y0.066 E9.7369
G1 X-21.720 Y0.265 F945
G1 E8.5369 F1200
; outer perimeter
G1 X-25.406 Y4.862 F7200
G1 E9.7369 F1200
G1 X-25.407 Y-4.841 E10.2815 F630
G1 X-25.393 Y-5.039 E10.2926
G1 X-25.358 Y-5.222 E10.3031
G1 X-25.257 Y-5.498 E10.3196
G1 X-25.150 Y-5.677 E10.3313
G1 X-25.053 Y-5.794 E10.3398
G1 X-24.928 Y-5.909 E10.3493
G1 X-24.717 Y-6.043 E10.3633
G1 X-24.512 Y-6.125 E10.3757
G1 X-24.274 Y-6.175 E10.3894
G1 X-0.506 Y-7.614 E11.7258
G1 X0.387 Y-7.622 E11.7759
G1 X1.106 Y-7.588 E11.8164
G1 X1.909 Y-7.506 E11.8617
G1 X2.490 Y-7.418 E11.8946
G1 X3.287 Y-7.257 E11.9403
G1 X4.055 Y-7.057 E11.9848
G1 X4.828 Y-6.810 E12.0304
G1 X5.625 Y-6.504 E12.0783
G1 X6.338 Y-6.181 E12.1223
G1 X7.070 Y-5.799 E12.1685
G1 X7.683 Y-5.435 E12.2086
G1 X8.493 Y-4.891 E12.2633
G1 X9.117 Y-4.413 E12.3074
G1 X9.781 Y-3.839 E12.3567
G1 X10.528 Y-3.100 E12.4157
G1 X11.101 Y-2.454 E12.4642
G1 X11.453 Y-2.015 E12.4958
G1 X11.757 Y-1.606 E12.5244
G1 X12.238 Y-0.889 E12.5728
G1 X12.539 Y-0.375 E12.6062
G1 X12.600 Y-0.209 E12.6162
G1 X12.621 Y-0.095 E12.6227
G1 X12.627 Y0.031 E12.6298
G1 X12.616 Y0.134 E12.6356
G1 X12.575 Y0.288 E12.6445
G1 X12.530 Y0.397 E12.6511
G1 X12.077 Y1.140 E12.6999
G1 X11.626 Y1.786 E12.7442
G1 X11.341 Y2.161 E12.7706
G1 X10.986 Y2.579 E12.8014
G1 X10.982 Y2.433 E12.8096
G1 X10.903 Y2.164 E12.8253
G1 X10.746 Y1.945 E12.8405
G1 X10.569 Y1.811 E12.8529
G1 X10.243 Y1.688 E12.8725
G1 X9.755 Y1.634 E12.9001
G1 X9.465 Y1.638 E12.9163
G1 X9.365 Y1.646 E12.9219
G1 X10.470 Y0.094 E13.0289
G1 X10.723 Y-0.293 E13.0548
G1 X10.843 Y-0.564 E13.0715
G1 X10.899 Y-0.807 E13.0855
G1 X10.905 Y-1.110 E13.1025
G1 X10.844 Y-1.393 E13.1187
G1 X10.729 Y-1.616 E13.1328
G1 X10.585 Y-1.774 E13.1448
G1 X10.360 Y-1.902 E13.1593
G1 X10.154 Y-1.954 E13.1712
G1 X9.870 Y-1.970 E13.1873
G1 X8.555 Y-1.966 E13.2610
G1 X8.111 Y-1.972 E13.2860
G1 X7.754 Y-1.961 E13.3060
G1 X7.468 Y-1.919 E13.3222
G1 X7.211 Y-1.821 E13.3377
G1 X6.999 Y-1.649 E13.3530
G1 X6.883 Y-1.469 E13.3650
G1 X6.811 Y-1.267 E13.3770
G1 X6.782 Y-0.977 E13.3934
G1 X6.838 Y-0.677 E13.4105
G1 X7.023 Y-0.370 E13.4307
G1 X7.328 Y-0.181 E13.4508
G1 X7.616 Y-0.108 E13.4675
G1 X7.991 Y-0.073 E13.4886
G1 X8.261 Y-0.069 E13.5038
G1 X8.296 Y-0.072 E13.5057
G1 X7.194 Y1.447 E13.6110
G1 X6.964 Y1.791 E13.6343
G1 X6.827 Y2.075 E13.6519
G1 X6.754 Y2.363 E13.6687
G1 X6.751 Y2.656 E13.6851
G1 X6.791 Y2.863 E13.6969
G1 X6.861 Y3.050 E13.7081
G1 X6.983 Y3.247 E13.7211
G1 X7.190 Y3.431 E13.7367
G1 X7.437 Y3.528 E13.7516
G1 X7.644 Y3.553 E13.7633
G1 X8.236 Y3.524 E13.7966
G1 X9.966 Y3.529 E13.8937
G1 X10.118 Y3.517 E13.9022
G1 X9.939 Y3.692 E13.9163
G1 X9.331 Y4.235 E13.9620
G1 X8.582 Y4.825 E14.0155
G1 X7.673 Y5.442 E14.0772
G1 X6.953 Y5.863 E14.1240
G1 X6.274 Y6.211 E14.1668
G1 X5.382 Y6.603 E14.2215
G1 X4.429 Y6.944 E14.2783
G1 X3.547 Y7.195 E14.3298
G1 X2.760 Y7.368 E14.3750
G1 X2.023 Y7.490 E14.4169
G1 X1.376 Y7.564 E14.4535
G1 X0.672 Y7.613 E14.4931
G1 X0.297 Y7.624 E14.5141
G1 X-0.521 Y7.614 E14.5601
G1 X-24.284 Y6.173 E15.8962
G1 X-24.564 Y6.108 E15.9124
G1 X-24.729 Y6.037 E15.9225
G1 X-24.946 Y5.895 E15.9370
G1 X-25.051 Y5.796 E15.9451
G1 X-25.172 Y5.644 E15.9561
G1 X-25.301 Y5.401 E15.9714
G1 X-25.357 Y5.225 E15.9819
