; G-Code generated by Simplify3D(R) Version 4.0.1
; May 12, 2018 at 8:52:41 PM
; Settings Summary
;   processName,Process1
;   applyToModels,Bed_Level_Test
;   profileName,TEVO Tornado medium Standard (modified)
;   profileVersion,2018-04-30 19:41:39
;   baseProfile,TEVO Tornado (modified)
;   printMaterial,PLA
;   printQuality,High
;   printExtruders,
;   extruderName,Primary Extruder
;   extruderToolheadNumber,0
;   extruderDiameter,0.4
;   extruderAutoWidth,1
;   extruderWidth,0.48
;   extrusionMultiplier,0.9
;   extruderUseRetract,1
;   extruderRetractionDistance,5
;   extruderExtraRestartDistance,0
;   extruderRetractionZLift,0
;   extruderRetractionSpeed,1800
;   extruderUseCoasting,0
;   extruderCoastingDistance,0.2
;   extruderUseWipe,0
;   extruderWipeDistance,5
;   primaryExtruder,0
;   layerHeight,0.2
;   topSolidLayers,4
;   bottomSolidLayers,4
;   perimeterOutlines,2
;   printPerimetersInsideOut,1
;   startPointOption,2
;   startPointOriginX,0
;   startPointOriginY,0
;   sequentialIslands,0
;   spiralVaseMode,0
;   firstLayerHeightPercentage,120
;   firstLayerWidthPercentage,150
;   firstLayerUnderspeed,0.4
;   useRaft,0
;   raftExtruder,0
;   raftTopLayers,3
;   raftBaseLayers,2
;   raftOffset,3
;   raftSeparationDistance,0.14
;   raftTopInfill,100
;   aboveRaftSpeedMultiplier,0.3
;   useSkirt,1
;   skirtExtruder,0
;   skirtLayers,2
;   skirtOutlines,2
;   skirtOffset,4
;   usePrimePillar,0
;   primePillarExtruder,999
;   primePillarWidth,12
;   primePillarLocation,7
;   primePillarSpeedMultiplier,1
;   useOozeShield,0
;   oozeShieldExtruder,999
;   oozeShieldOffset,2
;   oozeShieldOutlines,1
;   oozeShieldSidewallShape,1
;   oozeShieldSidewallAngle,30
;   oozeShieldSpeedMultiplier,1
;   infillExtruder,0
;   internalInfillPattern,Rectilinear
;   externalInfillPattern,Rectilinear
;   infillPercentage,80
;   outlineOverlapPercentage,15
;   infillExtrusionWidthPercentage,100
;   minInfillLength,5
;   infillLayerInterval,1
;   internalInfillAngles,45,-45
;   overlapInternalInfillAngles,0
;   externalInfillAngles,45,-45
;   generateSupport,1
;   supportExtruder,0
;   supportInfillPercentage,40
;   supportExtraInflation,0
;   supportBaseLayers,0
;   denseSupportExtruder,0
;   denseSupportLayers,0
;   denseSupportInfillPercentage,70
;   supportLayerInterval,1
;   supportHorizontalPartOffset,0.3
;   supportUpperSeparationLayers,1
;   supportLowerSeparationLayers,1
;   supportType,0
;   supportGridSpacing,4
;   maxOverhangAngle,45
;   supportAngles,0
;   temperatureName,Primary Extruder,Heated Bed
;   temperatureNumber,0,0
;   temperatureSetpointCount,1,1
;   temperatureSetpointLayers,1,1
;   temperatureSetpointTemperatures,200,60
;   temperatureStabilizeAtStartup,1,1
;   temperatureHeatedBed,0,1
;   temperatureRelayBetweenLayers,0,0
;   temperatureRelayBetweenLoops,0,0
;   fanLayers,1,2,3
;   fanSpeeds,0,50,100
;   blipFanToFullPower,0
;   adjustSpeedForCooling,1
;   minSpeedLayerTime,15
;   minCoolingSpeedSlowdown,20
;   increaseFanForCooling,0
;   minFanLayerTime,45
;   maxCoolingFanSpeed,100
;   increaseFanForBridging,0
;   bridgingFanSpeed,100
;   use5D,1
;   relativeEdistances,0
;   allowEaxisZeroing,1
;   independentExtruderAxes,0
;   includeM10123,0
;   stickySupport,1
;   applyToolheadOffsets,0
;   gcodeXoffset,0
;   gcodeYoffset,0
;   gcodeZoffset,0
;   overrideMachineDefinition,1
;   machineTypeOverride,0
;   strokeXoverride,300
;   strokeYoverride,300
;   strokeZoverride,400
;   originOffsetXoverride,0
;   originOffsetYoverride,0
;   originOffsetZoverride,0
;   homeXdirOverride,-1
;   homeYdirOverride,-1
;   homeZdirOverride,-1
;   flipXoverride,1
;   flipYoverride,-1
;   flipZoverride,1
;   toolheadOffsets,0,0|0,0|0,0|0,0|0,0|0,0
;   overrideFirmwareConfiguration,1
;   firmwareTypeOverride,RepRap (Marlin/Repetier/Sprinter)
;   GPXconfigOverride,r2
;   baudRateOverride,250000
;   overridePrinterModels,1
;   printerModelsOverride
;   startingGcode,G28 ; home all axes,G29 ; Auto Bed Leveling,G1 Z0.2 F3000 ; get ready to prime,G92 E0 ; reset extrusion distance,G1 X160 E15 F600 ; prime nozzle,G1 X180 F5000 ; quick wipe
;   layerChangeGcode,
;   retractionGcode,
;   toolChangeGcode,
;   endingGcode,G28 X0 ; home x axis,G1 Y295 F3000 ; bring the bed forward,M106 S0 ; turn off cooling fan,M104 S0 ; turn off extruder,M140 S0 ; turn off bed,M84 ; disable motors
;   exportFileFormat,gcode
;   celebration,0
;   celebrationSong,Random Song
;   postProcessing,
;   defaultSpeed,3000
;   outlineUnderspeed,0.5
;   solidInfillUnderspeed,0.8
;   supportUnderspeed,0.8
;   rapidXYspeed,4800
;   rapidZspeed,1002
;   minBridgingArea,50
;   bridgingExtraInflation,0
;   bridgingExtrusionMultiplier,1
;   bridgingSpeedMultiplier,1
;   useFixedBridgingAngle,0
;   fixedBridgingAngle,0
;   applyBridgingToPerimeters,0
;   filamentDiameters,1.75|1.75|1.75|1.75|1.75|1.75
;   filamentPricesPerKg,46|46|46|46|46|46
;   filamentDensities,1.25|1.25|1.25|1.25|1.25|1.25
;   useMinPrintHeight,0
;   minPrintHeight,0
;   useMaxPrintHeight,0
;   maxPrintHeight,0
;   useDiaphragm,0
;   diaphragmLayerInterval,20
;   robustSlicing,1
;   mergeAllIntoSolid,0
;   onlyRetractWhenCrossingOutline,1
;   retractBetweenLayers,1
;   useRetractionMinTravel,0
;   retractionMinTravel,3
;   retractWhileWiping,0
;   onlyWipeOutlines,1
;   avoidCrossingOutline,0
;   maxMovementDetourFactor,3
;   toolChangeRetractionDistance,12
;   toolChangeExtraRestartDistance,-0.5
;   toolChangeRetractionSpeed,600
;   externalThinWallType,0
;   internalThinWallType,2
;   thinWallAllowedOverlapPercentage,10
;   singleExtrusionMinLength,1
;   singleExtrusionMinPrintingWidthPercentage,50
;   singleExtrusionMaxPrintingWidthPercentage,200
;   singleExtrusionEndpointExtension,0.2
;   horizontalSizeCompensation,0
G90
M82
M106 S0
M140 S60
M190 S60
M104 S200 T0
M109 S200 T0
G28 ; home all axes
G29 ; Auto Bed Leveling
G1 Z0.2 F3000 ; get ready to prime
G92 E0 ; reset extrusion distance
G1 X160 E15 F600 ; prime nozzle
G1 X180 F5000 ; quick wipe
G92 E0
G1 E-5.0000 F1800
G1 Z0.240 F1002
; process Process1
; layer 1, Z = 0.240
T0
; tool H0.240 W0.720
; skirt
G1 X5.390 Y7.935 F4800
G1 E0.0000 F540
G92 E0
G1 X7.935 Y5.390 E0.2328 F1200
G1 X8.200 Y5.280 E0.2513
G1 X41.800 Y5.280 E2.4238
G1 X42.065 Y5.390 E2.4423
G1 X44.610 Y7.935 E2.6751
G1 X44.720 Y8.200 E2.6936
G1 X44.720 Y20.280 E3.4747
G1 X255.280 Y20.280 E17.0890
G1 X255.280 Y8.200 E17.8701
G1 X255.390 Y7.935 E17.8886
G1 X257.935 Y5.390 E18.1214
G1 X258.200 Y5.280 E18.1399
G1 X291.800 Y5.280 E20.3124
G1 X292.065 Y5.390 E20.3309
G1 X294.610 Y7.935 E20.5637
G1 X294.720 Y8.200 E20.5822
G1 X294.720 Y41.800 E22.7547
G1 X294.610 Y42.065 E22.7733
G1 X292.065 Y44.610 E23.0060
G1 X291.800 Y44.720 E23.0246
G1 X279.920 Y44.720 E23.7927
G1 X279.920 Y255.280 E37.4070
G1 X291.800 Y255.280 E38.1752
G1 X292.065 Y255.390 E38.1937
G1 X294.610 Y257.935 E38.4265
G1 X294.720 Y258.200 E38.4450
G1 X294.720 Y291.800 E40.6175
G1 X294.610 Y292.065 E40.6360
G1 X292.065 Y294.610 E40.8688
G1 X291.800 Y294.720 E40.8873
G1 X258.200 Y294.720 E43.0598
G1 X257.935 Y294.610 E43.0783
G1 X255.390 Y292.065 E43.3111
G1 X255.280 Y291.800 E43.3296
G1 X255.280 Y280.120 E44.0848
G1 X44.720 Y280.120 E57.6992
G1 X44.720 Y291.800 E58.4544
G1 X44.610 Y292.065 E58.4729
G1 X42.065 Y294.610 E58.7057
G1 X41.800 Y294.720 E58.7242
G1 X8.200 Y294.720 E60.8967
G1 X7.935 Y294.610 E60.9152
G1 X5.390 Y292.065 E61.1480
G1 X5.280 Y291.800 E61.1665
G1 X5.280 Y258.200 E63.3390
G1 X5.390 Y257.935 E63.3575
G1 X7.935 Y255.390 E63.5903
G1 X8.200 Y255.280 E63.6088
G1 X19.880 Y255.280 E64.3640
G1 X19.880 Y44.720 E77.9784
G1 X8.200 Y44.720 E78.7336
G1 X7.935 Y44.610 E78.7521
G1 X5.390 Y42.065 E78.9849
G1 X5.280 Y41.800 E79.0034
G1 X5.280 Y8.200 E81.1759
G1 X5.390 Y7.935 E81.1944
G1 X5.797 Y8.207 F4800
G92 E0
G1 X8.207 Y5.797 E0.2204 F1200
G1 X8.295 Y5.760 E0.2266
G1 X41.705 Y5.760 E2.3868
G1 X41.793 Y5.797 E2.3929
G1 X44.203 Y8.207 E2.6134
G1 X44.240 Y8.295 E2.6195
G1 X44.240 Y20.760 E3.4255
G1 X255.760 Y20.760 E17.1019
G1 X255.760 Y8.295 E17.9078
G1 X255.797 Y8.207 E17.9140
G1 X258.207 Y5.797 E18.1344
G1 X258.295 Y5.760 E18.1406
G1 X291.705 Y5.760 E20.3007
G1 X291.793 Y5.797 E20.3069
G1 X294.203 Y8.207 E20.5273
G1 X294.240 Y8.295 E20.5335
G1 X294.240 Y41.705 E22.6937
G1 X294.203 Y41.793 E22.6999
G1 X291.793 Y44.203 E22.9203
G1 X291.705 Y44.240 E22.9265
G1 X279.440 Y44.240 E23.7195
G1 X279.440 Y255.760 E37.3959
G1 X291.705 Y255.760 E38.1889
G1 X291.793 Y255.797 E38.1950
G1 X294.203 Y258.207 E38.4155
G1 X294.240 Y258.295 E38.4216
G1 X294.240 Y291.705 E40.5818
G1 X294.203 Y291.793 E40.5880
G1 X291.793 Y294.203 E40.8084
G1 X291.705 Y294.240 E40.8146
G1 X258.295 Y294.240 E42.9747
G1 X258.207 Y294.203 E42.9809
G1 X255.797 Y291.793 E43.2013
G1 X255.760 Y291.705 E43.2075
G1 X255.760 Y279.640 E43.9876
G1 X44.240 Y279.640 E57.6640
G1 X44.240 Y291.705 E58.4440
G1 X44.203 Y291.793 E58.4502
G1 X41.793 Y294.203 E58.6706
G1 X41.705 Y294.240 E58.6768
G1 X8.295 Y294.240 E60.8370
G1 X8.207 Y294.203 E60.8432
G1 X5.797 Y291.793 E61.0636
G1 X5.760 Y291.705 E61.0698
G1 X5.760 Y258.295 E63.2299
G1 X5.797 Y258.207 E63.2361
G1 X8.207 Y255.797 E63.4565
G1 X8.295 Y255.760 E63.4627
G1 X20.360 Y255.760 E64.2428
G1 X20.360 Y44.240 E77.9192
G1 X8.295 Y44.240 E78.6992
G1 X8.207 Y44.203 E78.7054
G1 X5.797 Y41.793 E78.9258
G1 X5.760 Y41.705 E78.9320
G1 X5.760 Y8.295 E81.0922
G1 X5.797 Y8.207 E81.0983
G92 E0
G1 E-5.0000 F1800
; inner perimeter
G1 X11.080 Y11.080 F4800
G1 E0.0000 F1800
G92 E0
G1 X38.920 Y11.080 E1.8001 F900
G1 X38.920 Y38.920 E3.6001
G1 X11.080 Y38.920 E5.4002
G1 X11.080 Y11.080 E7.2003
G92 E0
G1 E-5.0000 F1800
G1 X136.080 Y136.080 F4800
G1 E0.0000 F1800
G92 E0
G1 X163.920 Y136.080 E1.8001 F900
G1 X163.920 Y163.920 E3.6001
G1 X136.080 Y163.920 E5.4002
G1 X136.080 Y136.080 E7.2003
G92 E0
G1 E-5.0000 F1800
G1 X38.920 Y261.080 F4800
G1 E0.0000 F1800
G92 E0
G1 X38.920 Y288.920 E1.8001 F900
G1 X11.080 Y288.920 E3.6001
G1 X11.080 Y261.080 E5.4002
G1 X38.920 Y261.080 E7.2003
G92 E0
G1 E-5.0000 F1800
G1 X261.080 Y261.080 F4800
G1 E0.0000 F1800
G92 E0
G1 X288.920 Y261.080 E1.8001 F900
G1 X288.920 Y288.920 E3.6001
G1 X261.080 Y288.920 E5.4002
G1 X261.080 Y261.080 E7.2003
G92 E0
G1 E-5.0000 F1800
G1 X261.080 Y38.920 F4800
G1 E0.0000 F1800
G92 E0
G1 X261.080 Y11.080 E1.8001 F900
G1 X288.920 Y11.080 E3.6001
G1 X288.920 Y38.920 E5.4002
G1 X261.080 Y38.920 E7.2003
; outer perimeter
G1 X260.360 Y39.640 F4800
G92 E0
G1 X260.360 Y10.360 E1.8932 F600
G1 X289.640 Y10.360 E3.7864
G1 X289.640 Y39.640 E5.6795
G1 X260.360 Y39.640 E7.5727
G92 E0
G1 E-5.0000 F1800
G1 X164.640 Y135.360 F4800
G1 E0.0000 F1800
G92 E0
G1 X164.640 Y164.640 E1.8932 F600
G1 X135.360 Y164.640 E3.7864
G1 X135.360 Y135.360 E5.6795
G1 X164.640 Y135.360 E7.5727
G92 E0
G1 E-5.0000 F1800
G1 X39.640 Y39.640 F4800
G1 E0.0000 F1800
G92 E0
G1 X10.360 Y39.640 E1.8932 F600
G1 X10.360 Y10.360 E3.7864
G1 X39.640 Y10.360 E5.6795
G1 X39.640 Y39.640 E7.5727
G92 E0
G1 E-5.0000 F1800
G1 X39.640 Y260.360 F4800
G1 E0.0000 F1800
G92 E0
G1 X39.640 Y289.640 E1.8932 F600
G1 X10.360 Y289.640 E3.7864
G1 X10.360 Y260.360 E5.6795
G1 X39.640 Y260.360 E7.5727
G92 E0
G1 E-5.0000 F1800
G1 X260.360 Y260.360 F4800
G1 E0.0000 F1800
G92 E0
G1 X289.640 Y260.360 E1.8932 F600
G1 X289.640 Y289.640 E3.7864
G1 X260.360 Y289.640 E5.6795
G1 X260.360 Y260.360 E7.5727
; solid layer
G1 X288.166 Y261.692 F4800
G92 E0
G1 X288.308 Y261.834 E0.0130 F960
G1 X288.308 Y262.852 E0.0788
G1 X287.148 Y261.692 E0.1849
G1 X286.130 Y261.692 E0.2507
G1 X288.308 Y263.870 E0.4499
G1 X288.308 Y264.889 E0.5158
G1 X285.111 Y261.692 E0.8081
G1 X284.093 Y261.692 E0.8739
G1 X288.308 Y265.907 E1.2593
G1 X288.308 Y266.925 E1.3251
G1 X283.075 Y261.692 E1.8036
G1 X282.057 Y261.692 E1.8695
G1 X288.308 Y267.943 E2.4411
G1 X288.308 Y268.962 E2.5069
G1 X281.038 Y261.692 E3.1717
G1 X280.020 Y261.692 E3.2375
G1 X288.308 Y269.980 E3.9953
G1 X288.308 Y270.998 E4.0612
G1 X279.002 Y261.692 E4.9121
G1 X277.984 Y261.692 E4.9779
G1 X288.308 Y272.016 E5.9220
G1 X288.308 Y273.034 E5.9878
G1 X276.966 Y261.692 E7.0250
G1 X275.947 Y261.692 E7.0908
G1 X288.308 Y274.053 E8.2211
G1 X288.308 Y275.071 E8.2869
G1 X274.929 Y261.692 E9.5103
G1 X273.911 Y261.692 E9.5761
G1 X288.308 Y276.089 E10.8926
G1 X288.308 Y277.107 E10.9584
G1 X272.893 Y261.692 E12.3680
G1 X271.874 Y261.692 E12.4339
G1 X288.308 Y278.126 E13.9365
G1 X288.308 Y279.144 E14.0024
G1 X270.856 Y261.692 E15.5982
G1 X269.838 Y261.692 E15.6640
G1 X288.308 Y280.162 E17.3529
G1 X288.308 Y281.180 E17.4188
G1 X268.820 Y261.692 E19.2008
G1 X267.801 Y261.692 E19.2666
G1 X288.308 Y282.199 E21.1417
G1 X288.308 Y283.217 E21.2076
G1 X266.783 Y261.692 E23.1758
G1 X265.765 Y261.692 E23.2416
G1 X288.308 Y284.235 E25.3030
G1 X288.308 Y285.253 E25.3688
G1 X264.747 Y261.692 E27.5232
G1 X263.728 Y261.692 E27.5891
G1 X288.308 Y286.272 E29.8366
G1 X288.308 Y287.290 E29.9024
G1 X262.710 Y261.692 E32.2431
G1 X261.692 Y261.692 E32.3089
G1 X288.308 Y288.308 E34.7427
G1 X287.290 Y288.308 E34.8085
G1 X261.692 Y262.710 E37.1492
G1 X261.692 Y263.728 E37.2150
G1 X286.272 Y288.308 E39.4626
G1 X285.253 Y288.308 E39.5284
G1 X261.692 Y264.747 E41.6829
G1 X261.692 Y265.765 E41.7487
G1 X284.235 Y288.308 E43.8100
G1 X283.217 Y288.308 E43.8759
G1 X261.692 Y266.783 E45.8441
G1 X261.692 Y267.801 E45.9099
G1 X282.199 Y288.308 E47.7850
G1 X281.180 Y288.308 E47.8509
G1 X261.692 Y268.820 E49.6329
G1 X261.692 Y269.838 E49.6987
G1 X280.162 Y288.308 E51.3876
G1 X279.144 Y288.308 E51.4535
G1 X261.692 Y270.856 E53.0493
G1 X261.692 Y271.874 E53.1151
G1 X278.126 Y288.308 E54.6178
G1 X277.107 Y288.308 E54.6836
G1 X261.692 Y272.893 E56.0932
G1 X261.692 Y273.911 E56.1591
G1 X276.089 Y288.308 E57.4755
G1 X275.071 Y288.308 E57.5414
G1 X261.692 Y274.929 E58.7647
G1 X261.692 Y275.947 E58.8306
G1 X274.053 Y288.308 E59.9608
G1 X273.035 Y288.308 E60.0267
G1 X261.692 Y276.965 E61.0638
G1 X261.692 Y277.984 E61.1297
G1 X272.016 Y288.308 E62.0737
G1 X270.998 Y288.308 E62.1396
G1 X261.692 Y279.002 E62.9905
G1 X261.692 Y280.020 E63.0563
G1 X269.980 Y288.308 E63.8142
G1 X268.962 Y288.308 E63.8800
G1 X261.692 Y281.038 E64.5447
G1 X261.692 Y282.057 E64.6106
G1 X267.943 Y288.308 E65.1822
G1 X266.925 Y288.308 E65.2480
G1 X261.692 Y283.075 E65.7266
G1 X261.692 Y284.093 E65.7924
G1 X265.907 Y288.308 E66.1778
G1 X264.889 Y288.308 E66.2436
G1 X261.692 Y285.111 E66.5359
G1 X261.692 Y286.130 E66.6018
G1 X263.870 Y288.308 E66.8010
G1 X262.852 Y288.308 E66.8668
G1 X261.692 Y287.148 E66.9729
G1 X261.692 Y288.166 E67.0387
G1 X261.834 Y288.308 E67.0517
G92 E0
G1 E-5.0000 F1800
G1 X136.834 Y163.308 F4800
G1 E0.0000 F1800
G92 E0
G1 X136.692 Y163.166 E0.0130 F960
G1 X136.692 Y162.148 E0.0788
G1 X137.852 Y163.308 E0.1849
G1 X138.870 Y163.308 E0.2507
G1 X136.692 Y161.130 E0.4499
G1 X136.692 Y160.111 E0.5158
G1 X139.889 Y163.308 E0.8081
G1 X140.907 Y163.308 E0.8739
G1 X136.692 Y159.093 E1.2593
G1 X136.692 Y158.075 E1.3251
G1 X141.925 Y163.308 E1.8037
G1 X142.943 Y163.308 E1.8695
G1 X136.692 Y157.057 E2.4411
G1 X136.692 Y156.038 E2.5070
G1 X143.962 Y163.308 E3.1717
G1 X144.980 Y163.308 E3.2375
G1 X136.692 Y155.020 E3.9954
G1 X136.692 Y154.002 E4.0612
G1 X145.998 Y163.308 E4.9121
G1 X147.016 Y163.308 E4.9780
G1 X136.692 Y152.984 E5.9220
G1 X136.692 Y151.965 E5.9879
G1 X148.035 Y163.308 E7.0250
G1 X149.053 Y163.308 E7.0908
G1 X136.692 Y150.947 E8.2211
G1 X136.692 Y149.929 E8.2869
G1 X150.071 Y163.308 E9.5103
G1 X151.089 Y163.308 E9.5762
G1 X136.692 Y148.911 E10.8926
G1 X136.692 Y147.893 E10.9585
G1 X152.107 Y163.308 E12.3681
G1 X153.126 Y163.308 E12.4339
G1 X136.692 Y146.874 E13.9366
G1 X136.692 Y145.856 E14.0024
G1 X154.144 Y163.308 E15.5982
G1 X155.162 Y163.308 E15.6641
G1 X136.692 Y144.838 E17.3530
G1 X136.692 Y143.820 E17.4188
G1 X156.180 Y163.308 E19.2008
G1 X157.199 Y163.308 E19.2666
G1 X136.692 Y142.801 E21.1418
G1 X136.692 Y141.783 E21.2076
G1 X158.217 Y163.308 E23.1758
G1 X159.235 Y163.308 E23.2417
G1 X136.692 Y140.765 E25.3030
G1 X136.692 Y139.747 E25.3688
G1 X160.253 Y163.308 E27.5233
G1 X161.272 Y163.308 E27.5891
G1 X136.692 Y138.728 E29.8367
