; G-Code generated by Simplify3D(R) Version 4.0.1
; May 3, 2018 at 7:17:43 PM
; Settings Summary
;   processName,Process1
;   applyToModels,#3DBenchy
;   profileName,TEVO Tornado medium Standard
;   profileVersion,2018-04-30 19:41:39
;   baseProfile,TEVO Tornado (modified)
;   printMaterial,PLA
;   printQuality,Medium
;   printExtruders,
;   extruderName,Primary Extruder
;   extruderToolheadNumber,0
;   extruderDiameter,0.4
;   extruderAutoWidth,0
;   extruderWidth,0.4
;   extrusionMultiplier,0.9
;   extruderUseRetract,1
;   extruderRetractionDistance,5
;   extruderExtraRestartDistance,0
;   extruderRetractionZLift,0
;   extruderRetractionSpeed,1800
;   extruderUseCoasting,0
;   extruderCoastingDistance,0.2
;   extruderUseWipe,0
;   extruderWipeDistance,5
;   primaryExtruder,0
;   layerHeight,0.2
;   topSolidLayers,4
;   bottomSolidLayers,4
;   perimeterOutlines,2
;   printPerimetersInsideOut,1
;   startPointOption,2
;   startPointOriginX,0
;   startPointOriginY,0
;   sequentialIslands,0
;   spiralVaseMode,0
;   firstLayerHeightPercentage,120
;   firstLayerWidthPercentage,150
;   firstLayerUnderspeed,0.4
;   useRaft,0
;   raftExtruder,0
;   raftTopLayers,3
;   raftBaseLayers,2
;   raftOffset,3
;   raftSeparationDistance,0.14
;   raftTopInfill,100
;   aboveRaftSpeedMultiplier,0.3
;   useSkirt,1
;   skirtExtruder,0
;   skirtLayers,1
;   skirtOutlines,2
;   skirtOffset,4
;   usePrimePillar,0
;   primePillarExtruder,999
;   primePillarWidth,12
;   primePillarLocation,7
;   primePillarSpeedMultiplier,1
;   useOozeShield,0
;   oozeShieldExtruder,999
;   oozeShieldOffset,2
;   oozeShieldOutlines,1
;   oozeShieldSidewallShape,1
;   oozeShieldSidewallAngle,30
;   oozeShieldSpeedMultiplier,1
;   infillExtruder,0
;   internalInfillPattern,Rectilinear
;   externalInfillPattern,Rectilinear
;   infillPercentage,20
;   outlineOverlapPercentage,15
;   infillExtrusionWidthPercentage,100
;   minInfillLength,5
;   infillLayerInterval,1
;   internalInfillAngles,45,-45
;   overlapInternalInfillAngles,0
;   externalInfillAngles,45,-45
;   generateSupport,0
;   supportExtruder,0
;   supportInfillPercentage,30
;   supportExtraInflation,0
;   supportBaseLayers,0
;   denseSupportExtruder,0
;   denseSupportLayers,0
;   denseSupportInfillPercentage,70
;   supportLayerInterval,1
;   supportHorizontalPartOffset,0.3
;   supportUpperSeparationLayers,1
;   supportLowerSeparationLayers,1
;   supportType,0
;   supportGridSpacing,4
;   maxOverhangAngle,45
;   supportAngles,0
;   temperatureName,Primary Extruder,Heated Bed
;   temperatureNumber,0,0
;   temperatureSetpointCount,1,1
;   temperatureSetpointLayers,1,1
;   temperatureSetpointTemperatures,205,65
;   temperatureStabilizeAtStartup,1,1
;   temperatureHeatedBed,0,1
;   temperatureRelayBetweenLayers,0,0
;   temperatureRelayBetweenLoops,0,0
;   fanLayers,1,2,3
;   fanSpeeds,0,50,100
;   blipFanToFullPower,0
;   adjustSpeedForCooling,1
;   minSpeedLayerTime,15
;   minCoolingSpeedSlowdown,20
;   increaseFanForCooling,0
;   minFanLayerTime,45
;   maxCoolingFanSpeed,100
;   increaseFanForBridging,0
;   bridgingFanSpeed,100
;   use5D,1
;   relativeEdistances,0
;   allowEaxisZeroing,1
;   independentExtruderAxes,0
;   includeM10123,0
;   stickySupport,1
;   applyToolheadOffsets,0
;   gcodeXoffset,0
;   gcodeYoffset,0
;   gcodeZoffset,0
;   overrideMachineDefinition,1
;   machineTypeOverride,0
;   strokeXoverride,300
;   strokeYoverride,300
;   strokeZoverride,400
;   originOffsetXoverride,0
;   originOffsetYoverride,0
;   originOffsetZoverride,0
;   homeXdirOverride,-1
;   homeYdirOverride,-1
;   homeZdirOverride,-1
;   flipXoverride,1
;   flipYoverride,-1
;   flipZoverride,1
;   toolheadOffsets,0,0|0,0|0,0|0,0|0,0|0,0
;   overrideFirmwareConfiguration,1
;   firmwareTypeOverride,RepRap (Marlin/Repetier/Sprinter)
;   GPXconfigOverride,r2
;   baudRateOverride,250000
;   overridePrinterModels,1
;   printerModelsOverride
;   startingGcode,G28 ; home all axes,G29 ; Auto Bed Leveling,G1 Z0.2 F3000 ; get ready to prime,G92 E0 ; reset extrusion distance,G1 X160 E15 F600 ; prime nozzle,G1 X180 F5000 ; quick wipe
;   layerChangeGcode,
;   retractionGcode,
;   toolChangeGcode,
;   endingGcode,G28 X0 ; home x axis,G1 Y295 F3000 ; bring the bed forward,M106 S0 ; turn off cooling fan,M104 S0 ; turn off extruder,M140 S0 ; turn off bed,M84 ; disable motors
;   exportFileFormat,gcode
;   celebration,0
;   celebrationSong,Random Song
;   postProcessing,
;   defaultSpeed,3000
;   outlineUnderspeed,0.5
;   solidInfillUnderspeed,0.8
;   supportUnderspeed,0.8
;   rapidXYspeed,4800
;   rapidZspeed,1002
;   minBridgingArea,50
;   bridgingExtraInflation,0
;   bridgingExtrusionMultiplier,1
;   bridgingSpeedMultiplier,1
;   useFixedBridgingAngle,0
;   fixedBridgingAngle,0
;   applyBridgingToPerimeters,0
;   filamentDiameters,1.75|1.75|1.75|1.75|1.75|1.75
;   filamentPricesPerKg,46|46|46|46|46|46
;   filamentDensities,1.25|1.25|1.25|1.25|1.25|1.25
;   useMinPrintHeight,0
;   minPrintHeight,0
;   useMaxPrintHeight,0
;   maxPrintHeight,0
;   useDiaphragm,0
;   diaphragmLayerInterval,20
;   robustSlicing,1
;   mergeAllIntoSolid,0
;   onlyRetractWhenCrossingOutline,1
;   retractBetweenLayers,1
;   useRetractionMinTravel,0
;   retractionMinTravel,3
;   retractWhileWiping,0
;   onlyWipeOutlines,1
;   avoidCrossingOutline,0
;   maxMovementDetourFactor,3
;   toolChangeRetractionDistance,12
;   toolChangeExtraRestartDistance,-0.5
;   toolChangeRetractionSpeed,600
;   externalThinWallType,0
;   internalThinWallType,2
;   thinWallAllowedOverlapPercentage,10
;   singleExtrusionMinLength,1
;   singleExtrusionMinPrintingWidthPercentage,50
;   singleExtrusionMaxPrintingWidthPercentage,200
;   singleExtrusionEndpointExtension,0.2
;   horizontalSizeCompensation,0
G90
M82
M106 S0
M140 S65
M190 S65
M104 S205 T0
M109 S205 T0
G28 ; home all axes
G29 ; Auto Bed Leveling
G1 Z0.2 F3000 ; get ready to prime
G92 E0 ; reset extrusion distance
G1 X160 E15 F600 ; prime nozzle
G1 X180 F5000 ; quick wipe
G92 E0
G1 E-5.0000 F1800
G1 Z0.240 F1002
; process Process1
; layer 1, Z = 0.240
T0
; tool H0.240 W0.600
; skirt
G1 X121.619 Y140.344 F4800
G1 E0.0000 F540
G92 E0
G1 X122.028 Y140.004 E0.0287 F1200
G1 X122.058 Y139.982 E0.0307
G1 X122.758 Y139.534 E0.0755
G1 X122.785 Y139.518 E0.0771
G1 X123.183 Y139.318 E0.1011
G1 X123.211 Y139.306 E0.1028
G1 X123.935 Y139.031 E0.1445
G1 X123.960 Y139.023 E0.1459
G1 X124.317 Y138.922 E0.1659
G1 X124.342 Y138.916 E0.1673
G1 X124.907 Y138.807 E0.1983
G1 X124.926 Y138.804 E0.1993
G1 X125.202 Y138.769 E0.2143
G1 X125.221 Y138.767 E0.2154
G1 X149.251 Y137.303 E1.5126
G1 X149.259 Y137.303 E1.5130
G1 X149.372 Y137.299 E1.5190
G1 X149.379 Y137.299 E1.5195
G1 X150.415 Y137.290 E1.5753
G1 X150.423 Y137.290 E1.5757
G1 X150.543 Y137.292 E1.5822
G1 X150.551 Y137.293 E1.5826
G1 X151.438 Y137.334 E1.6304
G1 X151.449 Y137.335 E1.6310
G1 X151.609 Y137.349 E1.6397
G1 X151.620 Y137.350 E1.6403
G1 X153.216 Y137.546 E1.7269
G1 X153.228 Y137.547 E1.7276
G1 X153.391 Y137.574 E1.7365
G1 X153.402 Y137.576 E1.7371
G1 X154.365 Y137.770 E1.7900
G1 X154.373 Y137.771 E1.7905
G1 X154.489 Y137.798 E1.7968
G1 X154.497 Y137.800 E1.7973
G1 X155.407 Y138.036 E1.8480
G1 X155.415 Y138.038 E1.8484
G1 X155.529 Y138.071 E1.8548
G1 X155.537 Y138.073 E1.8552
G1 X156.451 Y138.365 E1.9070
G1 X156.459 Y138.368 E1.9074
G1 X156.577 Y138.410 E1.9141
G1 X156.585 Y138.413 E1.9146
G1 X157.528 Y138.775 E1.9691
G1 X157.536 Y138.778 E1.9695
G1 X157.650 Y138.826 E1.9762
G1 X157.658 Y138.829 E1.9766
G1 X158.508 Y139.213 E2.0269
G1 X158.516 Y139.217 E2.0273
G1 X158.625 Y139.270 E2.0339
G1 X158.632 Y139.273 E2.0343
G1 X159.506 Y139.729 E2.0874
G1 X159.515 Y139.734 E2.0880
G1 X159.633 Y139.800 E2.0952
G1 X159.641 Y139.805 E2.0957
G1 X160.620 Y140.396 E2.1574
G1 X160.627 Y140.401 E2.1578
G1 X160.731 Y140.468 E2.1645
G1 X160.738 Y140.472 E2.1650
G1 X161.443 Y140.956 E2.2110
G1 X161.450 Y140.960 E2.2114
G1 X161.540 Y141.026 E2.2175
G1 X161.547 Y141.031 E2.2179
G1 X162.287 Y141.597 E2.2681
G1 X162.294 Y141.602 E2.2686
G1 X162.392 Y141.683 E2.2754
G1 X162.399 Y141.688 E2.2759
G1 X163.197 Y142.377 E2.3327
G1 X163.205 Y142.384 E2.3333
G1 X163.311 Y142.482 E2.3411
G1 X163.318 Y142.489 E2.3416
G1 X164.188 Y143.349 E2.4075
G1 X164.195 Y143.356 E2.4081
G1 X164.292 Y143.458 E2.4157
G1 X164.299 Y143.466 E2.4162
G1 X164.993 Y144.248 E2.4725
G1 X165.000 Y144.256 E2.4731
G1 X165.092 Y144.367 E2.4809
G1 X165.099 Y144.375 E2.4814
G1 X165.866 Y145.367 E2.5490
G1 X165.872 Y145.376 E2.5496
G1 X165.957 Y145.493 E2.5574
G1 X165.963 Y145.502 E2.5579
G1 X166.537 Y146.358 E2.6135
G1 X166.542 Y146.365 E2.6140
G1 X166.611 Y146.476 E2.6210
G1 X166.615 Y146.483 E2.6215
G1 X167.117 Y147.340 E2.6749
G1 X167.134 Y147.373 E2.6770
G1 X167.347 Y147.868 E2.7060
G1 X167.359 Y147.903 E2.7080
G1 X167.648 Y148.906 E2.7642
G1 X167.657 Y148.952 E2.7668
G1 X167.741 Y149.615 E2.8028
G1 X167.743 Y149.662 E2.8053
G1 X167.714 Y150.606 E2.8562
G1 X167.711 Y150.640 E2.8580
G1 X167.640 Y151.130 E2.8847
G1 X167.633 Y151.164 E2.8866
G1 X167.465 Y151.793 E2.9217
G1 X167.458 Y151.817 E2.9230
G1 X167.338 Y152.152 E2.9422
G1 X167.329 Y152.175 E2.9435
G1 X167.098 Y152.685 E2.9737
G1 X167.089 Y152.702 E2.9747
G1 X166.962 Y152.942 E2.9893
G1 X166.952 Y152.958 E2.9904
G1 X166.381 Y153.886 E3.0491
G1 X166.375 Y153.895 E3.0497
G1 X166.286 Y154.028 E3.0582
G1 X166.280 Y154.037 E3.0588
G1 X165.417 Y155.229 E3.1381
G1 X165.410 Y155.238 E3.1388
G1 X165.307 Y155.371 E3.1478
G1 X165.299 Y155.380 E3.1484
G1 X164.554 Y156.256 E3.2104
G1 X164.548 Y156.264 E3.2110
G1 X164.451 Y156.370 E3.2187
G1 X164.444 Y156.378 E3.2193
G1 X163.637 Y157.208 E3.2816
G1 X163.630 Y157.215 E3.2822
G1 X163.528 Y157.313 E3.2898
G1 X163.521 Y157.320 E3.2904
G1 X162.680 Y158.078 E3.3514
G1 X162.672 Y158.084 E3.3519
G1 X162.561 Y158.178 E3.3597
G1 X162.553 Y158.184 E3.3603
G1 X161.665 Y158.882 E3.4211
G1 X161.657 Y158.888 E3.4216
G1 X161.549 Y158.967 E3.4289
G1 X161.542 Y158.973 E3.4294
G1 X160.709 Y159.547 E3.4838
G1 X160.701 Y159.552 E3.4844
G1 X160.579 Y159.631 E3.4922
G1 X160.570 Y159.636 E3.4928
G1 X159.475 Y160.287 E3.5614
G1 X159.466 Y160.292 E3.5619
G1 X159.347 Y160.358 E3.5693
G1 X159.339 Y160.362 E3.5698
G1 X158.515 Y160.783 E3.6197
G1 X158.506 Y160.787 E3.6201
G1 X158.388 Y160.844 E3.6272
G1 X158.379 Y160.847 E3.6277
G1 X157.320 Y161.310 E3.6900
G1 X157.310 Y161.314 E3.6906
G1 X157.163 Y161.372 E3.6991
G1 X157.153 Y161.376 E3.6997
G1 X155.904 Y161.815 E3.7710
G1 X155.894 Y161.818 E3.7716
G1 X155.757 Y161.862 E3.7793
G1 X155.747 Y161.864 E3.7799
G1 X154.834 Y162.118 E3.8309
G1 X154.826 Y162.120 E3.8314
G1 X154.711 Y162.149 E3.8378
G1 X154.703 Y162.151 E3.8382
G1 X153.773 Y162.355 E3.8895
G1 X153.765 Y162.356 E3.8899
G1 X153.653 Y162.378 E3.8961
G1 X153.645 Y162.379 E3.8965
G1 X152.751 Y162.526 E3.9454
G1 X152.741 Y162.528 E3.9459
G1 X152.602 Y162.546 E3.9534
G1 X152.592 Y162.547 E3.9540
G1 X151.302 Y162.673 E4.0238
G1 X151.291 Y162.674 E4.0244
G1 X151.139 Y162.684 E4.0327
G1 X151.128 Y162.684 E4.0332
G1 X150.021 Y162.713 E4.0929
G1 X150.012 Y162.713 E4.0934
G1 X149.892 Y162.713 E4.0999
G1 X149.883 Y162.713 E4.1003
G1 X149.111 Y162.690 E4.1419
G1 X149.106 Y162.690 E4.1422
G1 X149.040 Y162.687 E4.1458
G1 X149.035 Y162.686 E4.1460
G1 X125.183 Y161.230 E5.4336
G1 X125.159 Y161.228 E5.4349
G1 X124.810 Y161.178 E5.4539
G1 X124.786 Y161.173 E5.4552
G1 X123.980 Y160.989 E5.4998
G1 X123.943 Y160.978 E5.5019
G1 X123.429 Y160.789 E5.5313
G1 X123.395 Y160.774 E5.5334
G1 X122.462 Y160.290 E5.5900
G1 X122.429 Y160.270 E5.5921
G1 X121.981 Y159.960 E5.6214
G1 X121.951 Y159.936 E5.6235
G1 X121.327 Y159.375 E5.6687
G1 X121.304 Y159.353 E5.6704
G1 X121.002 Y159.017 E5.6948
G1 X120.982 Y158.993 E5.6965
G1 X120.490 Y158.316 E5.7415
G1 X120.470 Y158.285 E5.7435
G1 X120.215 Y157.825 E5.7719
G1 X120.199 Y157.792 E5.7738
G1 X119.816 Y156.844 E5.8290
G1 X119.804 Y156.808 E5.8310
G1 X119.666 Y156.288 E5.8600
G1 X119.658 Y156.251 E5.8620
G1 X119.542 Y155.392 E5.9087
G1 X119.540 Y155.372 E5.9098
G1 X119.521 Y155.083 E5.9254
G1 X119.520 Y155.063 E5.9265
G1 X119.519 Y145.021 E6.4676
G1 X119.519 Y145.010 E6.4681
G1 X119.525 Y144.856 E6.4764
G1 X119.525 Y144.845 E6.4770
G1 X119.558 Y144.385 E6.5019
G1 X119.561 Y144.363 E6.5031
G1 X119.607 Y144.047 E6.5203
G1 X119.611 Y144.025 E6.5215
G1 X119.784 Y143.253 E6.5641
G1 X119.794 Y143.218 E6.5661
G1 X119.969 Y142.726 E6.5942
G1 X119.983 Y142.692 E6.5962
G1 X120.471 Y141.715 E6.6551
G1 X120.493 Y141.677 E6.6574
G1 X120.851 Y141.163 E6.6912
G1 X120.879 Y141.129 E6.6936
G1 X121.592 Y140.370 E6.7497
G1 X121.619 Y140.344 E6.7517
G1 X121.884 Y140.644 F4800
G92 E0
G1 X122.274 Y140.320 E0.0273 F1200
G1 X122.284 Y140.312 E0.0280
G1 X122.965 Y139.876 E0.0716
G1 X122.974 Y139.871 E0.0721
G1 X123.353 Y139.680 E0.0950
G1 X123.363 Y139.676 E0.0956
G1 X124.069 Y139.408 E0.1363
G1 X124.077 Y139.405 E0.1367
G1 X124.418 Y139.309 E0.1558
G1 X124.426 Y139.307 E0.1563
G1 X124.976 Y139.201 E0.1864
G1 X124.982 Y139.200 E0.1868
G1 X125.245 Y139.167 E0.2011
G1 X125.252 Y139.166 E0.2014
G1 X149.273 Y137.703 E1.4981
G1 X149.276 Y137.703 E1.4983
G1 X149.383 Y137.699 E1.5040
G1 X149.385 Y137.699 E1.5042
G1 X150.416 Y137.690 E1.5597
G1 X150.418 Y137.690 E1.5598
G1 X150.532 Y137.692 E1.5660
G1 X150.535 Y137.692 E1.5661
G1 X151.415 Y137.734 E1.6136
G1 X151.419 Y137.734 E1.6138
G1 X151.572 Y137.747 E1.6221
G1 X151.575 Y137.747 E1.6223
G1 X153.164 Y137.942 E1.7085
G1 X153.168 Y137.943 E1.7087
G1 X153.323 Y137.968 E1.7172
G1 X153.327 Y137.968 E1.7174
G1 X154.283 Y138.161 E1.7700
G1 X154.286 Y138.162 E1.7701
G1 X154.396 Y138.187 E1.7762
G1 X154.399 Y138.188 E1.7764
G1 X155.304 Y138.422 E1.8267
G1 X155.306 Y138.423 E1.8269
G1 X155.415 Y138.455 E1.8330
G1 X155.417 Y138.455 E1.8331
G1 X156.327 Y138.746 E1.8845
G1 X156.330 Y138.747 E1.8847
G1 X156.442 Y138.786 E1.8911
G1 X156.444 Y138.787 E1.8913
G1 X157.382 Y139.147 E1.9454
G1 X157.385 Y139.148 E1.9455
G1 X157.493 Y139.194 E1.9519
G1 X157.496 Y139.195 E1.9520
G1 X158.341 Y139.576 E2.0020
G1 X158.343 Y139.578 E2.0021
G1 X158.447 Y139.628 E2.0084
G1 X158.450 Y139.629 E2.0085
G1 X159.319 Y140.082 E2.0613
G1 X159.322 Y140.084 E2.0615
G1 X159.434 Y140.147 E2.0684
G1 X159.437 Y140.149 E2.0686
G1 X160.410 Y140.737 E2.1299
G1 X160.413 Y140.738 E2.1300
G1 X160.512 Y140.802 E2.1364
G1 X160.514 Y140.804 E2.1366
G1 X161.215 Y141.284 E2.1823
G1 X161.217 Y141.286 E2.1825
G1 X161.303 Y141.348 E2.1882
G1 X161.306 Y141.350 E2.1884
G1 X162.041 Y141.913 E2.2383
G1 X162.044 Y141.914 E2.2384
G1 X162.138 Y141.991 E2.2450
G1 X162.140 Y141.993 E2.2451
G1 X162.933 Y142.678 E2.3016
G1 X162.936 Y142.680 E2.3018
G1 X163.037 Y142.774 E2.3092
G1 X163.040 Y142.776 E2.3094
G1 X163.905 Y143.631 E2.3749
G1 X163.907 Y143.633 E2.3751
G1 X164.000 Y143.731 E2.3824
G1 X164.002 Y143.733 E2.3825
G1 X164.692 Y144.511 E2.4385
G1 X164.694 Y144.513 E2.4387
G1 X164.782 Y144.620 E2.4462
G1 X164.784 Y144.623 E2.4463
G1 X165.547 Y145.610 E2.5136
G1 X165.549 Y145.612 E2.5138
G1 X165.630 Y145.725 E2.5212
G1 X165.632 Y145.727 E2.5214
G1 X166.203 Y146.578 E2.5766
G1 X166.204 Y146.581 E2.5767
G1 X166.270 Y146.686 E2.5834
G1 X166.272 Y146.688 E2.5836
G1 X166.766 Y147.531 E2.6362
G1 X166.772 Y147.542 E2.6369
G1 X166.974 Y148.014 E2.6646
G1 X166.978 Y148.026 E2.6652
G1 X167.259 Y149.002 E2.7200
G1 X167.262 Y149.017 E2.7208
G1 X167.342 Y149.650 E2.7552
G1 X167.343 Y149.665 E2.7560
G1 X167.315 Y150.582 E2.8054
G1 X167.314 Y150.594 E2.8060
G1 X167.246 Y151.061 E2.8315
G1 X167.243 Y151.072 E2.8321
G1 X167.081 Y151.682 E2.8661
G1 X167.078 Y151.690 E2.8666
G1 X166.964 Y152.010 E2.8849
G1 X166.961 Y152.018 E2.8853
G1 X166.736 Y152.514 E2.9147
G1 X166.733 Y152.519 E2.9150
G1 X166.611 Y152.748 E2.9290
G1 X166.608 Y152.754 E2.9293
G1 X166.042 Y153.673 E2.9875
G1 X166.040 Y153.676 E2.9877
G1 X165.956 Y153.802 E2.9959
G1 X165.954 Y153.805 E2.9961
G1 X165.095 Y154.992 E3.0750
G1 X165.093 Y154.995 E3.0752
G1 X164.994 Y155.121 E3.0838
G1 X164.992 Y155.124 E3.0840
G1 X164.252 Y155.995 E3.1456
G1 X164.249 Y155.997 E3.1458
G1 X164.157 Y156.099 E3.1532
G1 X164.155 Y156.101 E3.1534
