; G-Code generated by Simplify3D(R) Version 4.0.1
; May 5, 2018 at 3:02:35 PM
; Settings Summary
;   processName,Process1
;   applyToModels,#3DBenchy
;   profileName,TEVO Tornado medium Standard (modified)
;   profileVersion,2018-04-30 19:41:39
;   baseProfile,TEVO Tornado (modified)
;   printMaterial,PLA
;   printQuality,Medium
;   printExtruders,
;   extruderName,Primary Extruder
;   extruderToolheadNumber,0
;   extruderDiameter,0.4
;   extruderAutoWidth,1
;   extruderWidth,0.48
;   extrusionMultiplier,0.9
;   extruderUseRetract,1
;   extruderRetractionDistance,5
;   extruderExtraRestartDistance,0
;   extruderRetractionZLift,0
;   extruderRetractionSpeed,1800
;   extruderUseCoasting,0
;   extruderCoastingDistance,0.2
;   extruderUseWipe,0
;   extruderWipeDistance,5
;   primaryExtruder,0
;   layerHeight,0.2
;   topSolidLayers,4
;   bottomSolidLayers,4
;   perimeterOutlines,2
;   printPerimetersInsideOut,1
;   startPointOption,2
;   startPointOriginX,0
;   startPointOriginY,0
;   sequentialIslands,0
;   spiralVaseMode,0
;   firstLayerHeightPercentage,120
;   firstLayerWidthPercentage,150
;   firstLayerUnderspeed,0.4
;   useRaft,0
;   raftExtruder,0
;   raftTopLayers,3
;   raftBaseLayers,2
;   raftOffset,3
;   raftSeparationDistance,0.14
;   raftTopInfill,100
;   aboveRaftSpeedMultiplier,0.3
;   useSkirt,1
;   skirtExtruder,0
;   skirtLayers,1
;   skirtOutlines,2
;   skirtOffset,4
;   usePrimePillar,0
;   primePillarExtruder,999
;   primePillarWidth,12
;   primePillarLocation,7
;   primePillarSpeedMultiplier,1
;   useOozeShield,0
;   oozeShieldExtruder,999
;   oozeShieldOffset,2
;   oozeShieldOutlines,1
;   oozeShieldSidewallShape,1
;   oozeShieldSidewallAngle,30
;   oozeShieldSpeedMultiplier,1
;   infillExtruder,0
;   internalInfillPattern,Rectilinear
;   externalInfillPattern,Rectilinear
;   infillPercentage,20
;   outlineOverlapPercentage,15
;   infillExtrusionWidthPercentage,100
;   minInfillLength,5
;   infillLayerInterval,1
;   internalInfillAngles,45,-45
;   overlapInternalInfillAngles,0
;   externalInfillAngles,45,-45
;   generateSupport,0
;   supportExtruder,0
;   supportInfillPercentage,30
;   supportExtraInflation,0
;   supportBaseLayers,0
;   denseSupportExtruder,0
;   denseSupportLayers,0
;   denseSupportInfillPercentage,70
;   supportLayerInterval,1
;   supportHorizontalPartOffset,0.3
;   supportUpperSeparationLayers,1
;   supportLowerSeparationLayers,1
;   supportType,0
;   supportGridSpacing,4
;   maxOverhangAngle,45
;   supportAngles,0
;   temperatureName,Primary Extruder,Heated Bed
;   temperatureNumber,0,0
;   temperatureSetpointCount,1,1
;   temperatureSetpointLayers,1,1
;   temperatureSetpointTemperatures,205,65
;   temperatureStabilizeAtStartup,1,1
;   temperatureHeatedBed,0,1
;   temperatureRelayBetweenLayers,0,0
;   temperatureRelayBetweenLoops,0,0
;   fanLayers,1,2,3
;   fanSpeeds,0,50,100
;   blipFanToFullPower,0
;   adjustSpeedForCooling,1
;   minSpeedLayerTime,15
;   minCoolingSpeedSlowdown,20
;   increaseFanForCooling,0
;   minFanLayerTime,45
;   maxCoolingFanSpeed,100
;   increaseFanForBridging,0
;   bridgingFanSpeed,100
;   use5D,1
;   relativeEdistances,0
;   allowEaxisZeroing,1
;   independentExtruderAxes,0
;   includeM10123,0
;   stickySupport,1
;   applyToolheadOffsets,0
;   gcodeXoffset,0
;   gcodeYoffset,0
;   gcodeZoffset,0
;   overrideMachineDefinition,1
;   machineTypeOverride,0
;   strokeXoverride,300
;   strokeYoverride,300
;   strokeZoverride,400
;   originOffsetXoverride,0
;   originOffsetYoverride,0
;   originOffsetZoverride,0
;   homeXdirOverride,-1
;   homeYdirOverride,-1
;   homeZdirOverride,-1
;   flipXoverride,1
;   flipYoverride,-1
;   flipZoverride,1
;   toolheadOffsets,0,0|0,0|0,0|0,0|0,0|0,0
;   overrideFirmwareConfiguration,1
;   firmwareTypeOverride,RepRap (Marlin/Repetier/Sprinter)
;   GPXconfigOverride,r2
;   baudRateOverride,250000
;   overridePrinterModels,1
;   printerModelsOverride
;   startingGcode,G28 ; home all axes,G29 ; Auto Bed Leveling,G1 Z0.2 F3000 ; get ready to prime,G92 E0 ; reset extrusion distance,G1 X160 E15 F600 ; prime nozzle,G1 X180 F5000 ; quick wipe
;   layerChangeGcode,
;   retractionGcode,
;   toolChangeGcode,
;   endingGcode,G28 X0 ; home x axis,G1 Y295 F3000 ; bring the bed forward,M106 S0 ; turn off cooling fan,M104 S0 ; turn off extruder,M140 S0 ; turn off bed,M84 ; disable motors
;   exportFileFormat,gcode
;   celebration,0
;   celebrationSong,Random Song
;   postProcessing,
;   defaultSpeed,3000
;   outlineUnderspeed,0.5
;   solidInfillUnderspeed,0.8
;   supportUnderspeed,0.8
;   rapidXYspeed,4800
;   rapidZspeed,1002
;   minBridgingArea,50
;   bridgingExtraInflation,0
;   bridgingExtrusionMultiplier,1
;   bridgingSpeedMultiplier,1
;   useFixedBridgingAngle,0
;   fixedBridgingAngle,0
;   applyBridgingToPerimeters,0
;   filamentDiameters,1.75|1.75|1.75|1.75|1.75|1.75
;   filamentPricesPerKg,46|46|46|46|46|46
;   filamentDensities,1.25|1.25|1.25|1.25|1.25|1.25
;   useMinPrintHeight,0
;   minPrintHeight,0
;   useMaxPrintHeight,0
;   maxPrintHeight,0
;   useDiaphragm,0
;   diaphragmLayerInterval,20
;   robustSlicing,1
;   mergeAllIntoSolid,0
;   onlyRetractWhenCrossingOutline,1
;   retractBetweenLayers,1
;   useRetractionMinTravel,0
;   retractionMinTravel,3
;   retractWhileWiping,0
;   onlyWipeOutlines,1
;   avoidCrossingOutline,0
;   maxMovementDetourFactor,3
;   toolChangeRetractionDistance,12
;   toolChangeExtraRestartDistance,-0.5
;   toolChangeRetractionSpeed,600
;   externalThinWallType,0
;   internalThinWallType,2
;   thinWallAllowedOverlapPercentage,10
;   singleExtrusionMinLength,1
;   singleExtrusionMinPrintingWidthPercentage,50
;   singleExtrusionMaxPrintingWidthPercentage,200
;   singleExtrusionEndpointExtension,0.2
;   horizontalSizeCompensation,0
G90
M82
M106 S0
M140 S65
M190 S65
M104 S205 T0
M109 S205 T0
G28 ; home all axes
G29 ; Auto Bed Leveling
G1 Z0.2 F3000 ; get ready to prime
G92 E0 ; reset extrusion distance
G1 X160 E15 F600 ; prime nozzle
G1 X180 F5000 ; quick wipe
G92 E0
G1 E-5.0000 F1800
G1 Z0.240 F1002
; process Process1
; layer 1, Z = 0.240
T0
; tool H0.240 W0.720
; skirt
G1 X121.539 Y140.254 F4800
G1 E0.0000 F540
G92 E0
G1 X121.954 Y139.909 E0.0349 F1200
G1 X121.990 Y139.883 E0.0378
G1 X122.696 Y139.431 E0.0920
G1 X122.728 Y139.413 E0.0944
G1 X123.132 Y139.210 E0.1236
G1 X123.166 Y139.195 E0.1260
G1 X123.895 Y138.918 E0.1764
G1 X123.925 Y138.908 E0.1784
G1 X124.287 Y138.806 E0.2028
G1 X124.317 Y138.798 E0.2048
G1 X124.886 Y138.689 E0.2422
G1 X124.909 Y138.685 E0.2437
G1 X125.189 Y138.650 E0.2620
G1 X125.212 Y138.648 E0.2635
G1 X149.245 Y137.184 E1.8203
G1 X149.254 Y137.183 E1.8209
G1 X149.368 Y137.179 E1.8283
G1 X149.378 Y137.179 E1.8289
G1 X150.415 Y137.170 E1.8959
G1 X150.425 Y137.170 E1.8966
G1 X150.546 Y137.172 E1.9044
G1 X150.556 Y137.173 E1.9051
G1 X151.444 Y137.215 E1.9626
G1 X151.458 Y137.216 E1.9634
G1 X151.620 Y137.229 E1.9740
G1 X151.634 Y137.231 E1.9749
G1 X153.232 Y137.427 E2.0790
G1 X153.246 Y137.429 E2.0799
G1 X153.411 Y137.455 E2.0907
G1 X153.425 Y137.458 E2.0916
G1 X154.389 Y137.652 E2.1552
G1 X154.399 Y137.654 E2.1559
G1 X154.516 Y137.681 E2.1636
G1 X154.526 Y137.683 E2.1643
G1 X155.438 Y137.920 E2.2252
G1 X155.447 Y137.923 E2.2258
G1 X155.563 Y137.956 E2.2336
G1 X155.572 Y137.959 E2.2342
G1 X156.489 Y138.251 E2.2964
G1 X156.498 Y138.255 E2.2971
G1 X156.618 Y138.297 E2.3053
G1 X156.627 Y138.300 E2.3059
G1 X157.572 Y138.663 E2.3714
G1 X157.582 Y138.667 E2.3721
G1 X157.697 Y138.715 E2.3801
G1 X157.707 Y138.719 E2.3808
G1 X158.558 Y139.104 E2.4412
G1 X158.567 Y139.108 E2.4419
G1 X158.678 Y139.162 E2.4498
G1 X158.687 Y139.167 E2.4505
G1 X159.563 Y139.623 E2.5143
G1 X159.573 Y139.629 E2.5151
G1 X159.692 Y139.696 E2.5239
G1 X159.702 Y139.701 E2.5247
G1 X160.683 Y140.294 E2.5987
G1 X160.691 Y140.299 E2.5994
G1 X160.797 Y140.367 E2.6075
G1 X160.805 Y140.373 E2.6082
G1 X161.512 Y140.857 E2.6636
G1 X161.519 Y140.863 E2.6642
G1 X161.611 Y140.929 E2.6715
G1 X161.619 Y140.935 E2.6721
G1 X162.360 Y141.502 E2.7325
G1 X162.369 Y141.509 E2.7332
G1 X162.469 Y141.590 E2.7415
G1 X162.477 Y141.597 E2.7422
G1 X163.277 Y142.287 E2.8105
G1 X163.286 Y142.295 E2.8113
G1 X163.393 Y142.395 E2.8208
G1 X163.402 Y142.403 E2.8215
G1 X164.273 Y143.264 E2.9008
G1 X164.282 Y143.273 E2.9015
G1 X164.380 Y143.377 E2.9108
G1 X164.388 Y143.385 E2.9115
G1 X165.084 Y144.169 E2.9793
G1 X165.091 Y144.178 E2.9801
G1 X165.185 Y144.292 E2.9896
G1 X165.193 Y144.301 E2.9904
G1 X165.961 Y145.295 E3.0716
G1 X165.969 Y145.305 E3.0724
G1 X166.055 Y145.424 E3.0819
G1 X166.062 Y145.434 E3.0827
G1 X166.637 Y146.292 E3.1495
G1 X166.643 Y146.301 E3.1502
G1 X166.713 Y146.413 E3.1587
G1 X166.719 Y146.422 E3.1594
G1 X167.223 Y147.282 E3.2239
G1 X167.243 Y147.322 E3.2268
G1 X167.458 Y147.824 E3.2621
G1 X167.473 Y147.866 E3.2650
G1 X167.765 Y148.878 E3.3330
G1 X167.776 Y148.932 E3.3366
G1 X167.860 Y149.605 E3.3805
G1 X167.863 Y149.661 E3.3841
G1 X167.834 Y150.613 E3.4457
G1 X167.831 Y150.654 E3.4483
G1 X167.758 Y151.151 E3.4808
G1 X167.750 Y151.191 E3.4835
G1 X167.580 Y151.827 E3.5260
G1 X167.572 Y151.855 E3.5279
G1 X167.450 Y152.195 E3.5513
G1 X167.439 Y152.223 E3.5532
G1 X167.206 Y152.736 E3.5896
G1 X167.196 Y152.756 E3.5911
G1 X167.067 Y153.000 E3.6089
G1 X167.055 Y153.020 E3.6104
G1 X166.482 Y153.950 E3.6810
G1 X166.475 Y153.961 E3.6819
G1 X166.385 Y154.095 E3.6923
G1 X166.378 Y154.106 E3.6932
G1 X165.514 Y155.300 E3.7885
G1 X165.505 Y155.312 E3.7894
G1 X165.400 Y155.446 E3.8004
G1 X165.391 Y155.457 E3.8013
G1 X164.645 Y156.335 E3.8759
G1 X164.637 Y156.344 E3.8766
G1 X164.539 Y156.452 E3.8861
G1 X164.531 Y156.461 E3.8868
G1 X163.722 Y157.292 E3.9618
G1 X163.714 Y157.300 E3.9626
G1 X163.610 Y157.400 E3.9719
G1 X163.602 Y157.408 E3.9727
G1 X162.759 Y158.168 E4.0460
G1 X162.750 Y158.176 E4.0468
G1 X162.637 Y158.270 E4.0563
G1 X162.628 Y158.278 E4.0571
G1 X161.738 Y158.977 E4.1303
G1 X161.729 Y158.984 E4.1310
G1 X161.620 Y159.065 E4.1398
G1 X161.611 Y159.071 E4.1405
G1 X160.777 Y159.646 E4.2060
G1 X160.767 Y159.653 E4.2068
G1 X160.643 Y159.732 E4.2163
G1 X160.632 Y159.739 E4.2171
G1 X159.535 Y160.391 E4.2996
G1 X159.525 Y160.396 E4.3003
G1 X159.404 Y160.463 E4.3093
G1 X159.394 Y160.468 E4.3100
G1 X158.568 Y160.891 E4.3700
G1 X158.559 Y160.895 E4.3707
G1 X158.438 Y160.952 E4.3793
G1 X158.428 Y160.957 E4.3800
G1 X157.367 Y161.420 E4.4549
G1 X157.355 Y161.425 E4.4557
G1 X157.206 Y161.484 E4.4661
G1 X157.194 Y161.488 E4.4669
G1 X155.943 Y161.929 E4.5527
G1 X155.931 Y161.932 E4.5534
G1 X155.792 Y161.976 E4.5629
G1 X155.780 Y161.980 E4.5637
G1 X154.865 Y162.234 E4.6251
G1 X154.856 Y162.237 E4.6257
G1 X154.739 Y162.266 E4.6335
G1 X154.729 Y162.268 E4.6341
G1 X153.798 Y162.472 E4.6958
G1 X153.789 Y162.474 E4.6964
G1 X153.675 Y162.496 E4.7039
G1 X153.665 Y162.498 E4.7045
G1 X152.769 Y162.645 E4.7632
G1 X152.758 Y162.647 E4.7640
G1 X152.617 Y162.665 E4.7732
G1 X152.605 Y162.666 E4.7739
G1 X151.313 Y162.793 E4.8579
G1 X151.300 Y162.794 E4.8587
G1 X151.145 Y162.803 E4.8688
G1 X151.132 Y162.804 E4.8696
G1 X150.023 Y162.833 E4.9413
G1 X150.013 Y162.833 E4.9420
G1 X149.891 Y162.833 E4.9499
G1 X149.880 Y162.833 E4.9506
G1 X149.107 Y162.810 E5.0006
G1 X149.101 Y162.810 E5.0009
G1 X149.034 Y162.807 E5.0053
G1 X149.028 Y162.806 E5.0057
G1 X125.174 Y161.350 E6.5509
G1 X125.144 Y161.347 E6.5528
G1 X124.791 Y161.296 E6.5759
G1 X124.762 Y161.291 E6.5778
G1 X123.949 Y161.105 E6.6317
G1 X123.905 Y161.092 E6.6347
G1 X123.384 Y160.901 E6.6706
G1 X123.343 Y160.882 E6.6735
G1 X122.403 Y160.394 E6.7420
G1 X122.364 Y160.371 E6.7449
G1 X121.909 Y160.056 E6.7807
G1 X121.874 Y160.028 E6.7836
G1 X121.244 Y159.462 E6.8383
G1 X121.217 Y159.436 E6.8408
G1 X120.911 Y159.095 E6.8704
G1 X120.887 Y159.066 E6.8728
G1 X120.391 Y158.384 E6.9274
G1 X120.367 Y158.347 E6.9302
G1 X120.108 Y157.880 E6.9647
G1 X120.089 Y157.841 E6.9676
G1 X119.703 Y156.885 E7.0342
G1 X119.689 Y156.842 E7.0371
G1 X119.549 Y156.315 E7.0724
G1 X119.540 Y156.271 E7.0753
G1 X119.423 Y155.406 E7.1318
G1 X119.421 Y155.382 E7.1333
G1 X119.401 Y155.089 E7.1523
G1 X119.400 Y155.065 E7.1538
G1 X119.399 Y145.020 E7.8033
G1 X119.399 Y145.007 E7.8042
G1 X119.405 Y144.851 E7.8143
G1 X119.406 Y144.838 E7.8151
G1 X119.439 Y144.374 E7.8452
G1 X119.442 Y144.348 E7.8469
G1 X119.489 Y144.027 E7.8678
G1 X119.494 Y144.001 E7.8695
G1 X119.668 Y143.223 E7.9211
G1 X119.680 Y143.181 E7.9239
G1 X119.857 Y142.682 E7.9582
G1 X119.874 Y142.642 E7.9610
G1 X120.365 Y141.657 E8.0321
G1 X120.392 Y141.612 E8.0355
G1 X120.755 Y141.090 E8.0766
G1 X120.788 Y141.050 E8.0800
G1 X121.507 Y140.285 E8.1479
G1 X121.539 Y140.254 E8.1507
G1 X121.857 Y140.614 F4800
G92 E0
G1 X122.249 Y140.288 E0.0330 F1200
G1 X122.261 Y140.279 E0.0339
G1 X122.944 Y139.842 E0.0864
G1 X122.955 Y139.836 E0.0872
G1 X123.336 Y139.644 E0.1148
G1 X123.348 Y139.639 E0.1156
G1 X124.056 Y139.370 E0.1645
G1 X124.066 Y139.367 E0.1652
G1 X124.408 Y139.270 E0.1882
G1 X124.418 Y139.268 E0.1889
G1 X124.969 Y139.162 E0.2252
G1 X124.977 Y139.160 E0.2257
G1 X125.241 Y139.127 E0.2429
G1 X125.249 Y139.126 E0.2434
G1 X149.271 Y137.663 E1.7995
G1 X149.274 Y137.663 E1.7997
G1 X149.382 Y137.659 E1.8067
G1 X149.385 Y137.659 E1.8069
G1 X150.416 Y137.650 E1.8735
G1 X150.419 Y137.650 E1.8737
G1 X150.533 Y137.652 E1.8811
G1 X150.537 Y137.652 E1.8813
G1 X151.417 Y137.694 E1.9383
G1 X151.422 Y137.694 E1.9386
G1 X151.575 Y137.707 E1.9486
G1 X151.580 Y137.708 E1.9489
G1 X153.169 Y137.902 E2.0524
G1 X153.174 Y137.903 E2.0527
G1 X153.330 Y137.928 E2.0629
G1 X153.334 Y137.929 E2.0632
G1 X154.292 Y138.122 E2.1264
G1 X154.295 Y138.123 E2.1266
G1 X154.405 Y138.148 E2.1339
G1 X154.409 Y138.149 E2.1341
G1 X155.314 Y138.384 E2.1946
G1 X155.317 Y138.385 E2.1948
G1 X155.426 Y138.416 E2.2022
G1 X155.429 Y138.417 E2.2024
G1 X156.339 Y138.708 E2.2641
G1 X156.343 Y138.709 E2.2644
G1 X156.455 Y138.748 E2.2721
G1 X156.459 Y138.749 E2.2723
G1 X157.397 Y139.110 E2.3373
G1 X157.400 Y139.111 E2.3375
G1 X157.509 Y139.157 E2.3452
G1 X157.512 Y139.158 E2.3454
G1 X158.358 Y139.540 E2.4054
G1 X158.361 Y139.542 E2.4056
G1 X158.465 Y139.592 E2.4131
G1 X158.468 Y139.594 E2.4133
G1 X159.338 Y140.047 E2.4767
G1 X159.341 Y140.049 E2.4769
G1 X159.454 Y140.112 E2.4853
G1 X159.457 Y140.114 E2.4856
G1 X160.431 Y140.703 E2.5592
G1 X160.434 Y140.705 E2.5594
G1 X160.534 Y140.769 E2.5671
G1 X160.537 Y140.771 E2.5673
G1 X161.238 Y141.251 E2.6222
G1 X161.240 Y141.253 E2.6224
G1 X161.327 Y141.316 E2.6294
G1 X161.330 Y141.318 E2.6296
G1 X162.066 Y141.881 E2.6895
G1 X162.069 Y141.883 E2.6897
G1 X162.163 Y141.960 E2.6976
G1 X162.166 Y141.962 E2.6978
G1 X162.960 Y142.648 E2.7657
G1 X162.963 Y142.651 E2.7659
G1 X163.065 Y142.745 E2.7749
G1 X163.068 Y142.747 E2.7751
G1 X163.933 Y143.603 E2.8538
G1 X163.936 Y143.606 E2.8541
G1 X164.029 Y143.704 E2.8628
G1 X164.032 Y143.707 E2.8631
G1 X164.722 Y144.485 E2.9303
G1 X164.724 Y144.488 E2.9306
G1 X164.813 Y144.595 E2.9396
G1 X164.816 Y144.598 E2.9398
G1 X165.579 Y145.585 E3.0205
G1 X165.582 Y145.589 E3.0208
G1 X165.663 Y145.701 E3.0298
G1 X165.665 Y145.705 E3.0301
G1 X166.236 Y146.556 E3.0963
G1 X166.238 Y146.559 E3.0966
G1 X166.304 Y146.665 E3.1046
G1 X166.306 Y146.668 E3.1049
G1 X166.801 Y147.512 E3.1681
G1 X166.808 Y147.525 E3.1691
G1 X167.011 Y147.999 E3.2024
G1 X167.016 Y148.013 E3.2034
G1 X167.298 Y148.992 E3.2693
G1 X167.302 Y149.011 E3.2705
G1 X167.382 Y149.646 E3.3119
G1 X167.383 Y149.665 E3.3131
G1 X167.355 Y150.584 E3.3726
G1 X167.354 Y150.598 E3.3735
G1 X167.285 Y151.068 E3.4042
G1 X167.282 Y151.081 E3.4051
G1 X167.119 Y151.693 E3.4460
G1 X167.116 Y151.703 E3.4467
G1 X167.001 Y152.024 E3.4687
G1 X166.998 Y152.033 E3.4694
G1 X166.772 Y152.531 E3.5047
G1 X166.769 Y152.538 E3.5052
G1 X166.646 Y152.768 E3.5220
G1 X166.643 Y152.774 E3.5225
G1 X166.076 Y153.694 E3.5924
G1 X166.073 Y153.698 E3.5927
G1 X165.989 Y153.825 E3.6025
G1 X165.986 Y153.828 E3.6028
G1 X165.128 Y155.015 E3.6975
G1 X165.125 Y155.019 E3.6978
G1 X165.025 Y155.146 E3.7082
G1 X165.023 Y155.149 E3.7085
G1 X164.282 Y156.021 E3.7825
G1 X164.279 Y156.024 E3.7828
G1 X164.186 Y156.126 E3.7917
G1 X164.184 Y156.129 E3.7919
