; G-Code generated by Simplify3D(R) Version 4.0.1
; May 6, 2018 at 7:47:21 AM
; Settings Summary
;   processName,Process1
;   applyToModels,Heat_tower_190-240_Bridge
;   profileName,TEVO Tornado medium Standard (modified)
;   profileVersion,2018-04-30 19:41:39
;   baseProfile,TEVO Tornado (modified)
;   printMaterial,PLA
;   printQuality,Medium
;   printExtruders,
;   extruderName,Primary Extruder
;   extruderToolheadNumber,0
;   extruderDiameter,0.4
;   extruderAutoWidth,1
;   extruderWidth,0.48
;   extrusionMultiplier,0.9
;   extruderUseRetract,1
;   extruderRetractionDistance,5
;   extruderExtraRestartDistance,0
;   extruderRetractionZLift,0
;   extruderRetractionSpeed,1800
;   extruderUseCoasting,0
;   extruderCoastingDistance,0.2
;   extruderUseWipe,0
;   extruderWipeDistance,5
;   primaryExtruder,0
;   layerHeight,0.1
;   topSolidLayers,1
;   bottomSolidLayers,1
;   perimeterOutlines,2
;   printPerimetersInsideOut,1
;   startPointOption,2
;   startPointOriginX,0
;   startPointOriginY,0
;   sequentialIslands,0
;   spiralVaseMode,0
;   firstLayerHeightPercentage,120
;   firstLayerWidthPercentage,150
;   firstLayerUnderspeed,0.4
;   useRaft,0
;   raftExtruder,0
;   raftTopLayers,3
;   raftBaseLayers,2
;   raftOffset,3
;   raftSeparationDistance,0.14
;   raftTopInfill,100
;   aboveRaftSpeedMultiplier,0.3
;   useSkirt,1
;   skirtExtruder,0
;   skirtLayers,1
;   skirtOutlines,2
;   skirtOffset,4
;   usePrimePillar,0
;   primePillarExtruder,999
;   primePillarWidth,12
;   primePillarLocation,7
;   primePillarSpeedMultiplier,1
;   useOozeShield,0
;   oozeShieldExtruder,999
;   oozeShieldOffset,2
;   oozeShieldOutlines,1
;   oozeShieldSidewallShape,1
;   oozeShieldSidewallAngle,30
;   oozeShieldSpeedMultiplier,1
;   infillExtruder,0
;   internalInfillPattern,Rectilinear
;   externalInfillPattern,Rectilinear
;   infillPercentage,20
;   outlineOverlapPercentage,15
;   infillExtrusionWidthPercentage,100
;   minInfillLength,5
;   infillLayerInterval,1
;   internalInfillAngles,45,-45
;   overlapInternalInfillAngles,0
;   externalInfillAngles,45,-45
;   generateSupport,0
;   supportExtruder,0
;   supportInfillPercentage,30
;   supportExtraInflation,0
;   supportBaseLayers,0
;   denseSupportExtruder,0
;   denseSupportLayers,0
;   denseSupportInfillPercentage,70
;   supportLayerInterval,1
;   supportHorizontalPartOffset,0.3
;   supportUpperSeparationLayers,1
;   supportLowerSeparationLayers,1
;   supportType,0
;   supportGridSpacing,4
;   maxOverhangAngle,45
;   supportAngles,0
;   temperatureName,Primary Extruder,Heated Bed
;   temperatureNumber,0,0
;   temperatureSetpointCount,11,2
;   temperatureSetpointLayers,1,50,100,150,200,250,300,350,400,450,500,1,3
;   temperatureSetpointTemperatures,240,235,230,225,220,215,210,205,200,195,190,65,60
;   temperatureStabilizeAtStartup,1,1
;   temperatureHeatedBed,0,1
;   temperatureRelayBetweenLayers,0,0
;   temperatureRelayBetweenLoops,0,0
;   fanLayers,1,2,3
;   fanSpeeds,0,50,100
;   blipFanToFullPower,0
;   adjustSpeedForCooling,1
;   minSpeedLayerTime,15
;   minCoolingSpeedSlowdown,20
;   increaseFanForCooling,0
;   minFanLayerTime,45
;   maxCoolingFanSpeed,100
;   increaseFanForBridging,0
;   bridgingFanSpeed,100
;   use5D,1
;   relativeEdistances,0
;   allowEaxisZeroing,1
;   independentExtruderAxes,0
;   includeM10123,0
;   stickySupport,1
;   applyToolheadOffsets,0
;   gcodeXoffset,0
;   gcodeYoffset,0
;   gcodeZoffset,0
;   overrideMachineDefinition,1
;   machineTypeOverride,0
;   strokeXoverride,300
;   strokeYoverride,300
;   strokeZoverride,400
;   originOffsetXoverride,0
;   originOffsetYoverride,0
;   originOffsetZoverride,0
;   homeXdirOverride,-1
;   homeYdirOverride,-1
;   homeZdirOverride,-1
;   flipXoverride,1
;   flipYoverride,-1
;   flipZoverride,1
;   toolheadOffsets,0,0|0,0|0,0|0,0|0,0|0,0
;   overrideFirmwareConfiguration,1
;   firmwareTypeOverride,RepRap (Marlin/Repetier/Sprinter)
;   GPXconfigOverride,r2
;   baudRateOverride,250000
;   overridePrinterModels,1
;   printerModelsOverride
;   startingGcode,G28 ; home all axes,G29 ; Auto Bed Leveling,G1 Z0.2 F3000 ; get ready to prime,G92 E0 ; reset extrusion distance,G1 X160 E15 F600 ; prime nozzle,G1 X180 F5000 ; quick wipe
;   layerChangeGcode,
;   retractionGcode,
;   toolChangeGcode,
;   endingGcode,G28 X0 ; home x axis,G1 Y295 F3000 ; bring the bed forward,M106 S0 ; turn off cooling fan,M104 S0 ; turn off extruder,M140 S0 ; turn off bed,M84 ; disable motors
;   exportFileFormat,gcode
;   celebration,0
;   celebrationSong,Random Song
;   postProcessing,
;   defaultSpeed,3000
;   outlineUnderspeed,0.5
;   solidInfillUnderspeed,0.8
;   supportUnderspeed,0.8
;   rapidXYspeed,4800
;   rapidZspeed,1002
;   minBridgingArea,50
;   bridgingExtraInflation,0
;   bridgingExtrusionMultiplier,1
;   bridgingSpeedMultiplier,1
;   useFixedBridgingAngle,0
;   fixedBridgingAngle,0
;   applyBridgingToPerimeters,0
;   filamentDiameters,1.75|1.75|1.75|1.75|1.75|1.75
;   filamentPricesPerKg,46|46|46|46|46|46
;   filamentDensities,1.25|1.25|1.25|1.25|1.25|1.25
;   useMinPrintHeight,0
;   minPrintHeight,0
;   useMaxPrintHeight,0
;   maxPrintHeight,0
;   useDiaphragm,0
;   diaphragmLayerInterval,20
;   robustSlicing,1
;   mergeAllIntoSolid,0
;   onlyRetractWhenCrossingOutline,1
;   retractBetweenLayers,1
;   useRetractionMinTravel,0
;   retractionMinTravel,3
;   retractWhileWiping,0
;   onlyWipeOutlines,1
;   avoidCrossingOutline,0
;   maxMovementDetourFactor,3
;   toolChangeRetractionDistance,12
;   toolChangeExtraRestartDistance,-0.5
;   toolChangeRetractionSpeed,600
;   externalThinWallType,0
;   internalThinWallType,2
;   thinWallAllowedOverlapPercentage,10
;   singleExtrusionMinLength,1
;   singleExtrusionMinPrintingWidthPercentage,50
;   singleExtrusionMaxPrintingWidthPercentage,200
;   singleExtrusionEndpointExtension,0.2
;   horizontalSizeCompensation,0
G90
M82
M106 S0
M140 S65
M190 S65
M104 S240 T0
M109 S240 T0
G28 ; home all axes
G29 ; Auto Bed Leveling
G1 Z0.2 F3000 ; get ready to prime
G92 E0 ; reset extrusion distance
G1 X160 E15 F600 ; prime nozzle
G1 X180 F5000 ; quick wipe
G92 E0
G1 E-5.0000 F1800
G1 Z0.120 F1002
; process Process1
; layer 1, Z = 0.120
T0
; tool H0.120 W0.720
; skirt
G1 X129.435 Y135.682 F4800
G1 E0.0000 F540
G92 E0
G1 X129.700 Y135.573 E0.0093 F1200
G1 X135.300 Y135.573 E0.1903
G1 X135.565 Y135.682 E0.1996
G1 X138.110 Y138.228 E0.3160
G1 X138.220 Y138.493 E0.3252
G1 X138.220 Y152.093 E0.7649
G1 X138.110 Y152.357 E0.7742
G1 X135.565 Y154.903 E0.8905
G1 X135.300 Y155.013 E0.8998
G1 X129.700 Y155.013 E1.0808
G1 X129.435 Y154.903 E1.0901
G1 X126.890 Y152.357 E1.2065
G1 X126.780 Y152.093 E1.2158
G1 X126.780 Y138.493 E1.6554
G1 X126.890 Y138.228 E1.6647
G1 X129.435 Y135.682 E1.7811
G1 X143.780 Y138.493 F4800
G92 E0
G1 X143.890 Y138.228 E0.0093 F1200
G1 X146.435 Y135.682 E0.1256
G1 X146.700 Y135.573 E0.1349
G1 X165.360 Y135.573 E0.7382
G1 X165.625 Y135.682 E0.7474
G1 X168.170 Y138.228 E0.8638
G1 X168.280 Y138.493 E0.8731
G1 X168.280 Y153.522 E1.3590
G1 X168.258 Y153.647 E1.3631
G1 X167.727 Y155.098 E1.4130
G1 X167.663 Y155.207 E1.4171
G1 X160.238 Y163.989 E1.7889
G1 X160.114 Y164.084 E1.7940
G1 X158.369 Y164.893 E1.8561
G1 X158.216 Y164.927 E1.8612
G1 X156.981 Y164.927 E1.9011
G1 X156.945 Y164.925 E1.9023
G1 X156.519 Y164.883 E1.9161
G1 X156.484 Y164.878 E1.9173
G1 X154.851 Y164.553 E1.9711
G1 X154.828 Y164.548 E1.9719
G1 X154.552 Y164.474 E1.9811
G1 X154.530 Y164.467 E1.9818
G1 X153.021 Y163.955 E2.0334
G1 X152.999 Y163.947 E2.0341
G1 X152.735 Y163.838 E2.0433
G1 X152.714 Y163.828 E2.0441
G1 X151.284 Y163.123 E2.0956
G1 X151.264 Y163.112 E2.0964
G1 X151.016 Y162.969 E2.1056
G1 X150.996 Y162.957 E2.1064
G1 X149.671 Y162.072 E2.1579
G1 X149.652 Y162.058 E2.1587
G1 X149.426 Y161.884 E2.1679
G1 X149.408 Y161.869 E2.1686
G1 X148.209 Y160.818 E2.2202
G1 X148.192 Y160.802 E2.2209
G1 X147.990 Y160.600 E2.2302
G1 X147.974 Y160.583 E2.2309
G1 X146.924 Y159.385 E2.2824
G1 X146.909 Y159.367 E2.2832
G1 X146.735 Y159.140 E2.2924
G1 X146.721 Y159.121 E2.2932
G1 X145.836 Y157.796 E2.3447
G1 X145.823 Y157.776 E2.3455
G1 X145.681 Y157.529 E2.3547
G1 X145.670 Y157.508 E2.3555
G1 X144.965 Y156.079 E2.4070
G1 X144.955 Y156.058 E2.4077
G1 X144.846 Y155.794 E2.4170
G1 X144.838 Y155.772 E2.4177
G1 X144.325 Y154.263 E2.4692
G1 X144.318 Y154.240 E2.4700
G1 X144.245 Y153.965 E2.4792
G1 X144.239 Y153.942 E2.4800
G1 X143.928 Y152.379 E2.5315
G1 X143.925 Y152.356 E2.5323
G1 X143.887 Y152.073 E2.5415
G1 X143.885 Y152.049 E2.5423
G1 X143.785 Y150.530 E2.5915
G1 X143.785 Y150.518 E2.5919
G1 X143.780 Y150.376 E2.5965
G1 X143.780 Y150.364 E2.5968
G1 X143.780 Y138.493 E2.9806
G1 X144.260 Y138.588 F4800
G92 E0
G1 X144.297 Y138.500 E0.0031 F1200
G1 X146.707 Y136.089 E0.1133
G1 X146.795 Y136.053 E0.1164
G1 X165.265 Y136.053 E0.7135
G1 X165.353 Y136.089 E0.7166
G1 X167.763 Y138.500 E0.8268
G1 X167.800 Y138.588 E0.8299
G1 X167.800 Y153.480 E1.3113
G1 X167.793 Y153.522 E1.3127
G1 X167.291 Y154.893 E1.3599
G1 X167.269 Y154.930 E1.3612
G1 X159.906 Y163.639 E1.7300
G1 X159.864 Y163.671 E1.7317
G1 X158.215 Y164.436 E1.7904
G1 X158.164 Y164.447 E1.7921
G1 X156.992 Y164.447 E1.8300
G1 X156.981 Y164.447 E1.8304
G1 X156.578 Y164.407 E1.8435
G1 X156.566 Y164.405 E1.8438
G1 X154.952 Y164.084 E1.8970
G1 X154.945 Y164.082 E1.8973
G1 X154.684 Y164.013 E1.9060
G1 X154.677 Y164.010 E1.9063
G1 X153.183 Y163.503 E1.9573
G1 X153.175 Y163.500 E1.9575
G1 X152.926 Y163.397 E1.9662
G1 X152.919 Y163.394 E1.9665
G1 X151.504 Y162.696 E2.0175
G1 X151.497 Y162.692 E2.0178
G1 X151.263 Y162.558 E2.0265
G1 X151.257 Y162.553 E2.0267
G1 X149.945 Y161.677 E2.0777
G1 X149.938 Y161.672 E2.0780
G1 X149.724 Y161.508 E2.0867
G1 X149.718 Y161.503 E2.0870
G1 X148.532 Y160.463 E2.1380
G1 X148.526 Y160.457 E2.1382
G1 X148.335 Y160.267 E2.1470
G1 X148.330 Y160.261 E2.1472
G1 X147.290 Y159.075 E2.1982
G1 X147.285 Y159.069 E2.1985
G1 X147.121 Y158.855 E2.2072
G1 X147.116 Y158.848 E2.2074
G1 X146.239 Y157.536 E2.2585
G1 X146.235 Y157.530 E2.2587
G1 X146.100 Y157.296 E2.2674
G1 X146.097 Y157.289 E2.2677
G1 X145.399 Y155.874 E2.3187
G1 X145.396 Y155.867 E2.3189
G1 X145.292 Y155.618 E2.3277
G1 X145.290 Y155.610 E2.3279
G1 X144.782 Y154.116 E2.3789
G1 X144.780 Y154.109 E2.3792
G1 X144.710 Y153.848 E2.3879
G1 X144.708 Y153.840 E2.3882
G1 X144.401 Y152.293 E2.4392
G1 X144.399 Y152.285 E2.4394
G1 X144.364 Y152.018 E2.4481
G1 X144.363 Y152.010 E2.4484
G1 X144.265 Y150.503 E2.4972
G1 X144.264 Y150.499 E2.4974
G1 X144.260 Y150.364 E2.5017
G1 X144.260 Y150.360 E2.5018
G1 X144.260 Y138.588 E2.8824
G1 X137.740 Y138.588 F4800
G92 E0
G1 X137.740 Y151.997 E0.4335 F1200
G1 X137.703 Y152.086 E0.4366
G1 X135.293 Y154.496 E0.5468
G1 X135.205 Y154.533 E0.5499
G1 X129.795 Y154.533 E0.7248
G1 X129.707 Y154.496 E0.7279
G1 X127.297 Y152.086 E0.8381
G1 X127.260 Y151.997 E0.8412
G1 X127.260 Y138.588 E1.2747
G1 X127.297 Y138.500 E1.2777
G1 X129.707 Y136.089 E1.3880
G1 X129.795 Y136.053 E1.3910
G1 X135.205 Y136.053 E1.5659
G1 X135.293 Y136.089 E1.5690
G1 X137.703 Y138.500 E1.6792
G1 X137.740 Y138.588 E1.6823
G92 E0
G1 E-5.0000 F1800
; outer perimeter
G1 X133.140 Y140.653 F4800
G1 E0.0000 F1800
G92 E0
G1 X133.140 Y149.933 E0.3000 F600
G1 X131.860 Y149.933 E0.3414
G1 X131.860 Y140.653 E0.6414
G1 X133.140 Y140.653 E0.6828
; gap fill
G1 X132.479 Y141.643 F4800
G92 E0
G1 X132.521 Y141.685 E0.0019 F960
G1 X132.521 Y142.703 E0.0348
G1 X132.479 Y142.662 E0.0367
G1 X132.479 Y143.680 E0.0696
G1 X132.521 Y143.721 E0.0715
G1 X132.521 Y144.740 E0.1045
G1 X132.479 Y144.698 E0.1064
G1 X132.479 Y145.716 E0.1393
G1 X132.521 Y145.758 E0.1412
G1 X132.521 Y146.776 E0.1741
G1 X132.479 Y146.734 E0.1760
G1 X132.479 Y147.753 E0.2089
G1 X132.521 Y147.794 E0.2108
G1 X132.521 Y148.813 E0.2437
G1 X132.479 Y148.771 E0.2456
G92 E0
G1 E-5.0000 F1800
; inner perimeter
G1 X149.580 Y150.257 F4800
G1 E0.0000 F1800
G92 E0
G1 X149.580 Y141.373 E0.2872 F900
G1 X162.480 Y141.373 E0.7043
G1 X162.480 Y152.354 E1.0593
G1 X156.832 Y159.034 E1.3421
G1 X156.192 Y158.907 E1.3632
G1 X155.087 Y158.532 E1.4009
G1 X154.041 Y158.016 E1.4386
G1 X153.071 Y157.368 E1.4763
G1 X152.194 Y156.599 E1.5140
G1 X151.425 Y155.722 E1.5518
G1 X150.777 Y154.752 E1.5895
G1 X150.261 Y153.705 E1.6272
G1 X149.886 Y152.601 E1.6649
G1 X149.659 Y151.457 E1.7026
G1 X149.580 Y150.257 E1.7414
; outer perimeter
G1 X148.860 Y150.281 F4800
G92 E0
G1 X148.860 Y140.653 E0.3113 F600
G1 X163.200 Y140.653 E0.7749
G1 X163.200 Y152.618 E1.1617
G1 X157.108 Y159.823 E1.4667
G1 X156.005 Y159.604 E1.5031
G1 X154.811 Y159.198 E1.5438
G1 X153.680 Y158.641 E1.5846
G1 X152.632 Y157.940 E1.6254
G1 X151.684 Y157.109 E1.6661
G1 X150.853 Y156.161 E1.7069
G1 X150.152 Y155.112 E1.7476
G1 X149.594 Y153.982 E1.7884
G1 X149.189 Y152.788 E1.8292
G1 X148.943 Y151.551 E1.8699
G1 X148.860 Y150.281 E1.9111
; solid layer
G1 X154.510 Y157.564 F4800
G92 E0
G1 X151.228 Y154.283 E0.1500 F960
G1 X150.828 Y153.471 E0.1793
G1 X150.516 Y152.553 E0.2107
G1 X156.240 Y158.277 E0.4724
G1 X156.351 Y158.314 E0.4761
G1 X156.598 Y158.363 E0.4843
G1 X156.940 Y157.959 E0.5014
G1 X150.260 Y151.278 E0.8068
G1 X150.192 Y150.237 E0.8406
G1 X150.192 Y150.192 E0.8420
G1 X157.407 Y157.407 E1.1719
G1 X157.873 Y156.855 E1.1952
G1 X150.192 Y149.174 E1.5464
G1 X150.192 Y148.156 E1.5794
G1 X158.340 Y156.303 E1.9519
G1 X158.806 Y155.752 E1.9752
G1 X150.192 Y147.137 E2.3691
G1 X150.192 Y146.119 E2.4020
G1 X159.273 Y155.200 E2.8172
G1 X159.739 Y154.648 E2.8405
G1 X150.192 Y145.101 E3.2770
G1 X150.192 Y144.083 E3.3099
G1 X160.206 Y154.096 E3.7678
G1 X160.672 Y153.545 E3.7911
G1 X150.192 Y143.064 E4.2703
G1 X150.192 Y142.046 E4.3032
G1 X161.139 Y152.993 E4.8037
G1 X161.605 Y152.441 E4.8270
G1 X151.149 Y141.985 E5.3051
G1 X152.167 Y141.985 E5.3380
G1 X161.868 Y151.686 E5.7815
G1 X161.868 Y150.667 E5.8145
G1 X153.185 Y141.985 E6.2114
G1 X154.204 Y141.985 E6.2443
G1 X161.868 Y149.649 E6.5948
G1 X161.868 Y148.631 E6.6277
G1 X155.222 Y141.985 E6.9315
G1 X156.240 Y141.985 E6.9645
G1 X161.868 Y147.613 E7.2218
G1 X161.868 Y146.594 E7.2547
G1 X157.258 Y141.985 E7.4654
G1 X158.277 Y141.985 E7.4984
G1 X161.868 Y145.576 E7.6626
G1 X161.868 Y144.558 E7.6955
G1 X159.295 Y141.985 E7.8131
G1 X160.313 Y141.985 E7.8461
G1 X161.868 Y143.540 E7.9172
G1 X161.868 Y142.522 E7.9501
G1 X161.331 Y141.985 E7.9746
G92 E0
G1 E-5.0000 F1800
; layer 2, Z = 0.220
M106 S127
; tool H0.100 W0.480
; inner perimeter
G1 X162.950 Y141.013 F4800
G1 Z0.220 F1002
G1 E0.0000 F1800
G92 E0
G1 X162.950 Y152.486 E0.2061 F1090
G1 X157.064 Y159.447 E0.3698
G1 X156.099 Y159.255 E0.3875
G1 X154.949 Y158.865 E0.4093
G1 X153.861 Y158.328 E0.4311
G1 X152.852 Y157.654 E0.4529
G1 X151.939 Y156.854 E0.4747
G1 X151.139 Y155.941 E0.4965
G1 X150.465 Y154.932 E0.5183
G1 X149.928 Y153.844 E0.5401
G1 X149.538 Y152.694 E0.5619
G1 X149.301 Y151.504 E0.5837
G1 X149.220 Y150.269 E0.6059
G1 X149.220 Y141.013 E0.7721
G1 X162.950 Y141.013 E1.0187
; outer perimeter
G1 X163.430 Y140.533 F4800
G92 E0
G1 X163.430 Y152.662 E0.2178 F727
G1 X157.253 Y159.967 E0.3897
G1 X157.218 Y159.967 E0.3903
G1 X155.974 Y159.720 E0.4131
G1 X154.765 Y159.309 E0.4360
G1 X153.620 Y158.745 E0.4589
G1 X152.559 Y158.035 E0.4819
G1 X151.599 Y157.194 E0.5048
G1 X150.757 Y156.234 E0.5277
G1 X150.048 Y155.173 E0.5506
G1 X149.483 Y154.028 E0.5736
G1 X149.073 Y152.819 E0.5965
G1 X148.824 Y151.567 E0.6194
G1 X148.740 Y150.285 E0.6425
G1 X148.740 Y140.533 E0.8177
G1 X163.430 Y140.533 E1.0815
; infill
G1 X162.542 Y151.035 F4800
G92 E0
G1 X155.095 Y158.482 E0.1892 F1453
G1 X154.065 Y157.974 E0.2098
G1 X153.101 Y157.329 E0.2306
G1 X152.969 Y157.214 E0.2338
G1 X162.542 Y147.640 E0.4769
G1 X162.542 Y144.246 E0.5379
G1 X151.316 Y155.472 E0.8230
G1 X150.819 Y154.728 E0.8391
G1 X150.306 Y153.687 E0.8599
G1 X150.154 Y153.240 E0.8684
G1 X161.973 Y141.421 E1.1686
G1 X158.579 Y141.421 E1.2296
G1 X149.635 Y150.365 E1.4568
G1 X149.628 Y150.256 E1.4587
G1 X149.628 Y146.978 E1.5176
G1 X155.185 Y141.421 E1.6588
G1 X151.791 Y141.421 E1.7197
G1 X149.628 Y143.584 E1.7747
G92 E0
G1 E-5.0000 F1800
; inner perimeter
G1 X132.780 Y141.013 F4800
G1 E0.0000 F1800
