; G-Code generated by Simplify3D(R) Version 4.0.1
; May 3, 2018 at 6:05:03 PM
; Settings Summary
;   processName,Medium Standard
;   applyToModels,Stringing_Test
;   profileName,TEVO Tornado medium Standard
;   profileVersion,2018-04-30 19:41:39
;   baseProfile,TEVO Tornado (modified)
;   printMaterial,PLA
;   printQuality,Medium
;   printExtruders,
;   extruderName,Primary Extruder
;   extruderToolheadNumber,0
;   extruderDiameter,0.4
;   extruderAutoWidth,0
;   extruderWidth,0.4
;   extrusionMultiplier,0.9
;   extruderUseRetract,1
;   extruderRetractionDistance,5
;   extruderExtraRestartDistance,0
;   extruderRetractionZLift,0
;   extruderRetractionSpeed,1800
;   extruderUseCoasting,0
;   extruderCoastingDistance,0.2
;   extruderUseWipe,0
;   extruderWipeDistance,5
;   primaryExtruder,0
;   layerHeight,0.2
;   topSolidLayers,4
;   bottomSolidLayers,4
;   perimeterOutlines,2
;   printPerimetersInsideOut,1
;   startPointOption,2
;   startPointOriginX,0
;   startPointOriginY,0
;   sequentialIslands,0
;   spiralVaseMode,0
;   firstLayerHeightPercentage,120
;   firstLayerWidthPercentage,150
;   firstLayerUnderspeed,0.4
;   useRaft,0
;   raftExtruder,0
;   raftTopLayers,3
;   raftBaseLayers,2
;   raftOffset,3
;   raftSeparationDistance,0.14
;   raftTopInfill,100
;   aboveRaftSpeedMultiplier,0.3
;   useSkirt,1
;   skirtExtruder,0
;   skirtLayers,1
;   skirtOutlines,2
;   skirtOffset,4
;   usePrimePillar,0
;   primePillarExtruder,999
;   primePillarWidth,12
;   primePillarLocation,7
;   primePillarSpeedMultiplier,1
;   useOozeShield,0
;   oozeShieldExtruder,999
;   oozeShieldOffset,2
;   oozeShieldOutlines,1
;   oozeShieldSidewallShape,1
;   oozeShieldSidewallAngle,30
;   oozeShieldSpeedMultiplier,1
;   infillExtruder,0
;   internalInfillPattern,Rectilinear
;   externalInfillPattern,Rectilinear
;   infillPercentage,20
;   outlineOverlapPercentage,15
;   infillExtrusionWidthPercentage,100
;   minInfillLength,5
;   infillLayerInterval,1
;   internalInfillAngles,45,-45
;   overlapInternalInfillAngles,0
;   externalInfillAngles,45,-45
;   generateSupport,0
;   supportExtruder,0
;   supportInfillPercentage,30
;   supportExtraInflation,0
;   supportBaseLayers,0
;   denseSupportExtruder,0
;   denseSupportLayers,0
;   denseSupportInfillPercentage,70
;   supportLayerInterval,1
;   supportHorizontalPartOffset,0.3
;   supportUpperSeparationLayers,1
;   supportLowerSeparationLayers,1
;   supportType,0
;   supportGridSpacing,4
;   maxOverhangAngle,45
;   supportAngles,0
;   temperatureName,Primary Extruder,Heated Bed
;   temperatureNumber,0,0
;   temperatureSetpointCount,1,1
;   temperatureSetpointLayers,1,1
;   temperatureSetpointTemperatures,205,65
;   temperatureStabilizeAtStartup,1,1
;   temperatureHeatedBed,0,1
;   temperatureRelayBetweenLayers,0,0
;   temperatureRelayBetweenLoops,0,0
;   fanLayers,1,2,3
;   fanSpeeds,0,50,100
;   blipFanToFullPower,0
;   adjustSpeedForCooling,1
;   minSpeedLayerTime,15
;   minCoolingSpeedSlowdown,20
;   increaseFanForCooling,0
;   minFanLayerTime,45
;   maxCoolingFanSpeed,100
;   increaseFanForBridging,0
;   bridgingFanSpeed,100
;   use5D,1
;   relativeEdistances,0
;   allowEaxisZeroing,1
;   independentExtruderAxes,0
;   includeM10123,0
;   stickySupport,1
;   applyToolheadOffsets,0
;   gcodeXoffset,0
;   gcodeYoffset,0
;   gcodeZoffset,0
;   overrideMachineDefinition,1
;   machineTypeOverride,0
;   strokeXoverride,300
;   strokeYoverride,300
;   strokeZoverride,400
;   originOffsetXoverride,0
;   originOffsetYoverride,0
;   originOffsetZoverride,0
;   homeXdirOverride,-1
;   homeYdirOverride,-1
;   homeZdirOverride,-1
;   flipXoverride,1
;   flipYoverride,-1
;   flipZoverride,1
;   toolheadOffsets,0,0|0,0|0,0|0,0|0,0|0,0
;   overrideFirmwareConfiguration,1
;   firmwareTypeOverride,RepRap (Marlin/Repetier/Sprinter)
;   GPXconfigOverride,r2
;   baudRateOverride,250000
;   overridePrinterModels,1
;   printerModelsOverride
;   startingGcode,G28 ; home all axes,G29 ; Auto Bed Leveling,G1 Z0.2 F3000 ; get ready to prime,G92 E0 ; reset extrusion distance,G1 X160 E15 F600 ; prime nozzle,G1 X180 F5000 ; quick wipe
;   layerChangeGcode,
;   retractionGcode,
;   toolChangeGcode,
;   endingGcode,G28 X0 ; home x axis,G1 Y295 F3000 ; bring the bed forward,M106 S0 ; turn off cooling fan,M104 S0 ; turn off extruder,M140 S0 ; turn off bed,M84 ; disable motors
;   exportFileFormat,gcode
;   celebration,0
;   celebrationSong,Random Song
;   postProcessing,
;   defaultSpeed,3000
;   outlineUnderspeed,0.5
;   solidInfillUnderspeed,0.8
;   supportUnderspeed,0.8
;   rapidXYspeed,4800
;   rapidZspeed,1002
;   minBridgingArea,50
;   bridgingExtraInflation,0
;   bridgingExtrusionMultiplier,1
;   bridgingSpeedMultiplier,1
;   useFixedBridgingAngle,0
;   fixedBridgingAngle,0
;   applyBridgingToPerimeters,0
;   filamentDiameters,1.75|1.75|1.75|1.75|1.75|1.75
;   filamentPricesPerKg,46|46|46|46|46|46
;   filamentDensities,1.25|1.25|1.25|1.25|1.25|1.25
;   useMinPrintHeight,0
;   minPrintHeight,0
;   useMaxPrintHeight,0
;   maxPrintHeight,0
;   useDiaphragm,0
;   diaphragmLayerInterval,20
;   robustSlicing,1
;   mergeAllIntoSolid,0
;   onlyRetractWhenCrossingOutline,1
;   retractBetweenLayers,1
;   useRetractionMinTravel,0
;   retractionMinTravel,3
;   retractWhileWiping,0
;   onlyWipeOutlines,1
;   avoidCrossingOutline,0
;   maxMovementDetourFactor,3
;   toolChangeRetractionDistance,12
;   toolChangeExtraRestartDistance,-0.5
;   toolChangeRetractionSpeed,600
;   externalThinWallType,0
;   internalThinWallType,2
;   thinWallAllowedOverlapPercentage,10
;   singleExtrusionMinLength,1
;   singleExtrusionMinPrintingWidthPercentage,50
;   singleExtrusionMaxPrintingWidthPercentage,200
;   singleExtrusionEndpointExtension,0.2
;   horizontalSizeCompensation,0
G90
M82
M106 S0
M140 S65
M190 S65
M104 S205 T0
M109 S205 T0
G28 ; home all axes
G29 ; Auto Bed Leveling
G1 Z0.2 F3000 ; get ready to prime
G92 E0 ; reset extrusion distance
G1 X160 E15 F600 ; prime nozzle
G1 X180 F5000 ; quick wipe
G92 E0
G1 E-5.0000 F1800
G1 Z0.240 F1002
; process Medium Standard
; layer 1, Z = 0.240
T0
; tool H0.240 W0.600
; skirt
G1 X135.491 Y128.003 F4800
G1 E0.0000 F540
G92 E0
G1 X138.003 Y125.491 E0.1914 F1200
G1 X138.224 Y125.400 E0.2043
G1 X161.776 Y125.400 E1.4733
G1 X161.997 Y125.491 E1.4862
G1 X164.509 Y128.003 E1.6776
G1 X164.600 Y128.224 E1.6904
G1 X164.600 Y171.776 E4.0371
G1 X164.509 Y171.997 E4.0500
G1 X161.997 Y174.509 E4.2414
G1 X161.776 Y174.600 E4.2542
G1 X138.224 Y174.600 E5.5233
G1 X138.003 Y174.509 E5.5361
G1 X135.491 Y171.997 E5.7275
G1 X135.400 Y171.776 E5.7404
G1 X135.400 Y128.224 E8.0871
G1 X135.491 Y128.003 E8.0999
G1 X135.830 Y128.230 F4800
G92 E0
G1 X138.230 Y125.830 E0.1828 F1200
G1 X138.303 Y125.800 E0.1871
G1 X161.697 Y125.800 E1.4476
G1 X161.770 Y125.830 E1.4519
G1 X164.170 Y128.230 E1.6347
G1 X164.200 Y128.303 E1.6390
G1 X164.200 Y171.697 E3.9771
G1 X164.170 Y171.770 E3.9814
G1 X161.770 Y174.170 E4.1642
G1 X161.697 Y174.200 E4.1685
G1 X138.303 Y174.200 E5.4290
G1 X138.230 Y174.170 E5.4332
G1 X135.830 Y171.770 E5.6161
G1 X135.800 Y171.697 E5.6204
G1 X135.800 Y128.303 E7.9585
G1 X135.830 Y128.230 E7.9627
G92 E0
G1 E-5.0000 F1800
; inner perimeter
G1 X140.900 Y130.900 F4800
G1 E0.0000 F1800
G92 E0
G1 X159.100 Y130.900 E0.9806 F900
G1 X159.100 Y169.100 E3.0389
G1 X140.900 Y169.100 E4.0196
G1 X140.900 Y130.900 E6.0778
; outer perimeter
G1 X140.300 Y130.300 F4800
G92 E0
G1 X159.700 Y130.300 E1.0453 F600
G1 X159.700 Y169.700 E3.1682
G1 X140.300 Y169.700 E4.2135
G1 X140.300 Y130.300 E6.3365
; solid layer
G1 X158.563 Y131.410 F4800
G92 E0
G1 X158.590 Y131.437 E0.0021 F960
G1 X158.590 Y132.286 E0.0478
G1 X157.714 Y131.410 E0.1145
G1 X156.866 Y131.410 E0.1602
G1 X158.590 Y133.134 E0.2916
G1 X158.590 Y133.983 E0.3373
G1 X156.017 Y131.410 E0.5334
G1 X155.169 Y131.410 E0.5791
G1 X158.590 Y134.831 E0.8398
G1 X158.590 Y135.680 E0.8855
G1 X154.320 Y131.410 E1.2108
G1 X153.472 Y131.410 E1.2566
G1 X158.590 Y136.528 E1.6466
G1 X158.590 Y137.377 E1.6923
G1 X152.623 Y131.410 E2.1470
G1 X151.775 Y131.410 E2.1927
G1 X158.590 Y138.225 E2.7120
G1 X158.590 Y139.074 E2.7577
G1 X150.926 Y131.410 E3.3417
G1 X150.078 Y131.410 E3.3874
G1 X158.590 Y139.922 E4.0361
G1 X158.590 Y140.771 E4.0818
G1 X149.229 Y131.410 E4.7951
G1 X148.381 Y131.410 E4.8408
G1 X158.590 Y141.619 E5.6188
G1 X158.590 Y142.468 E5.6645
G1 X147.532 Y131.410 E6.5071
G1 X146.684 Y131.410 E6.5528
G1 X158.590 Y143.316 E7.4601
G1 X158.590 Y144.165 E7.5058
G1 X145.835 Y131.410 E8.4777
G1 X144.986 Y131.410 E8.5235
G1 X158.590 Y145.014 E9.5600
G1 X158.590 Y145.862 E9.6058
G1 X144.138 Y131.410 E10.7070
G1 X143.289 Y131.410 E10.7527
G1 X158.590 Y146.711 E11.9186
G1 X158.590 Y147.559 E11.9644
G1 X142.441 Y131.410 E13.1949
G1 X141.592 Y131.410 E13.2406
G1 X158.590 Y148.408 E14.5359
G1 X158.590 Y149.256 E14.5816
G1 X141.410 Y132.076 E15.8907
G1 X141.410 Y132.925 E15.9364
G1 X158.590 Y150.105 E17.2455
G1 X158.590 Y150.953 E17.2912
G1 X141.410 Y133.773 E18.6003
G1 X141.410 Y134.622 E18.6461
G1 X158.590 Y151.802 E19.9552
G1 X158.590 Y152.650 E20.0009
G1 X141.410 Y135.470 E21.3100
G1 X141.410 Y136.319 E21.3557
G1 X158.590 Y153.499 E22.6648
G1 X158.590 Y154.347 E22.7106
G1 X141.410 Y137.167 E24.0197
G1 X141.410 Y138.016 E24.0654
G1 X158.590 Y155.196 E25.3745
G1 X158.590 Y156.044 E25.4202
G1 X141.410 Y138.864 E26.7293
G1 X141.410 Y139.713 E26.7751
G1 X158.590 Y156.893 E28.0842
G1 X158.590 Y157.741 E28.1299
G1 X141.410 Y140.561 E29.4390
G1 X141.410 Y141.410 E29.4847
G1 X158.590 Y158.590 E30.7938
G1 X158.590 Y159.439 E30.8396
G1 X141.410 Y142.259 E32.1487
G1 X141.410 Y143.107 E32.1944
G1 X158.590 Y160.287 E33.5035
G1 X158.590 Y161.136 E33.5492
G1 X141.410 Y143.956 E34.8583
G1 X141.410 Y144.804 E34.9041
G1 X158.590 Y161.984 E36.2132
G1 X158.590 Y162.833 E36.2589
G1 X141.410 Y145.653 E37.5680
G1 X141.410 Y146.501 E37.6137
G1 X158.590 Y163.681 E38.9228
G1 X158.590 Y164.530 E38.9686
G1 X141.410 Y147.350 E40.2777
G1 X141.410 Y148.198 E40.3234
G1 X158.590 Y165.378 E41.6325
G1 X158.590 Y166.227 E41.6782
G1 X141.410 Y149.047 E42.9873
G1 X141.410 Y149.895 E43.0331
G1 X158.590 Y167.075 E44.3422
G1 X158.590 Y167.924 E44.3879
G1 X141.410 Y150.744 E45.6970
G1 X141.410 Y151.592 E45.7427
G1 X158.408 Y168.590 E47.0380
G1 X157.559 Y168.590 E47.0837
G1 X141.410 Y152.441 E48.3142
G1 X141.410 Y153.289 E48.3600
G1 X156.711 Y168.590 E49.5259
G1 X155.862 Y168.590 E49.5716
G1 X141.410 Y154.138 E50.6728
G1 X141.410 Y154.986 E50.7185
G1 X155.014 Y168.590 E51.7551
G1 X154.165 Y168.590 E51.8009
G1 X141.410 Y155.835 E52.7728
G1 X141.410 Y156.683 E52.8185
G1 X153.317 Y168.590 E53.7258
G1 X152.468 Y168.590 E53.7715
G1 X141.410 Y157.532 E54.6141
G1 X141.410 Y158.381 E54.6598
G1 X151.619 Y168.590 E55.4378
G1 X150.771 Y168.590 E55.4835
G1 X141.410 Y159.229 E56.1968
G1 X141.410 Y160.078 E56.2425
G1 X149.922 Y168.590 E56.8912
G1 X149.074 Y168.590 E56.9369
G1 X141.410 Y160.926 E57.5209
G1 X141.410 Y161.775 E57.5666
G1 X148.225 Y168.590 E58.0859
G1 X147.377 Y168.590 E58.1317
G1 X141.410 Y162.623 E58.5863
G1 X141.410 Y163.472 E58.6320
G1 X146.528 Y168.590 E59.0221
G1 X145.680 Y168.590 E59.0678
G1 X141.410 Y164.320 E59.3931
G1 X141.410 Y165.169 E59.4389
G1 X144.831 Y168.590 E59.6995
G1 X143.983 Y168.590 E59.7453
G1 X141.410 Y166.017 E59.9413
G1 X141.410 Y166.866 E59.9870
G1 X143.134 Y168.590 E60.1184
G1 X142.286 Y168.590 E60.1641
G1 X141.410 Y167.714 E60.2309
G1 X141.410 Y168.563 E60.2766
G1 X141.437 Y168.590 E60.2786
G92 E0
G1 E-5.0000 F1800
; layer 2, Z = 0.440
M106 S127
; tool H0.200 W0.400
; inner perimeter
G1 X140.600 Y169.400 F4800
G1 Z0.440 F1002
G1 E0.0000 F1800
G92 E0
G1 X140.600 Y130.600 E1.1614 F2250
G1 X159.400 Y130.600 E1.7242
G1 X159.400 Y169.400 E2.8856
G1 X140.600 Y169.400 E3.4484
; outer perimeter
G1 X140.200 Y169.800 F4800
G92 E0
G1 X140.200 Y130.200 E1.1854 F1500
G1 X159.800 Y130.200 E1.7721
G1 X159.800 Y169.800 E2.9575
G1 X140.200 Y169.800 E3.5442
; solid layer
G1 X159.060 Y168.659 F4800
G92 E0
G1 X158.659 Y169.060 E0.0170 F2400
G1 X158.093 Y169.060 E0.0339
G1 X159.060 Y168.093 E0.0749
G1 X159.060 Y167.527 E0.0918
G1 X157.527 Y169.060 E0.1567
G1 X156.962 Y169.060 E0.1736
G1 X159.060 Y166.962 E0.2625
G1 X159.060 Y166.396 E0.2794
G1 X156.396 Y169.060 E0.3922
G1 X155.830 Y169.060 E0.4091
G1 X159.060 Y165.830 E0.5458
G1 X159.060 Y165.265 E0.5628
G1 X155.265 Y169.060 E0.7234
G1 X154.699 Y169.060 E0.7404
G1 X159.060 Y164.699 E0.9250
G1 X159.060 Y164.133 E0.9419
G1 X154.133 Y169.060 E1.1505
G1 X153.567 Y169.060 E1.1674
G1 X159.060 Y163.567 E1.3999
G1 X159.060 Y163.002 E1.4169
G1 X153.002 Y169.060 E1.6733
G1 X152.436 Y169.060 E1.6903
G1 X159.060 Y162.436 E1.9707
G1 X159.060 Y161.870 E1.9876
G1 X151.870 Y169.060 E2.2920
G1 X151.305 Y169.060 E2.3089
G1 X159.060 Y161.305 E2.6372
G1 X159.060 Y160.739 E2.6542
G1 X150.739 Y169.060 E3.0064
G1 X150.173 Y169.060 E3.0233
G1 X159.060 Y160.173 E3.3995
G1 X159.060 Y159.608 E3.4165
G1 X149.608 Y169.060 E3.8166
G1 X149.042 Y169.060 E3.8336
G1 X159.060 Y159.042 E4.2577
G1 X159.060 Y158.476 E4.2746
G1 X148.476 Y169.060 E4.7226
G1 X147.911 Y169.060 E4.7396
G1 X159.060 Y157.911 E5.2116
G1 X159.060 Y157.345 E5.2285
G1 X147.345 Y169.060 E5.7244
G1 X146.779 Y169.060 E5.7414
G1 X159.060 Y156.779 E6.2612
G1 X159.060 Y156.214 E6.2782
G1 X146.214 Y169.060 E6.8220
G1 X145.648 Y169.060 E6.8389
G1 X159.060 Y155.648 E7.4067
G1 X159.060 Y155.082 E7.4237
G1 X145.082 Y169.060 E8.0154
G1 X144.516 Y169.060 E8.0323
G1 X159.060 Y154.516 E8.6480
G1 X159.060 Y153.951 E8.6649
G1 X143.951 Y169.060 E9.3045
G1 X143.385 Y169.060 E9.3215
G1 X159.060 Y153.385 E9.9850
G1 X159.060 Y152.819 E10.0020
G1 X142.819 Y169.060 E10.6895
G1 X142.254 Y169.060 E10.7064
G1 X159.060 Y152.254 E11.4179
G1 X159.060 Y151.688 E11.4348
G1 X141.688 Y169.060 E12.1702
G1 X141.122 Y169.060 E12.1872
G1 X159.060 Y151.122 E12.9465
G1 X159.060 Y150.557 E12.9635
G1 X140.940 Y168.677 E13.7305
G1 X140.940 Y168.111 E13.7475
G1 X159.060 Y149.991 E14.5145
G1 X159.060 Y149.425 E14.5315
G1 X140.940 Y167.545 E15.2986
G1 X140.940 Y166.980 E15.3155
G1 X159.060 Y148.860 E16.0826
G1 X159.060 Y148.294 E16.0995
G1 X140.940 Y166.414 E16.8666
G1 X140.940 Y165.848 E16.8835
G1 X159.060 Y147.728 E17.6506
G1 X159.060 Y147.163 E17.6675
G1 X140.940 Y165.283 E18.4346
G1 X140.940 Y164.717 E18.4515
G1 X159.060 Y146.597 E19.2186
G1 X159.060 Y146.031 E19.2356
G1 X140.940 Y164.151 E20.0026
G1 X140.940 Y163.586 E20.0196
G1 X159.060 Y145.466 E20.7866
G1 X159.060 Y144.900 E20.8036
G1 X140.940 Y163.020 E21.5707
G1 X140.940 Y162.454 E21.5876
G1 X159.060 Y144.334 E22.3547
G1 X159.060 Y143.768 E22.3716
G1 X140.940 Y161.888 E23.1387
G1 X140.940 Y161.323 E23.1556
G1 X159.060 Y143.203 E23.9227
G1 X159.060 Y142.637 E23.9396
G1 X140.940 Y160.757 E24.7067
G1 X140.940 Y160.191 E24.7236
G1 X159.060 Y142.071 E25.4907
G1 X159.060 Y141.506 E25.5076
G1 X140.940 Y159.626 E26.2747
G1 X140.940 Y159.060 E26.2917
G1 X159.060 Y140.940 E27.0587
G1 X159.060 Y140.374 E27.0757
G1 X140.940 Y158.494 E27.8427
G1 X140.940 Y157.929 E27.8597
G1 X159.060 Y139.809 E28.6268
G1 X159.060 Y139.243 E28.6437
G1 X140.940 Y157.363 E29.4108
G1 X140.940 Y156.797 E29.4277
G1 X159.060 Y138.677 E30.1948
G1 X159.060 Y138.112 E30.2117
G1 X140.940 Y156.232 E30.9788
G1 X140.940 Y155.666 E30.9957
G1 X159.060 Y137.546 E31.7628
G1 X159.060 Y136.980 E31.7797
G1 X140.940 Y155.100 E32.5468
G1 X140.940 Y154.535 E32.5637
G1 X159.060 Y136.415 E33.3308
G1 X159.060 Y135.849 E33.3478
G1 X140.940 Y153.969 E34.1148
G1 X140.940 Y153.403 E34.1318
G1 X159.060 Y135.283 E34.8988
G1 X159.060 Y134.717 E34.9158
G1 X140.940 Y152.837 E35.6829
G1 X140.940 Y152.272 E35.6998
G1 X159.060 Y134.152 E36.4669
G1 X159.060 Y133.586 E36.4838
G1 X140.940 Y151.706 E37.2509
G1 X140.940 Y151.140 E37.2678
G1 X159.060 Y133.020 E38.0349
G1 X159.060 Y132.455 E38.0518
G1 X140.940 Y150.575 E38.8189
G1 X140.940 Y150.009 E38.8358
G1 X159.060 Y131.889 E39.6029
G1 X159.060 Y131.323 E39.6199
G1 X140.940 Y149.443 E40.3869
G1 X140.940 Y148.878 E40.4039
G1 X158.878 Y130.940 E41.1632
G1 X158.312 Y130.940 E41.1802
G1 X140.940 Y148.312 E41.9156
