; G-Code generated by Simplify3D(R) Version 4.0.1
; May 3, 2018 at 9:00:49 PM
; Settings Summary
;   processName,Process1
;   applyToModels,xyzCalibration_cube
;   profileName,TEVO Tornado medium Standard
;   profileVersion,2018-04-30 19:41:39
;   baseProfile,TEVO Tornado (modified)
;   printMaterial,PLA
;   printQuality,Medium
;   printExtruders,
;   extruderName,Primary Extruder
;   extruderToolheadNumber,0
;   extruderDiameter,0.4
;   extruderAutoWidth,0
;   extruderWidth,0.4
;   extrusionMultiplier,0.9
;   extruderUseRetract,1
;   extruderRetractionDistance,5
;   extruderExtraRestartDistance,0
;   extruderRetractionZLift,0
;   extruderRetractionSpeed,1800
;   extruderUseCoasting,0
;   extruderCoastingDistance,0.2
;   extruderUseWipe,0
;   extruderWipeDistance,5
;   primaryExtruder,0
;   layerHeight,0.2
;   topSolidLayers,4
;   bottomSolidLayers,4
;   perimeterOutlines,2
;   printPerimetersInsideOut,1
;   startPointOption,2
;   startPointOriginX,0
;   startPointOriginY,0
;   sequentialIslands,0
;   spiralVaseMode,0
;   firstLayerHeightPercentage,120
;   firstLayerWidthPercentage,150
;   firstLayerUnderspeed,0.4
;   useRaft,0
;   raftExtruder,0
;   raftTopLayers,3
;   raftBaseLayers,2
;   raftOffset,3
;   raftSeparationDistance,0.14
;   raftTopInfill,100
;   aboveRaftSpeedMultiplier,0.3
;   useSkirt,1
;   skirtExtruder,0
;   skirtLayers,1
;   skirtOutlines,2
;   skirtOffset,4
;   usePrimePillar,0
;   primePillarExtruder,999
;   primePillarWidth,12
;   primePillarLocation,7
;   primePillarSpeedMultiplier,1
;   useOozeShield,0
;   oozeShieldExtruder,999
;   oozeShieldOffset,2
;   oozeShieldOutlines,1
;   oozeShieldSidewallShape,1
;   oozeShieldSidewallAngle,30
;   oozeShieldSpeedMultiplier,1
;   infillExtruder,0
;   internalInfillPattern,Rectilinear
;   externalInfillPattern,Rectilinear
;   infillPercentage,20
;   outlineOverlapPercentage,15
;   infillExtrusionWidthPercentage,100
;   minInfillLength,5
;   infillLayerInterval,1
;   internalInfillAngles,45,-45
;   overlapInternalInfillAngles,0
;   externalInfillAngles,45,-45
;   generateSupport,0
;   supportExtruder,0
;   supportInfillPercentage,30
;   supportExtraInflation,0
;   supportBaseLayers,0
;   denseSupportExtruder,0
;   denseSupportLayers,0
;   denseSupportInfillPercentage,70
;   supportLayerInterval,1
;   supportHorizontalPartOffset,0.3
;   supportUpperSeparationLayers,1
;   supportLowerSeparationLayers,1
;   supportType,0
;   supportGridSpacing,4
;   maxOverhangAngle,45
;   supportAngles,0
;   temperatureName,Primary Extruder,Heated Bed
;   temperatureNumber,0,0
;   temperatureSetpointCount,1,1
;   temperatureSetpointLayers,1,1
;   temperatureSetpointTemperatures,205,65
;   temperatureStabilizeAtStartup,1,1
;   temperatureHeatedBed,0,1
;   temperatureRelayBetweenLayers,0,0
;   temperatureRelayBetweenLoops,0,0
;   fanLayers,1,2,3
;   fanSpeeds,0,50,100
;   blipFanToFullPower,0
;   adjustSpeedForCooling,1
;   minSpeedLayerTime,15
;   minCoolingSpeedSlowdown,20
;   increaseFanForCooling,0
;   minFanLayerTime,45
;   maxCoolingFanSpeed,100
;   increaseFanForBridging,0
;   bridgingFanSpeed,100
;   use5D,1
;   relativeEdistances,0
;   allowEaxisZeroing,1
;   independentExtruderAxes,0
;   includeM10123,0
;   stickySupport,1
;   applyToolheadOffsets,0
;   gcodeXoffset,0
;   gcodeYoffset,0
;   gcodeZoffset,0
;   overrideMachineDefinition,1
;   machineTypeOverride,0
;   strokeXoverride,300
;   strokeYoverride,300
;   strokeZoverride,400
;   originOffsetXoverride,0
;   originOffsetYoverride,0
;   originOffsetZoverride,0
;   homeXdirOverride,-1
;   homeYdirOverride,-1
;   homeZdirOverride,-1
;   flipXoverride,1
;   flipYoverride,-1
;   flipZoverride,1
;   toolheadOffsets,0,0|0,0|0,0|0,0|0,0|0,0
;   overrideFirmwareConfiguration,1
;   firmwareTypeOverride,RepRap (Marlin/Repetier/Sprinter)
;   GPXconfigOverride,r2
;   baudRateOverride,250000
;   overridePrinterModels,1
;   printerModelsOverride
;   startingGcode,G28 ; home all axes,G29 ; Auto Bed Leveling,G1 Z0.2 F3000 ; get ready to prime,G92 E0 ; reset extrusion distance,G1 X160 E15 F600 ; prime nozzle,G1 X180 F5000 ; quick wipe
;   layerChangeGcode,
;   retractionGcode,
;   toolChangeGcode,
;   endingGcode,G28 X0 ; home x axis,G1 Y295 F3000 ; bring the bed forward,M106 S0 ; turn off cooling fan,M104 S0 ; turn off extruder,M140 S0 ; turn off bed,M84 ; disable motors
;   exportFileFormat,gcode
;   celebration,0
;   celebrationSong,Random Song
;   postProcessing,
;   defaultSpeed,3000
;   outlineUnderspeed,0.5
;   solidInfillUnderspeed,0.8
;   supportUnderspeed,0.8
;   rapidXYspeed,4800
;   rapidZspeed,1002
;   minBridgingArea,50
;   bridgingExtraInflation,0
;   bridgingExtrusionMultiplier,1
;   bridgingSpeedMultiplier,1
;   useFixedBridgingAngle,0
;   fixedBridgingAngle,0
;   applyBridgingToPerimeters,0
;   filamentDiameters,1.75|1.75|1.75|1.75|1.75|1.75
;   filamentPricesPerKg,46|46|46|46|46|46
;   filamentDensities,1.25|1.25|1.25|1.25|1.25|1.25
;   useMinPrintHeight,0
;   minPrintHeight,0
;   useMaxPrintHeight,0
;   maxPrintHeight,0
;   useDiaphragm,0
;   diaphragmLayerInterval,20
;   robustSlicing,1
;   mergeAllIntoSolid,0
;   onlyRetractWhenCrossingOutline,1
;   retractBetweenLayers,1
;   useRetractionMinTravel,0
;   retractionMinTravel,3
;   retractWhileWiping,0
;   onlyWipeOutlines,1
;   avoidCrossingOutline,0
;   maxMovementDetourFactor,3
;   toolChangeRetractionDistance,12
;   toolChangeExtraRestartDistance,-0.5
;   toolChangeRetractionSpeed,600
;   externalThinWallType,0
;   internalThinWallType,2
;   thinWallAllowedOverlapPercentage,10
;   singleExtrusionMinLength,1
;   singleExtrusionMinPrintingWidthPercentage,50
;   singleExtrusionMaxPrintingWidthPercentage,200
;   singleExtrusionEndpointExtension,0.2
;   horizontalSizeCompensation,0
G90
M82
M106 S0
M140 S65
M190 S65
M104 S205 T0
M109 S205 T0
G28 ; home all axes
G29 ; Auto Bed Leveling
G1 Z0.2 F3000 ; get ready to prime
G92 E0 ; reset extrusion distance
G1 X160 E15 F600 ; prime nozzle
G1 X180 F5000 ; quick wipe
G92 E0
G1 E-5.0000 F1800
G1 Z0.240 F1002
; process Process1
; layer 1, Z = 0.240
T0
; tool H0.240 W0.600
; skirt
G1 X135.491 Y138.003 F4800
G1 E0.0000 F540
G92 E0
G1 X138.003 Y135.491 E0.1914 F1200
G1 X138.224 Y135.400 E0.2043
G1 X161.776 Y135.400 E1.4733
G1 X161.997 Y135.491 E1.4862
G1 X164.509 Y138.003 E1.6776
G1 X164.600 Y138.224 E1.6904
G1 X164.600 Y161.776 E2.9595
G1 X164.509 Y161.997 E2.9723
G1 X161.997 Y164.509 E3.1637
G1 X161.776 Y164.600 E3.1766
G1 X138.224 Y164.600 E4.4456
G1 X138.003 Y164.509 E4.4585
G1 X135.491 Y161.997 E4.6499
G1 X135.400 Y161.776 E4.6628
G1 X135.400 Y138.224 E5.9318
G1 X135.491 Y138.003 E5.9447
G1 X135.830 Y138.230 F4800
G92 E0
G1 X138.230 Y135.830 E0.1828 F1200
G1 X138.303 Y135.800 E0.1871
G1 X161.697 Y135.800 E1.4476
G1 X161.770 Y135.830 E1.4519
G1 X164.170 Y138.230 E1.6347
G1 X164.200 Y138.303 E1.6390
G1 X164.200 Y161.697 E2.8995
G1 X164.170 Y161.770 E2.9037
G1 X161.770 Y164.170 E3.0866
G1 X161.697 Y164.200 E3.0909
G1 X138.303 Y164.200 E4.3513
G1 X138.230 Y164.170 E4.3556
G1 X135.830 Y161.770 E4.5384
G1 X135.800 Y161.697 E4.5427
G1 X135.800 Y138.303 E5.8032
G1 X135.830 Y138.230 E5.8075
G92 E0
G1 E-5.0000 F1800
; inner perimeter
G1 X140.900 Y140.900 F4800
G1 E0.0000 F1800
G92 E0
G1 X159.100 Y140.900 E0.9806 F900
G1 X159.100 Y159.100 E1.9613
G1 X140.900 Y159.100 E2.9419
G1 X140.900 Y140.900 E3.9226
; outer perimeter
G1 X140.300 Y140.300 F4800
G92 E0
G1 X159.700 Y140.300 E1.0453 F600
G1 X159.700 Y159.700 E2.0906
G1 X140.300 Y159.700 E3.1359
G1 X140.300 Y140.300 E4.1812
; solid layer
G1 X158.381 Y141.410 F4800
G92 E0
G1 X158.590 Y141.619 E0.0160 F960
G1 X158.590 Y142.468 E0.0617
G1 X157.532 Y141.410 E0.1423
G1 X156.684 Y141.410 E0.1880
G1 X158.590 Y143.316 E0.3333
G1 X158.590 Y144.165 E0.3790
G1 X155.835 Y141.410 E0.5889
G1 X154.986 Y141.410 E0.6347
G1 X158.590 Y145.014 E0.9092
G1 X158.590 Y145.862 E0.9550
G1 X154.138 Y141.410 E1.2942
G1 X153.289 Y141.410 E1.3399
G1 X158.590 Y146.711 E1.7438
G1 X158.590 Y147.559 E1.7896
G1 X152.441 Y141.410 E2.2581
G1 X151.592 Y141.410 E2.3038
G1 X158.590 Y148.408 E2.8371
G1 X158.590 Y149.256 E2.8828
G1 X150.744 Y141.410 E3.4806
G1 X149.895 Y141.410 E3.5264
G1 X158.590 Y150.105 E4.1889
G1 X158.590 Y150.953 E4.2346
G1 X149.047 Y141.410 E4.9618
G1 X148.198 Y141.410 E5.0075
G1 X158.590 Y151.802 E5.7994
G1 X158.590 Y152.650 E5.8451
G1 X147.350 Y141.410 E6.7016
G1 X146.501 Y141.410 E6.7473
G1 X158.590 Y153.499 E7.6685
G1 X158.590 Y154.347 E7.7142
G1 X145.653 Y141.410 E8.7000
G1 X144.804 Y141.410 E8.7458
G1 X158.590 Y155.196 E9.7962
G1 X158.590 Y156.044 E9.8420
G1 X143.956 Y141.410 E10.9571
G1 X143.107 Y141.410 E11.0028
G1 X158.590 Y156.893 E12.1826
G1 X158.590 Y157.741 E12.2283
G1 X142.259 Y141.410 E13.4728
G1 X141.410 Y141.410 E13.5185
G1 X158.590 Y158.590 E14.8276
G1 X157.741 Y158.590 E14.8733
G1 X141.410 Y142.259 E16.1178
G1 X141.410 Y143.107 E16.1635
G1 X156.893 Y158.590 E17.3433
G1 X156.044 Y158.590 E17.3890
G1 X141.410 Y143.956 E18.5042
G1 X141.410 Y144.804 E18.5499
G1 X155.196 Y158.590 E19.6004
G1 X154.347 Y158.590 E19.6461
G1 X141.410 Y145.653 E20.6319
G1 X141.410 Y146.501 E20.6776
G1 X153.499 Y158.590 E21.5988
G1 X152.650 Y158.590 E21.6445
G1 X141.410 Y147.350 E22.5010
G1 X141.410 Y148.198 E22.5468
G1 X151.802 Y158.590 E23.3386
G1 X150.953 Y158.590 E23.3843
G1 X141.410 Y149.047 E24.1115
G1 X141.410 Y149.895 E24.1573
G1 X150.105 Y158.590 E24.8198
G1 X149.256 Y158.590 E24.8655
G1 X141.410 Y150.744 E25.4634
G1 X141.410 Y151.592 E25.5091
G1 X148.408 Y158.590 E26.0423
G1 X147.559 Y158.590 E26.0881
G1 X141.410 Y152.441 E26.5566
G1 X141.410 Y153.289 E26.6023
G1 X146.711 Y158.590 E27.0062
G1 X145.862 Y158.590 E27.0520
G1 X141.410 Y154.138 E27.3912
G1 X141.410 Y154.986 E27.4369
G1 X145.014 Y158.590 E27.7115
G1 X144.165 Y158.590 E27.7572
G1 X141.410 Y155.835 E27.9672
G1 X141.410 Y156.683 E28.0129
G1 X143.317 Y158.590 E28.1582
G1 X142.468 Y158.590 E28.2039
G1 X141.410 Y157.532 E28.2845
G1 X141.410 Y158.381 E28.3302
G1 X141.619 Y158.590 E28.3462
G92 E0
G1 E-5.0000 F1800
; layer 2, Z = 0.440
M106 S127
; tool H0.200 W0.400
; inner perimeter
G1 X140.600 Y159.400 F4800
G1 Z0.440 F1002
G1 E0.0000 F1800
G92 E0
G1 X140.600 Y140.600 E0.5628 F2250
G1 X159.400 Y140.600 E1.1255
G1 X159.400 Y159.400 E1.6883
G1 X140.600 Y159.400 E2.2510
; outer perimeter
G1 X140.200 Y159.800 F4800
G92 E0
G1 X140.200 Y140.200 E0.5867 F1500
G1 X159.800 Y140.200 E1.1734
G1 X159.800 Y159.800 E1.7601
G1 X140.200 Y159.800 E2.3468
; solid layer
G1 X140.940 Y140.958 F4800
G92 E0
G1 X140.958 Y140.940 E0.0008 F2400
G1 X141.524 Y140.940 E0.0177
G1 X140.940 Y141.524 E0.0424
G1 X140.940 Y142.089 E0.0593
G1 X142.089 Y140.940 E0.1080
G1 X142.655 Y140.940 E0.1249
G1 X140.940 Y142.655 E0.1975
G1 X140.940 Y143.221 E0.2145
G1 X143.221 Y140.940 E0.3110
G1 X143.787 Y140.940 E0.3280
G1 X140.940 Y143.787 E0.4485
G1 X140.940 Y144.352 E0.4654
G1 X144.352 Y140.940 E0.6099
G1 X144.918 Y140.940 E0.6268
G1 X140.940 Y144.918 E0.7952
G1 X140.940 Y145.484 E0.8121
G1 X145.484 Y140.940 E1.0045
G1 X146.049 Y140.940 E1.0214
G1 X140.940 Y146.049 E1.2377
G1 X140.940 Y146.615 E1.2546
G1 X146.615 Y140.940 E1.4949
G1 X147.181 Y140.940 E1.5118
G1 X140.940 Y147.181 E1.7760
G1 X140.940 Y147.746 E1.7929
G1 X147.746 Y140.940 E2.0810
G1 X148.312 Y140.940 E2.0980
G1 X140.940 Y148.312 E2.4101
G1 X140.940 Y148.878 E2.4270
G1 X148.878 Y140.940 E2.7630
G1 X149.443 Y140.940 E2.7800
G1 X140.940 Y149.443 E3.1399
G1 X140.940 Y150.009 E3.1569
G1 X150.009 Y140.940 E3.5408
G1 X150.575 Y140.940 E3.5577
G1 X140.940 Y150.575 E3.9656
G1 X140.940 Y151.140 E3.9825
G1 X151.140 Y140.940 E4.4143
G1 X151.706 Y140.940 E4.4313
G1 X140.940 Y151.706 E4.8870
G1 X140.940 Y152.272 E4.9040
G1 X152.272 Y140.940 E5.3837
G1 X152.837 Y140.940 E5.4006
G1 X140.940 Y152.837 E5.9043
G1 X140.940 Y153.403 E5.9212
G1 X153.403 Y140.940 E6.4488
G1 X153.969 Y140.940 E6.4658
G1 X140.940 Y153.969 E7.0173
G1 X140.940 Y154.535 E7.0342
G1 X154.535 Y140.940 E7.6097
G1 X155.100 Y140.940 E7.6267
G1 X140.940 Y155.100 E8.2261
G1 X140.940 Y155.666 E8.2431
G1 X155.666 Y140.940 E8.8665
G1 X156.232 Y140.940 E8.8834
G1 X140.940 Y156.232 E9.5307
G1 X140.940 Y156.797 E9.5477
G1 X156.797 Y140.940 E10.2190
G1 X157.363 Y140.940 E10.2359
G1 X140.940 Y157.363 E10.9311
G1 X140.940 Y157.929 E10.9481
G1 X157.929 Y140.940 E11.6672
G1 X158.494 Y140.940 E11.6842
G1 X140.940 Y158.494 E12.4273
G1 X140.940 Y159.060 E12.4442
G1 X159.060 Y140.940 E13.2113
G1 X159.060 Y141.506 E13.2283
G1 X141.506 Y159.060 E13.9714
G1 X142.071 Y159.060 E13.9883
G1 X159.060 Y142.071 E14.7075
G1 X159.060 Y142.637 E14.7244
G1 X142.637 Y159.060 E15.4197
G1 X143.203 Y159.060 E15.4366
G1 X159.060 Y143.203 E16.1079
G1 X159.060 Y143.768 E16.1248
G1 X143.768 Y159.060 E16.7722
G1 X144.334 Y159.060 E16.7891
G1 X159.060 Y144.334 E17.4125
G1 X159.060 Y144.900 E17.4294
G1 X144.900 Y159.060 E18.0289
G1 X145.466 Y159.060 E18.0458
G1 X159.060 Y145.466 E18.6213
G1 X159.060 Y146.031 E18.6382
G1 X146.031 Y159.060 E19.1898
G1 X146.597 Y159.060 E19.2067
G1 X159.060 Y146.597 E19.7343
G1 X159.060 Y147.163 E19.7513
G1 X147.163 Y159.060 E20.2549
G1 X147.728 Y159.060 E20.2718
G1 X159.060 Y147.728 E20.7516
G1 X159.060 Y148.294 E20.7685
G1 X148.294 Y159.060 E21.2242
G1 X148.860 Y159.060 E21.2412
G1 X159.060 Y148.860 E21.6730
G1 X159.060 Y149.425 E21.6899
G1 X149.425 Y159.060 E22.0978
G1 X149.991 Y159.060 E22.1147
G1 X159.060 Y149.991 E22.4986
G1 X159.060 Y150.557 E22.5156
G1 X150.557 Y159.060 E22.8756
G1 X151.122 Y159.060 E22.8925
G1 X159.060 Y151.122 E23.2285
G1 X159.060 Y151.688 E23.2454
G1 X151.688 Y159.060 E23.5575
G1 X152.254 Y159.060 E23.5745
G1 X159.060 Y152.254 E23.8626
G1 X159.060 Y152.819 E23.8795
G1 X152.819 Y159.060 E24.1437
G1 X153.385 Y159.060 E24.1606
G1 X159.060 Y153.385 E24.4009
G1 X159.060 Y153.951 E24.4178
G1 X153.951 Y159.060 E24.6341
G1 X154.516 Y159.060 E24.6510
G1 X159.060 Y154.516 E24.8434
G1 X159.060 Y155.082 E24.8603
G1 X155.082 Y159.060 E25.0287
G1 X155.648 Y159.060 E25.0456
G1 X159.060 Y155.648 E25.1901
G1 X159.060 Y156.214 E25.2070
G1 X156.214 Y159.060 E25.3275
G1 X156.779 Y159.060 E25.3445
G1 X159.060 Y156.779 E25.4410
G1 X159.060 Y157.345 E25.4579
G1 X157.345 Y159.060 E25.5305
G1 X157.911 Y159.060 E25.5475
G1 X159.060 Y157.911 E25.5961
G1 X159.060 Y158.476 E25.6131
G1 X158.476 Y159.060 E25.6378
G1 X159.042 Y159.060 E25.6547
G1 X159.060 Y159.042 E25.6555
G92 E0
G1 E-5.0000 F1800
; layer 3, Z = 0.640
M106 S255
; inner perimeter
G1 X159.400 Y159.400 F4800
G1 Z0.640 F1002
G1 E0.0000 F1800
G92 E0
G1 X140.600 Y159.400 E0.5628 F2250
G1 X140.600 Y140.600 E1.1255
G1 X159.400 Y140.600 E1.6883
G1 X159.400 Y159.400 E2.2510
; outer perimeter
G1 X159.800 Y159.800 F4800
G92 E0
G1 X140.200 Y159.800 E0.5867 F1500
G1 X140.200 Y140.200 E1.1734
G1 X159.800 Y140.200 E1.7601
G1 X159.800 Y159.800 E2.3468
; solid layer
G1 X140.958 Y159.060 F4800
G92 E0
G1 X140.940 Y159.042 E0.0008 F2400
G1 X140.940 Y158.476 E0.0177
G1 X141.524 Y159.060 E0.0424
G1 X142.089 Y159.060 E0.0593
G1 X140.940 Y157.911 E0.1080
G1 X140.940 Y157.345 E0.1249
G1 X142.655 Y159.060 E0.1975
G1 X143.221 Y159.060 E0.2145
G1 X140.940 Y156.779 E0.3110
G1 X140.940 Y156.213 E0.3280
G1 X143.787 Y159.060 E0.4485
G1 X144.352 Y159.060 E0.4654
G1 X140.940 Y155.648 E0.6099
G1 X140.940 Y155.082 E0.6268
G1 X144.918 Y159.060 E0.7952
G1 X145.484 Y159.060 E0.8121
G1 X140.940 Y154.516 E1.0045
G1 X140.940 Y153.951 E1.0214
G1 X146.049 Y159.060 E1.2377
G1 X146.615 Y159.060 E1.2546
G1 X140.940 Y153.385 E1.4949
G1 X140.940 Y152.819 E1.5118
G1 X147.181 Y159.060 E1.7760
G1 X147.746 Y159.060 E1.7929
G1 X140.940 Y152.254 E2.0810
G1 X140.940 Y151.688 E2.0980
G1 X148.312 Y159.060 E2.4101
G1 X148.878 Y159.060 E2.4270
G1 X140.940 Y151.122 E2.7630
G1 X140.940 Y150.557 E2.7799
G1 X149.443 Y159.060 E3.1399
G1 X150.009 Y159.060 E3.1569
G1 X140.940 Y149.991 E3.5408
G1 X140.940 Y149.425 E3.5577
G1 X150.575 Y159.060 E3.9656
G1 X151.140 Y159.060 E3.9825
G1 X140.940 Y148.860 E4.4143
G1 X140.940 Y148.294 E4.4313
G1 X151.706 Y159.060 E4.8870
G1 X152.272 Y159.060 E4.9040
G1 X140.940 Y147.728 E5.3837
G1 X140.940 Y147.163 E5.4006
