; G-Code generated by Simplify3D(R) Version 4.0.1
; Apr 28, 2018 at 10:39:53 AM
; Settings Summary
;   processName,Process1
;   applyToModels,3D_printer_test_mini
;   profileName,TEVO Tornado(2) (modified)
;   profileVersion,2018-01-19 08:00:00
;   baseProfile,
;   printMaterial,PLA
;   printQuality,Medium
;   printExtruders,
;   extruderName,Primary Extruder
;   extruderToolheadNumber,0
;   extruderDiameter,0.4
;   extruderAutoWidth,0
;   extruderWidth,0.4
;   extrusionMultiplier,0.9
;   extruderUseRetract,1
;   extruderRetractionDistance,5
;   extruderExtraRestartDistance,0
;   extruderRetractionZLift,0
;   extruderRetractionSpeed,1800
;   extruderUseCoasting,1
;   extruderCoastingDistance,0.2
;   extruderUseWipe,1
;   extruderWipeDistance,5
;   primaryExtruder,0
;   layerHeight,0.2
;   topSolidLayers,5
;   bottomSolidLayers,4
;   perimeterOutlines,3
;   printPerimetersInsideOut,1
;   startPointOption,2
;   startPointOriginX,0
;   startPointOriginY,0
;   sequentialIslands,0
;   spiralVaseMode,0
;   firstLayerHeightPercentage,120
;   firstLayerWidthPercentage,150
;   firstLayerUnderspeed,0.5
;   useRaft,0
;   raftExtruder,0
;   raftTopLayers,3
;   raftBaseLayers,2
;   raftOffset,3
;   raftSeparationDistance,0.14
;   raftTopInfill,100
;   aboveRaftSpeedMultiplier,0.3
;   useSkirt,1
;   skirtExtruder,0
;   skirtLayers,1
;   skirtOutlines,2
;   skirtOffset,4
;   usePrimePillar,0
;   primePillarExtruder,999
;   primePillarWidth,12
;   primePillarLocation,7
;   primePillarSpeedMultiplier,1
;   useOozeShield,0
;   oozeShieldExtruder,999
;   oozeShieldOffset,2
;   oozeShieldOutlines,1
;   oozeShieldSidewallShape,1
;   oozeShieldSidewallAngle,30
;   oozeShieldSpeedMultiplier,1
;   infillExtruder,0
;   internalInfillPattern,Rectilinear
;   externalInfillPattern,Rectilinear
;   infillPercentage,80
;   outlineOverlapPercentage,15
;   infillExtrusionWidthPercentage,100
;   minInfillLength,5
;   infillLayerInterval,1
;   internalInfillAngles,45,-45
;   overlapInternalInfillAngles,0
;   externalInfillAngles,45,-45
;   generateSupport,0
;   supportExtruder,0
;   supportInfillPercentage,30
;   supportExtraInflation,0
;   supportBaseLayers,0
;   denseSupportExtruder,0
;   denseSupportLayers,0
;   denseSupportInfillPercentage,70
;   supportLayerInterval,1
;   supportHorizontalPartOffset,0.3
;   supportUpperSeparationLayers,1
;   supportLowerSeparationLayers,1
;   supportType,0
;   supportGridSpacing,4
;   maxOverhangAngle,45
;   supportAngles,0
;   temperatureName,Primary Extruder,Heated Bed
;   temperatureNumber,0,0
;   temperatureSetpointCount,1,1
;   temperatureSetpointLayers,1,1
;   temperatureSetpointTemperatures,210,60
;   temperatureStabilizeAtStartup,1,1
;   temperatureHeatedBed,0,1
;   temperatureRelayBetweenLayers,0,0
;   temperatureRelayBetweenLoops,0,0
;   fanLayers,1,2
;   fanSpeeds,0,100
;   blipFanToFullPower,0
;   adjustSpeedForCooling,1
;   minSpeedLayerTime,15
;   minCoolingSpeedSlowdown,20
;   increaseFanForCooling,0
;   minFanLayerTime,45
;   maxCoolingFanSpeed,100
;   increaseFanForBridging,0
;   bridgingFanSpeed,100
;   use5D,1
;   relativeEdistances,0
;   allowEaxisZeroing,1
;   independentExtruderAxes,0
;   includeM10123,0
;   stickySupport,1
;   applyToolheadOffsets,0
;   gcodeXoffset,0
;   gcodeYoffset,0
;   gcodeZoffset,0
;   overrideMachineDefinition,1
;   machineTypeOverride,0
;   strokeXoverride,300
;   strokeYoverride,300
;   strokeZoverride,400
;   originOffsetXoverride,0
;   originOffsetYoverride,0
;   originOffsetZoverride,0
;   homeXdirOverride,-1
;   homeYdirOverride,-1
;   homeZdirOverride,-1
;   flipXoverride,1
;   flipYoverride,-1
;   flipZoverride,1
;   toolheadOffsets,0,0|0,0|0,0|0,0|0,0|0,0
;   overrideFirmwareConfiguration,1
;   firmwareTypeOverride,RepRap (Marlin/Repetier/Sprinter)
;   GPXconfigOverride,r2
;   baudRateOverride,250000
;   overridePrinterModels,1
;   printerModelsOverride
;   startingGcode,G28 ; home all axes,G1 Z0.2 F3000 ; get ready to prime,G92 E0 ; reset extrusion distance,G1 X160 E15 F600 ; prime nozzle,G1 X180 F5000 ; quick wipe
;   layerChangeGcode,
;   retractionGcode,
;   toolChangeGcode,
;   endingGcode,G28 X0 ; home x axis,G1 Y295 F3000 ; bring the bed forward,M106 S0 ; turn off cooling fan,M104 S0 ; turn off extruder,M140 S0 ; turn off bed,M84 ; disable motors
;   exportFileFormat,gcode
;   celebration,0
;   celebrationSong,Random Song
;   postProcessing,
;   defaultSpeed,3000
;   outlineUnderspeed,0.5
;   solidInfillUnderspeed,0.8
;   supportUnderspeed,0.8
;   rapidXYspeed,4800
;   rapidZspeed,1002
;   minBridgingArea,50
;   bridgingExtraInflation,0
;   bridgingExtrusionMultiplier,1
;   bridgingSpeedMultiplier,1
;   useFixedBridgingAngle,0
;   fixedBridgingAngle,0
;   applyBridgingToPerimeters,0
;   filamentDiameters,1.75|1.75|1.75|1.75|1.75|1.75
;   filamentPricesPerKg,46|46|46|46|46|46
;   filamentDensities,1.25|1.25|1.25|1.25|1.25|1.25
;   useMinPrintHeight,0
;   minPrintHeight,0
;   useMaxPrintHeight,0
;   maxPrintHeight,0
;   useDiaphragm,0
;   diaphragmLayerInterval,20
;   robustSlicing,1
;   mergeAllIntoSolid,0
;   onlyRetractWhenCrossingOutline,1
;   retractBetweenLayers,1
;   useRetractionMinTravel,0
;   retractionMinTravel,3
;   retractWhileWiping,0
;   onlyWipeOutlines,1
;   avoidCrossingOutline,0
;   maxMovementDetourFactor,3
;   toolChangeRetractionDistance,12
;   toolChangeExtraRestartDistance,-0.5
;   toolChangeRetractionSpeed,600
;   externalThinWallType,0
;   internalThinWallType,2
;   thinWallAllowedOverlapPercentage,10
;   singleExtrusionMinLength,1
;   singleExtrusionMinPrintingWidthPercentage,50
;   singleExtrusionMaxPrintingWidthPercentage,200
;   singleExtrusionEndpointExtension,0.2
;   horizontalSizeCompensation,0
G90
M82
M106 S0
M140 S60
M190 S60
M104 S210 T0
M109 S210 T0
G28 ; home all axes
G1 Z0.2 F3000 ; get ready to prime
G92 E0 ; reset extrusion distance
G1 X160 E15 F600 ; prime nozzle
G1 X180 F5000 ; quick wipe
G92 E0
G1 E-5.0000 F1800
G1 Z0.240 F1002
; process Process1
; layer 1, Z = 0.240
T0
; tool H0.240 W0.600
; skirt
G1 X112.991 Y115.503 F4800
G1 E0.0000 F540
G92 E0
G1 X115.503 Y112.991 E0.1914 F1500
G1 X115.724 Y112.900 E0.2043
G1 X184.276 Y112.900 E3.8980
G1 X184.497 Y112.991 E3.9108
G1 X187.009 Y115.503 E4.1022
G1 X187.100 Y115.724 E4.1151
G1 X187.100 Y184.276 E7.8088
G1 X187.009 Y184.497 E7.8217
G1 X184.497 Y187.009 E8.0131
G1 X184.276 Y187.100 E8.0259
G1 X115.724 Y187.100 E11.7196
G1 X115.503 Y187.009 E11.7325
G1 X112.991 Y184.497 E11.9239
G1 X112.900 Y184.276 E11.9368
G1 X112.900 Y115.724 E15.6305
G1 X112.915 Y115.688 E15.6326
G1 X112.991 Y115.503 F1500
G1 X113.330 Y115.730 F4800
G92 E0
G1 X115.730 Y113.330 E0.1828 F1500
G1 X115.803 Y113.300 E0.1871
G1 X184.197 Y113.300 E3.8722
G1 X184.270 Y113.330 E3.8765
G1 X186.670 Y115.730 E4.0594
G1 X186.700 Y115.803 E4.0637
G1 X186.700 Y184.197 E7.7488
G1 X186.670 Y184.270 E7.7531
G1 X184.270 Y186.670 E7.9359
G1 X184.197 Y186.700 E7.9402
G1 X115.803 Y186.700 E11.6253
G1 X115.730 Y186.670 E11.6296
G1 X113.330 Y184.270 E11.8124
G1 X113.300 Y184.197 E11.8167
G1 X113.300 Y115.924 E15.4954
G1 X113.300 Y115.803 F1500
G1 X113.330 Y115.730 F1500
G92 E0
G1 E-5.0000 F1800
; inner perimeter
G1 X119.000 Y119.000 F4800
G1 E0.0000 F1800
G92 E0
G1 X181.000 Y119.000 E3.3406 F1125
G1 X181.000 Y181.000 E6.6813
G1 X119.000 Y181.000 E10.0219
G1 X119.000 Y119.200 E13.3518
G1 X119.000 Y119.000 F1125
G1 X118.400 Y118.400 F4800
G92 E0
G1 X181.600 Y118.400 E3.4053 F1125
G1 X181.600 Y181.600 E6.8106
G1 X118.400 Y181.600 E10.2159
G1 X118.400 Y118.600 E13.6104
G1 X118.400 Y118.400 F1125
; outer perimeter
G1 X117.800 Y117.800 F4800
G92 E0
G1 X182.200 Y117.800 E3.4700 F750
G1 X182.200 Y182.200 E6.9399
G1 X117.800 Y182.200 E10.4099
G1 X117.800 Y118.000 E13.8691
G1 X117.800 Y117.800 F750
G1 X122.800 Y117.800 F3000
; solid layer
G1 X179.756 Y119.510 F4800
G92 E0
G1 X180.490 Y120.244 E0.0560 F1200
G1 X180.490 Y121.093 E0.1017
G1 X178.907 Y119.510 E0.2223
G1 X178.058 Y119.510 E0.2680
G1 X180.490 Y121.942 E0.4533
G1 X180.490 Y122.790 E0.4990
G1 X177.210 Y119.510 E0.7490
G1 X176.361 Y119.510 E0.7947
G1 X180.490 Y123.639 E1.1093
G1 X180.490 Y124.487 E1.1550
G1 X175.513 Y119.510 E1.5343
G1 X174.664 Y119.510 E1.5800
G1 X180.490 Y125.336 E2.0239
G1 X180.490 Y126.184 E2.0696
G1 X173.816 Y119.510 E2.5782
G1 X172.967 Y119.510 E2.6239
G1 X180.490 Y127.033 E3.1971
G1 X180.490 Y127.881 E3.2429
G1 X172.119 Y119.510 E3.8808
G1 X171.270 Y119.510 E3.9265
G1 X180.490 Y128.730 E4.6290
G1 X180.490 Y129.578 E4.6747
G1 X170.422 Y119.510 E5.4419
G1 X169.573 Y119.510 E5.4877
G1 X180.490 Y130.427 E6.3195
G1 X180.490 Y131.275 E6.3652
G1 X168.725 Y119.510 E7.2618
G1 X167.876 Y119.510 E7.3075
G1 X180.490 Y132.124 E8.2687
G1 X180.490 Y132.972 E8.3144
G1 X167.028 Y119.510 E9.3402
G1 X166.179 Y119.510 E9.3859
G1 X180.490 Y133.821 E10.4764
G1 X180.490 Y134.669 E10.5221
G1 X165.331 Y119.510 E11.6773
G1 X164.482 Y119.510 E11.7230
G1 X180.490 Y135.518 E12.9428
G1 X180.490 Y136.367 E12.9885
G1 X163.633 Y119.510 E14.2730
G1 X162.785 Y119.510 E14.3187
G1 X180.490 Y137.215 E15.6678
G1 X180.490 Y138.064 E15.7136
G1 X161.936 Y119.510 E17.1273
G1 X161.088 Y119.510 E17.1731
G1 X180.490 Y138.912 E18.6515
G1 X180.490 Y139.761 E18.6972
G1 X160.239 Y119.510 E20.2403
G1 X159.391 Y119.510 E20.2860
G1 X180.490 Y140.609 E21.8938
G1 X180.490 Y141.458 E21.9395
G1 X158.542 Y119.510 E23.6119
G1 X157.694 Y119.510 E23.6576
G1 X180.490 Y142.306 E25.3947
G1 X180.490 Y143.155 E25.4404
G1 X156.845 Y119.510 E27.2421
G1 X155.997 Y119.510 E27.2879
G1 X180.490 Y144.003 E29.1542
G1 X180.490 Y144.852 E29.2000
G1 X155.148 Y119.510 E31.1310
G1 X154.300 Y119.510 E31.1767
G1 X180.490 Y145.700 E33.1724
G1 X180.490 Y146.549 E33.2181
G1 X153.451 Y119.510 E35.2785
G1 X152.603 Y119.510 E35.3242
G1 X180.490 Y147.397 E37.4492
G1 X180.490 Y148.246 E37.4950
G1 X151.754 Y119.510 E39.6846
G1 X150.906 Y119.510 E39.7303
G1 X180.490 Y149.094 E41.9847
G1 X180.490 Y149.943 E42.0304
G1 X150.057 Y119.510 E44.3494
G1 X149.209 Y119.510 E44.3951
G1 X180.490 Y150.791 E46.7788
G1 X180.490 Y151.640 E46.8245
G1 X148.360 Y119.510 E49.2728
G1 X147.511 Y119.510 E49.3185
G1 X180.490 Y152.489 E51.8315
G1 X180.490 Y153.337 E51.8772
G1 X146.663 Y119.510 E54.4548
G1 X145.814 Y119.510 E54.5005
G1 X180.490 Y154.186 E57.1428
G1 X180.490 Y155.034 E57.1885
G1 X144.966 Y119.510 E59.8954
G1 X144.117 Y119.510 E59.9412
G1 X180.490 Y155.883 E62.7128
G1 X180.490 Y156.731 E62.7585
G1 X143.269 Y119.510 E65.5947
G1 X142.420 Y119.510 E65.6404
G1 X180.490 Y157.580 E68.5413
G1 X180.490 Y158.428 E68.5871
G1 X141.572 Y119.510 E71.5526
G1 X140.723 Y119.510 E71.5984
G1 X180.490 Y159.277 E74.6286
G1 X180.490 Y160.125 E74.6743
G1 X139.875 Y119.510 E77.7692
G1 X139.026 Y119.510 E77.8149
G1 X180.490 Y160.974 E80.9744
G1 X180.490 Y161.822 E81.0201
G1 X138.178 Y119.510 E84.2443
G1 X137.329 Y119.510 E84.2901
G1 X180.490 Y162.671 E87.5789
G1 X180.490 Y163.519 E87.6246
G1 X136.481 Y119.510 E90.9781
G1 X135.632 Y119.510 E91.0239
G1 X180.490 Y164.368 E94.4420
G1 X180.490 Y165.216 E94.4878
G1 X134.784 Y119.510 E97.9706
G1 X133.935 Y119.510 E98.0163
G1 X180.490 Y166.065 E101.5638
G1 X180.490 Y166.914 E101.6095
G1 X133.086 Y119.510 E105.2216
G1 X132.238 Y119.510 E105.2674
G1 X180.490 Y167.762 E108.9442
G1 X180.490 Y168.611 E108.9899
G1 X131.389 Y119.510 E112.7313
G1 X130.541 Y119.510 E112.7771
G1 X180.490 Y169.459 E116.5832
G1 X180.490 Y170.308 E116.6289
G1 X129.692 Y119.510 E120.4997
G1 X128.844 Y119.510 E120.5454
G1 X180.490 Y171.156 E124.4808
G1 X180.490 Y172.005 E124.5265
G1 X127.995 Y119.510 E128.5266
G1 X127.147 Y119.510 E128.5723
G1 X180.490 Y172.853 E132.6371
G1 X180.490 Y173.702 E132.6828
G1 X126.298 Y119.510 E136.8122
G1 X125.450 Y119.510 E136.8579
G1 X180.490 Y174.550 E141.0520
G1 X180.490 Y175.399 E141.0977
G1 X124.601 Y119.510 E145.3564
G1 X123.753 Y119.510 E145.4022
G1 X180.490 Y176.247 E149.7255
G1 X180.490 Y177.096 E149.7712
G1 X122.904 Y119.510 E154.1593
G1 X122.056 Y119.510 E154.2050
G1 X180.490 Y177.944 E158.6577
G1 X180.490 Y178.793 E158.7034
G1 X121.207 Y119.510 E163.2208
G1 X120.359 Y119.510 E163.2665
G1 X180.490 Y179.641 E167.8485
G1 X180.490 Y180.490 E167.8942
G1 X119.510 Y119.510 E172.5409
G1 X119.510 Y120.359 E172.5866
G1 X179.641 Y180.490 E177.1686
G1 X178.793 Y180.490 E177.2143
G1 X119.510 Y121.207 E181.7317
G1 X119.510 Y122.056 E181.7774
G1 X177.944 Y180.490 E186.2301
G1 X177.096 Y180.490 E186.2758
G1 X119.510 Y122.904 E190.6638
G1 X119.510 Y123.753 E190.7096
G1 X176.247 Y180.490 E195.0329
G1 X175.399 Y180.490 E195.0787
G1 X119.510 Y124.601 E199.3374
G1 X119.510 Y125.450 E199.3831
G1 X174.550 Y180.490 E203.5772
G1 X173.702 Y180.490 E203.6229
G1 X119.510 Y126.298 E207.7523
G1 X119.510 Y127.147 E207.7980
G1 X172.853 Y180.490 E211.8628
G1 X172.005 Y180.490 E211.9085
G1 X119.510 Y127.995 E215.9086
G1 X119.510 Y128.844 E215.9543
G1 X171.156 Y180.490 E219.8897
G1 X170.308 Y180.490 E219.9354
G1 X119.510 Y129.692 E223.8062
G1 X119.510 Y130.541 E223.8519
G1 X169.459 Y180.490 E227.6581
G1 X168.611 Y180.490 E227.7038
G1 X119.510 Y131.389 E231.4452
G1 X119.510 Y132.238 E231.4910
G1 X167.762 Y180.490 E235.1678
G1 X166.914 Y180.490 E235.2135
G1 X119.510 Y133.086 E238.8256
G1 X119.510 Y133.935 E238.8713
G1 X166.065 Y180.490 E242.4188
G1 X165.217 Y180.490 E242.4645
G1 X119.510 Y134.783 E245.9474
G1 X119.510 Y135.632 E245.9931
G1 X164.368 Y180.490 E249.4113
G1 X163.519 Y180.490 E249.4570
G1 X119.510 Y136.481 E252.8105
G1 X119.510 Y137.329 E252.8562
G1 X162.671 Y180.490 E256.1451
G1 X161.822 Y180.490 E256.1908
G1 X119.510 Y138.178 E259.4150
G1 X119.510 Y139.026 E259.4607
G1 X160.974 Y180.490 E262.6202
G1 X160.125 Y180.490 E262.6660
G1 X119.510 Y139.875 E265.7609
G1 X119.510 Y140.723 E265.8066
G1 X159.277 Y180.490 E268.8368
G1 X158.428 Y180.490 E268.8825
G1 X119.510 Y141.572 E271.8481
G1 X119.510 Y142.420 E271.8938
G1 X157.580 Y180.490 E274.7947
G1 X156.731 Y180.490 E274.8404
G1 X119.510 Y143.269 E277.6767
G1 X119.510 Y144.117 E277.7224
G1 X155.883 Y180.490 E280.4940
G1 X155.034 Y180.490 E280.5397
G1 X119.510 Y144.966 E283.2467
G1 X119.510 Y145.814 E283.2924
G1 X154.186 Y180.490 E285.9346
G1 X153.337 Y180.490 E285.9804
G1 X119.510 Y146.663 E288.5580
G1 X119.510 Y147.511 E288.6037
G1 X152.489 Y180.490 E291.1167
G1 X151.640 Y180.490 E291.1624
G1 X119.510 Y148.360 E293.6107
G1 X119.510 Y149.208 E293.6564
G1 X150.792 Y180.490 E296.0401
G1 X149.943 Y180.490 E296.0858
G1 X119.510 Y150.057 E298.4048
G1 X119.510 Y150.906 E298.4505
G1 X149.094 Y180.490 E300.7048
G1 X148.246 Y180.490 E300.7505
G1 X119.510 Y151.754 E302.9402
G1 X119.510 Y152.603 E302.9859
G1 X147.397 Y180.490 E305.1110
G1 X146.549 Y180.490 E305.1567
G1 X119.510 Y153.451 E307.2170
G1 X119.510 Y154.300 E307.2628
G1 X145.700 Y180.490 E309.2585
G1 X144.852 Y180.490 E309.3042
G1 X119.510 Y155.148 E311.2352
G1 X119.510 Y155.997 E311.2809
G1 X144.003 Y180.490 E313.1473
G1 X143.155 Y180.490 E313.1930
G1 X119.510 Y156.845 E314.9948
G1 X119.510 Y157.694 E315.0405
G1 X142.306 Y180.490 E316.7776
G1 X141.458 Y180.490 E316.8233
G1 X119.510 Y158.542 E318.4957
G1 X119.510 Y159.391 E318.5414
G1 X140.609 Y180.490 E320.1492
G1 X139.761 Y180.490 E320.1949
G1 X119.510 Y160.239 E321.7380
G1 X119.510 Y161.088 E321.7837
G1 X138.912 Y180.490 E323.2621
G1 X138.064 Y180.490 E323.3079
G1 X119.510 Y161.936 E324.7217
G1 X119.510 Y162.785 E324.7674
G1 X137.215 Y180.490 E326.1165
G1 X136.367 Y180.490 E326.1622
G1 X119.510 Y163.633 E327.4467
G1 X119.510 Y164.482 E327.4924
G1 X135.518 Y180.490 E328.7122
G1 X134.669 Y180.490 E328.7579
G1 X119.510 Y165.331 E329.9131
G1 X119.510 Y166.179 E329.9588
G1 X133.821 Y180.490 E331.0493
G1 X132.972 Y180.490 E331.0950
G1 X119.510 Y167.028 E332.1209
G1 X119.510 Y167.876 E332.1666
G1 X132.124 Y180.490 E333.1277
G1 X131.275 Y180.490 E333.1735
G1 X119.510 Y168.725 E334.0700
G1 X119.510 Y169.573 E334.1157
G1 X130.427 Y180.490 E334.9476
G1 X129.578 Y180.490 E334.9933
G1 X119.510 Y170.422 E335.7605
G1 X119.510 Y171.270 E335.8062
G1 X128.730 Y180.490 E336.5088
G1 X127.881 Y180.490 E336.5545
G1 X119.510 Y172.119 E337.1924
G1 X119.510 Y172.967 E337.2381
