; G-Code generated by Simplify3D(R) Version 4.0.1
; Aug 18, 2018 at 8:35:23 AM
; Settings Summary
;   processName,Process1
;   applyToModels,XPulleyCover1.2mm,Y-PulleyCover1.2mm
;   profileName,Tevo Tornado
;   profileVersion,2018-08-18 08:03:11
;   baseProfile,Default
;   printMaterial,PLA - Hatchbox
;   printQuality,Medium
;   printExtruders,
;   extruderName,Extruder 1
;   extruderToolheadNumber,0
;   extruderDiameter,0.4
;   extruderAutoWidth,1
;   extruderWidth,0.48
;   extrusionMultiplier,1.03
;   extruderUseRetract,1
;   extruderRetractionDistance,6
;   extruderExtraRestartDistance,0
;   extruderRetractionZLift,0.08
;   extruderRetractionSpeed,3600
;   extruderUseCoasting,1
;   extruderCoastingDistance,0.3
;   extruderUseWipe,0
;   extruderWipeDistance,0.5
;   primaryExtruder,0
;   layerHeight,0.2
;   topSolidLayers,3
;   bottomSolidLayers,3
;   perimeterOutlines,3
;   printPerimetersInsideOut,1
;   startPointOption,1
;   startPointOriginX,0
;   startPointOriginY,0
;   sequentialIslands,0
;   spiralVaseMode,0
;   firstLayerHeightPercentage,80
;   firstLayerWidthPercentage,100
;   firstLayerUnderspeed,0.4
;   useRaft,0
;   raftExtruder,0
;   raftTopLayers,3
;   raftBaseLayers,2
;   raftOffset,3
;   raftSeparationDistance,0.14
;   raftTopInfill,100
;   aboveRaftSpeedMultiplier,0.3
;   useSkirt,1
;   skirtExtruder,0
;   skirtLayers,1
;   skirtOutlines,3
;   skirtOffset,5
;   usePrimePillar,0
;   primePillarExtruder,999
;   primePillarWidth,12
;   primePillarLocation,7
;   primePillarSpeedMultiplier,1
;   useOozeShield,0
;   oozeShieldExtruder,999
;   oozeShieldOffset,2
;   oozeShieldOutlines,1
;   oozeShieldSidewallShape,1
;   oozeShieldSidewallAngle,30
;   oozeShieldSpeedMultiplier,1
;   infillExtruder,0
;   internalInfillPattern,Grid
;   externalInfillPattern,Rectilinear
;   infillPercentage,15
;   outlineOverlapPercentage,15
;   infillExtrusionWidthPercentage,100
;   minInfillLength,5
;   infillLayerInterval,1
;   internalInfillAngles,45,-45
;   overlapInternalInfillAngles,1
;   externalInfillAngles,45,-45
;   generateSupport,0
;   supportExtruder,0
;   supportInfillPercentage,30
;   supportExtraInflation,0
;   supportBaseLayers,0
;   denseSupportExtruder,0
;   denseSupportLayers,0
;   denseSupportInfillPercentage,70
;   supportLayerInterval,1
;   supportHorizontalPartOffset,0.3
;   supportUpperSeparationLayers,1
;   supportLowerSeparationLayers,1
;   supportType,1
;   supportGridSpacing,3
;   maxOverhangAngle,45
;   supportAngles,0
;   temperatureName,Primary Extruder,Heated Bed
;   temperatureNumber,0,0
;   temperatureSetpointCount,1,1
;   temperatureSetpointLayers,1,1
;   temperatureSetpointTemperatures,210,60
;   temperatureStabilizeAtStartup,1,1
;   temperatureHeatedBed,0,1
;   temperatureRelayBetweenLayers,0,0
;   temperatureRelayBetweenLoops,0,0
;   fanLayers,1,3
;   fanSpeeds,0,60
;   blipFanToFullPower,1
;   adjustSpeedForCooling,1
;   minSpeedLayerTime,10
;   minCoolingSpeedSlowdown,50
;   increaseFanForCooling,0
;   minFanLayerTime,45
;   maxCoolingFanSpeed,100
;   increaseFanForBridging,0
;   bridgingFanSpeed,100
;   use5D,1
;   relativeEdistances,0
;   allowEaxisZeroing,1
;   independentExtruderAxes,0
;   includeM10123,0
;   stickySupport,1
;   applyToolheadOffsets,0
;   gcodeXoffset,0
;   gcodeYoffset,0
;   gcodeZoffset,0
;   overrideMachineDefinition,1
;   machineTypeOverride,0
;   strokeXoverride,300
;   strokeYoverride,300
;   strokeZoverride,400
;   originOffsetXoverride,0
;   originOffsetYoverride,0
;   originOffsetZoverride,0
;   homeXdirOverride,-1
;   homeYdirOverride,-1
;   homeZdirOverride,-1
;   flipXoverride,1
;   flipYoverride,-1
;   flipZoverride,1
;   toolheadOffsets,100,100|0,0|0,0|0,0|0,0|0,0
;   overrideFirmwareConfiguration,1
;   firmwareTypeOverride,RepRap (Marlin/Repetier/Sprinter)
;   GPXconfigOverride,r2
;   baudRateOverride,250000
;   overridePrinterModels,0
;   printerModelsOverride
;   startingGcode,G28 ; home all axes,G1 Z5 F3000 ; lift,G1 X40 Y5 F1500 ; avoid binder clips,G92 E0 ; reset extrusion distance,G1 Z0 F3000; set to base,G1 X120 E10 F600 ; prime nozzle,G1 X150 F5000 ; quick wipe,M205 X10 ; Lower Jerk to 10,M204 P500 T1000 ; Lower Acceleration
;   layerChangeGcode,
;   retractionGcode,
;   toolChangeGcode,
;   endingGcode,G28 X0 ; Home X Axis,G1 X285 ; Present Build Plate,M106 S0 ; Turn off Cooling Fan,M104 S0 ; Turn Off Extruder Heat,M140 S0 ; Turn of Bed Heat,M84 ; Disable Steppers
;   exportFileFormat,gcode
;   celebration,0
;   celebrationSong,Random Song
;   postProcessing,
;   defaultSpeed,3600
;   outlineUnderspeed,0.8
;   solidInfillUnderspeed,0.8
;   supportUnderspeed,0.8
;   rapidXYspeed,2400
;   rapidZspeed,600
;   minBridgingArea,50
;   bridgingExtraInflation,0
;   bridgingExtrusionMultiplier,1
;   bridgingSpeedMultiplier,1
;   useFixedBridgingAngle,0
;   fixedBridgingAngle,0
;   applyBridgingToPerimeters,0
;   filamentDiameters,1.73|1.73|1.73|1.73|1.73|1.73
;   filamentPricesPerKg,18|18|18|18|18|18
;   filamentDensities,1.25|1.25|1.25|1.25|1.25|1.25
;   useMinPrintHeight,0
;   minPrintHeight,30
;   useMaxPrintHeight,0
;   maxPrintHeight,30
;   useDiaphragm,0
;   diaphragmLayerInterval,20
;   robustSlicing,1
;   mergeAllIntoSolid,0
;   onlyRetractWhenCrossingOutline,1
;   retractBetweenLayers,0
;   useRetractionMinTravel,0
;   retractionMinTravel,3
;   retractWhileWiping,0
;   onlyWipeOutlines,0
;   avoidCrossingOutline,1
;   maxMovementDetourFactor,300
;   toolChangeRetractionDistance,12
;   toolChangeExtraRestartDistance,-1
;   toolChangeRetractionSpeed,600
;   externalThinWallType,0
;   internalThinWallType,2
;   thinWallAllowedOverlapPercentage,50
;   singleExtrusionMinLength,1
;   singleExtrusionMinPrintingWidthPercentage,50
;   singleExtrusionMaxPrintingWidthPercentage,200
;   singleExtrusionEndpointExtension,0.2
;   horizontalSizeCompensation,0
G90
M82
M106 S255
G4 P500
M106 S0
M140 S60
M190 S60
M104 S210 T0
M109 S210 T0
G28 ; home all axes
G1 Z5 F3000 ; lift
G1 X40 Y5 F1500 ; avoid binder clips
G92 E0 ; reset extrusion distance
G1 Z0 F3000; set to base
G1 X120 E10 F600 ; prime nozzle
G1 X150 F5000 ; quick wipe
M205 X10 ; Lower Jerk to 10
M204 P500 T1000 ; Lower Acceleration
G92 E0
G1 E-6.0000 F3600
G1 Z0.240 F600
; process Process1
; layer 1, Z = 0.160
T0
; tool H0.200 W0.480
; skirt
G1 X108.582 Y123.793 F2400
G1 Z0.160 F600
G1 E0.0000 F1080
G92 E0
G1 X110.258 Y122.418 E0.0912 F1440
G1 X110.438 Y122.316 E0.0999
G1 X112.263 Y121.663 E0.1814
G1 X112.466 Y121.628 E0.1901
G1 X129.765 Y121.615 E0.9178
G1 X129.781 Y121.615 E0.9184
G1 X129.783 Y121.615 E0.9185
G1 X136.021 Y121.644 E1.1809
G1 X136.787 Y121.509 E1.2136
G1 X137.046 Y121.519 E1.2245
G1 X139.414 Y122.139 E1.3275
G1 X139.523 Y122.195 E1.3327
G1 X139.671 Y121.721 E1.3535
G1 X139.683 Y121.687 E1.3550
G1 X139.803 Y121.371 E1.3693
G1 X139.816 Y121.337 E1.3708
G1 X140.189 Y120.509 E1.4090
G1 X140.205 Y120.477 E1.4105
G1 X140.362 Y120.177 E1.4248
G1 X140.380 Y120.145 E1.4263
G1 X140.850 Y119.368 E1.4645
G1 X140.870 Y119.338 E1.4660
G1 X141.062 Y119.059 E1.4802
G1 X141.083 Y119.030 E1.4818
G1 X141.643 Y118.315 E1.5200
G1 X141.666 Y118.288 E1.5215
G1 X141.891 Y118.034 E1.5357
G1 X141.916 Y118.008 E1.5372
G1 X142.558 Y117.366 E1.5754
G1 X142.584 Y117.341 E1.5770
G1 X142.838 Y117.116 E1.5912
G1 X142.865 Y117.093 E1.5927
G1 X143.580 Y116.533 E1.6309
G1 X143.609 Y116.512 E1.6325
G1 X143.888 Y116.320 E1.6467
G1 X143.918 Y116.300 E1.6482
G1 X144.695 Y115.830 E1.6864
G1 X144.727 Y115.812 E1.6879
G1 X145.027 Y115.655 E1.7022
G1 X145.059 Y115.639 E1.7037
G1 X145.887 Y115.267 E1.7419
G1 X145.921 Y115.253 E1.7434
G1 X146.237 Y115.133 E1.7576
G1 X146.271 Y115.121 E1.7592
G1 X147.138 Y114.851 E1.7974
G1 X147.173 Y114.841 E1.7989
G1 X147.502 Y114.760 E1.8131
G1 X147.537 Y114.752 E1.8147
G1 X148.405 Y114.593 E1.8518
G1 X148.436 Y114.588 E1.8531
G1 X148.721 Y114.551 E1.8652
G1 X148.751 Y114.548 E1.8664
G1 X149.572 Y114.483 E1.9011
G1 X149.595 Y114.482 E1.9021
G1 X149.813 Y114.473 E1.9112
G1 X149.836 Y114.473 E1.9122
G1 X176.147 Y114.454 E3.0190
G1 X176.158 Y114.454 E3.0194
G1 X182.574 Y114.473 E3.2893
G1 X182.597 Y114.474 E3.2902
G1 X182.809 Y114.482 E3.2991
G1 X182.832 Y114.484 E3.3001
G1 X183.649 Y114.548 E3.3346
G1 X183.679 Y114.551 E3.3359
G1 X183.964 Y114.588 E3.3480
G1 X183.995 Y114.593 E3.3493
G1 X184.863 Y114.752 E3.3864
G1 X184.898 Y114.760 E3.3879
G1 X185.227 Y114.841 E3.4021
G1 X185.262 Y114.851 E3.4037
G1 X186.129 Y115.121 E3.4419
G1 X186.163 Y115.133 E3.4434
G1 X186.479 Y115.253 E3.4576
G1 X186.513 Y115.267 E3.4591
G1 X187.341 Y115.639 E3.4973
G1 X187.373 Y115.655 E3.4989
G1 X187.673 Y115.812 E3.5131
G1 X187.705 Y115.830 E3.5146
G1 X188.482 Y116.300 E3.5528
G1 X188.512 Y116.320 E3.5543
G1 X188.791 Y116.512 E3.5686
G1 X188.820 Y116.533 E3.5701
G1 X189.535 Y117.093 E3.6083
G1 X189.563 Y117.116 E3.6098
G1 X189.816 Y117.341 E3.6241
G1 X189.842 Y117.366 E3.6256
G1 X190.484 Y118.008 E3.6638
G1 X190.509 Y118.034 E3.6653
G1 X190.734 Y118.288 E3.6795
G1 X190.757 Y118.315 E3.6811
G1 X191.317 Y119.030 E3.7193
G1 X191.338 Y119.059 E3.7208
G1 X191.530 Y119.338 E3.7350
G1 X191.550 Y119.368 E3.7366
G1 X192.020 Y120.145 E3.7747
G1 X192.038 Y120.177 E3.7763
G1 X192.195 Y120.476 E3.7905
G1 X192.211 Y120.509 E3.7920
G1 X192.583 Y121.337 E3.8302
G1 X192.597 Y121.371 E3.8318
G1 X192.717 Y121.687 E3.8460
G1 X192.729 Y121.721 E3.8475
G1 X192.999 Y122.588 E3.8857
G1 X193.009 Y122.623 E3.8872
G1 X193.090 Y122.952 E3.9015
G1 X193.098 Y122.987 E3.9030
G1 X193.257 Y123.855 E3.9401
G1 X193.261 Y123.886 E3.9414
G1 X193.299 Y124.170 E3.9535
G1 X193.302 Y124.201 E3.9548
G1 X193.366 Y125.018 E3.9893
G1 X193.368 Y125.041 E3.9902
G1 X193.376 Y125.253 E3.9992
G1 X193.377 Y125.275 E4.0001
G1 X193.396 Y131.691 E4.2700
G1 X193.396 Y131.702 E4.2704
G1 X193.377 Y158.014 E5.3772
G1 X193.377 Y158.037 E5.3781
G1 X193.368 Y158.255 E5.3873
G1 X193.367 Y158.279 E5.3883
G1 X193.302 Y159.099 E5.4229
G1 X193.299 Y159.130 E5.4242
G1 X193.261 Y159.414 E5.4363
G1 X193.257 Y159.445 E5.4376
G1 X193.098 Y160.313 E5.4747
G1 X193.090 Y160.348 E5.4762
G1 X193.009 Y160.677 E5.4905
G1 X192.999 Y160.712 E5.4920
G1 X192.729 Y161.579 E5.5302
G1 X192.717 Y161.613 E5.5317
G1 X192.597 Y161.929 E5.5460
G1 X192.583 Y161.963 E5.5475
G1 X192.211 Y162.791 E5.5857
G1 X192.195 Y162.824 E5.5872
G1 X192.038 Y163.123 E5.6015
G1 X192.020 Y163.155 E5.6030
G1 X191.550 Y163.932 E5.6412
G1 X191.530 Y163.962 E5.6427
G1 X191.338 Y164.241 E5.6569
G1 X191.317 Y164.270 E5.6585
G1 X190.757 Y164.985 E5.6966
G1 X190.734 Y165.012 E5.6982
G1 X190.509 Y165.266 E5.7124
G1 X190.484 Y165.292 E5.7139
G1 X189.842 Y165.934 E5.7521
G1 X189.816 Y165.959 E5.7537
G1 X189.563 Y166.184 E5.7679
G1 X189.535 Y166.207 E5.7694
G1 X188.820 Y166.767 E5.8076
G1 X188.791 Y166.788 E5.8091
G1 X188.512 Y166.980 E5.8234
G1 X188.482 Y167.000 E5.8249
G1 X187.705 Y167.470 E5.8631
G1 X187.673 Y167.488 E5.8646
G1 X187.373 Y167.645 E5.8789
G1 X187.341 Y167.661 E5.8804
G1 X186.513 Y168.034 E5.9186
G1 X186.479 Y168.047 E5.9201
G1 X186.163 Y168.167 E5.9343
G1 X186.129 Y168.179 E5.9359
G1 X185.262 Y168.449 E5.9741
G1 X185.227 Y168.459 E5.9756
G1 X184.898 Y168.540 E5.9898
G1 X184.863 Y168.548 E5.9913
G1 X183.995 Y168.707 E6.0285
G1 X183.964 Y168.711 E6.0298
G1 X183.679 Y168.749 E6.0418
G1 X183.649 Y168.752 E6.0431
G1 X182.827 Y168.817 E6.0778
G1 X182.804 Y168.818 E6.0788
G1 X182.584 Y168.827 E6.0881
G1 X182.560 Y168.827 E6.0891
G1 X149.840 Y168.827 E7.4655
G1 X149.816 Y168.827 E7.4664
G1 X149.596 Y168.818 E7.4757
G1 X149.573 Y168.817 E7.4767
G1 X148.751 Y168.752 E7.5114
G1 X148.721 Y168.749 E7.5127
G1 X148.436 Y168.711 E7.5248
G1 X148.405 Y168.707 E7.5260
G1 X147.537 Y168.548 E7.5632
G1 X147.502 Y168.540 E7.5647
G1 X147.173 Y168.459 E7.5789
G1 X147.138 Y168.449 E7.5804
G1 X146.271 Y168.179 E7.6186
G1 X146.237 Y168.167 E7.6202
G1 X145.921 Y168.047 E7.6344
G1 X145.887 Y168.033 E7.6359
G1 X145.059 Y167.661 E7.6741
G1 X145.026 Y167.645 E7.6757
G1 X144.727 Y167.488 E7.6899
G1 X144.695 Y167.470 E7.6914
G1 X143.918 Y167.000 E7.7296
G1 X143.888 Y166.980 E7.7311
G1 X143.609 Y166.788 E7.7454
G1 X143.580 Y166.767 E7.7469
G1 X143.326 Y166.567 E7.7605
G1 X143.302 Y171.777 E7.9796
G1 X143.297 Y171.851 E7.9828
G1 X143.207 Y172.542 E8.0121
G1 X143.193 Y172.616 E8.0152
G1 X142.853 Y173.929 E8.0723
G1 X142.793 Y174.078 E8.0790
G1 X142.050 Y175.378 E8.1421
G1 X141.952 Y175.505 E8.1488
G1 X140.656 Y176.802 E8.2259
G1 X140.529 Y176.899 E8.2327
G1 X139.228 Y177.643 E8.2957
G1 X139.080 Y177.703 E8.3024
G1 X137.766 Y178.043 E8.3595
G1 X137.693 Y178.057 E8.3626
G1 X137.002 Y178.147 E8.3920
G1 X136.927 Y178.152 E8.3951
G1 X129.783 Y178.185 E8.6956
G1 X129.781 Y178.185 E8.6957
G1 X129.766 Y178.185 E8.6963
G1 X112.466 Y178.172 E9.4240
G1 X112.263 Y178.137 E9.4327
G1 X110.438 Y177.484 E9.5142
G1 X110.258 Y177.382 E9.5229
G1 X108.463 Y175.910 E9.6206
G1 X108.339 Y175.771 E9.6284
G1 X107.390 Y174.306 E9.7018
G1 X107.315 Y174.136 E9.7097
G1 X106.917 Y172.672 E9.7735
G1 X106.902 Y172.595 E9.7768
G1 X106.804 Y171.871 E9.8075
G1 X106.798 Y171.793 E9.8108
G1 X106.765 Y164.516 E10.1169
G1 X106.765 Y164.502 E10.1174
G1 X106.765 Y136.184 E11.3086
G1 X106.765 Y136.173 E11.3091
G1 X106.797 Y128.154 E11.6464
G1 X106.799 Y128.107 E11.6484
G1 X106.836 Y127.666 E11.6670
G1 X106.842 Y127.619 E11.6690
G1 X106.948 Y126.968 E11.6967
G1 X106.962 Y126.907 E11.6994
G1 X107.117 Y126.338 E11.7242
G1 X107.137 Y126.278 E11.7268
G1 X107.556 Y125.204 E11.7753
G1 X107.630 Y125.070 E11.7818
G1 X108.396 Y124.015 E11.8366
G1 X108.476 Y123.905 F1440
G1 X108.582 Y123.793 F1440
G1 X108.910 Y124.145 F2400
G92 E0
G1 X110.531 Y122.815 E0.0882 F1440
G1 X110.638 Y122.754 E0.0934
G1 X112.386 Y122.129 E0.1715
G1 X112.508 Y122.108 E0.1767
G1 X129.765 Y122.095 E0.9026
G1 X129.780 Y122.095 E0.9032
G1 X136.062 Y122.124 E1.1674
G1 X136.819 Y121.990 E1.1998
G1 X136.975 Y121.997 E1.2063
G1 X139.242 Y122.590 E1.3049
G1 X139.381 Y122.661 E1.3114
G1 X139.793 Y122.999 E1.3339
G1 X139.842 Y122.787 E1.3430
G1 X139.850 Y122.761 E1.3442
G1 X140.127 Y121.871 E1.3834
G1 X140.134 Y121.850 E1.3843
G1 X140.249 Y121.548 E1.3979
G1 X140.257 Y121.528 E1.3989
G1 X140.624 Y120.713 E1.4364
G1 X140.633 Y120.693 E1.4374
G1 X140.784 Y120.406 E1.4510
G1 X140.795 Y120.387 E1.4519
G1 X141.257 Y119.623 E1.4895
G1 X141.269 Y119.605 E1.4904
G1 X141.453 Y119.338 E1.5040
G1 X141.466 Y119.320 E1.5049
G1 X142.017 Y118.617 E1.5425
G1 X142.031 Y118.600 E1.5434
G1 X142.245 Y118.358 E1.5571
G1 X142.260 Y118.342 E1.5580
G1 X142.892 Y117.710 E1.5956
G1 X142.908 Y117.695 E1.5965
G1 X143.150 Y117.481 E1.6101
G1 X143.167 Y117.467 E1.6110
G1 X143.870 Y116.916 E1.6486
G1 X143.888 Y116.903 E1.6495
G1 X144.155 Y116.719 E1.6632
G1 X144.173 Y116.707 E1.6641
G1 X144.937 Y116.245 E1.7017
G1 X144.956 Y116.234 E1.7026
G1 X145.243 Y116.083 E1.7162
G1 X145.263 Y116.074 E1.7171
G1 X146.077 Y115.707 E1.7547
G1 X146.098 Y115.699 E1.7556
G1 X146.400 Y115.584 E1.7692
G1 X146.421 Y115.577 E1.7701
G1 X147.274 Y115.311 E1.8077
G1 X147.295 Y115.305 E1.8086
G1 X147.610 Y115.228 E1.8223
G1 X147.631 Y115.223 E1.8232
G1 X148.486 Y115.067 E1.8598
G1 X148.504 Y115.064 E1.8605
G1 X148.777 Y115.028 E1.8721
G1 X148.795 Y115.026 E1.8729
G1 X149.605 Y114.962 E1.9070
G1 X149.619 Y114.961 E1.9076
G1 X149.827 Y114.953 E1.9164
G1 X149.841 Y114.953 E1.9170
G1 X176.147 Y114.934 E3.0236
G1 X176.158 Y114.934 E3.0240
G1 X182.569 Y114.953 E3.2936
G1 X182.582 Y114.953 E3.2942
G1 X182.785 Y114.962 E3.3027
G1 X182.798 Y114.963 E3.3033
G1 X183.605 Y115.026 E3.3373
G1 X183.623 Y115.028 E3.3381
G1 X183.896 Y115.064 E3.3497
G1 X183.914 Y115.067 E3.3505
G1 X184.769 Y115.223 E3.3870
G1 X184.790 Y115.228 E3.3879
G1 X185.105 Y115.305 E3.4016
G1 X185.126 Y115.311 E3.4025
G1 X185.979 Y115.577 E3.4401
G1 X186.000 Y115.584 E3.4410
G1 X186.302 Y115.699 E3.4546
G1 X186.322 Y115.707 E3.4555
G1 X187.137 Y116.074 E3.4931
G1 X187.157 Y116.083 E3.4940
G1 X187.444 Y116.234 E3.5076
G1 X187.463 Y116.245 E3.5086
G1 X188.227 Y116.707 E3.5461
G1 X188.245 Y116.719 E3.5471
G1 X188.512 Y116.903 E3.5607
G1 X188.530 Y116.916 E3.5616
G1 X189.233 Y117.467 E3.5992
G1 X189.250 Y117.481 E3.6001
