; G-Code generated by Simplify3D(R) Version 4.0.1
; Aug 18, 2018 at 9:17:57 AM
; Settings Summary
;   processName,Process1
;   applyToModels,Y-PulleyCover1.2mm
;   profileName,Tevo Tornado
;   profileVersion,2018-08-18 08:03:11
;   baseProfile,Default
;   printMaterial,PLA - Hatchbox
;   printQuality,Medium
;   printExtruders,
;   extruderName,Extruder 1
;   extruderToolheadNumber,0
;   extruderDiameter,0.4
;   extruderAutoWidth,1
;   extruderWidth,0.48
;   extrusionMultiplier,1.03
;   extruderUseRetract,1
;   extruderRetractionDistance,6
;   extruderExtraRestartDistance,0
;   extruderRetractionZLift,0.08
;   extruderRetractionSpeed,3600
;   extruderUseCoasting,1
;   extruderCoastingDistance,0.3
;   extruderUseWipe,0
;   extruderWipeDistance,0.5
;   primaryExtruder,0
;   layerHeight,0.2
;   topSolidLayers,3
;   bottomSolidLayers,3
;   perimeterOutlines,3
;   printPerimetersInsideOut,1
;   startPointOption,1
;   startPointOriginX,0
;   startPointOriginY,0
;   sequentialIslands,0
;   spiralVaseMode,0
;   firstLayerHeightPercentage,80
;   firstLayerWidthPercentage,100
;   firstLayerUnderspeed,0.4
;   useRaft,0
;   raftExtruder,0
;   raftTopLayers,3
;   raftBaseLayers,2
;   raftOffset,3
;   raftSeparationDistance,0.14
;   raftTopInfill,100
;   aboveRaftSpeedMultiplier,0.3
;   useSkirt,1
;   skirtExtruder,0
;   skirtLayers,1
;   skirtOutlines,3
;   skirtOffset,5
;   usePrimePillar,0
;   primePillarExtruder,999
;   primePillarWidth,12
;   primePillarLocation,7
;   primePillarSpeedMultiplier,1
;   useOozeShield,0
;   oozeShieldExtruder,999
;   oozeShieldOffset,2
;   oozeShieldOutlines,1
;   oozeShieldSidewallShape,1
;   oozeShieldSidewallAngle,30
;   oozeShieldSpeedMultiplier,1
;   infillExtruder,0
;   internalInfillPattern,Grid
;   externalInfillPattern,Rectilinear
;   infillPercentage,15
;   outlineOverlapPercentage,15
;   infillExtrusionWidthPercentage,100
;   minInfillLength,5
;   infillLayerInterval,1
;   internalInfillAngles,45,-45
;   overlapInternalInfillAngles,1
;   externalInfillAngles,45,-45
;   generateSupport,1
;   supportExtruder,0
;   supportInfillPercentage,30
;   supportExtraInflation,0
;   supportBaseLayers,0
;   denseSupportExtruder,0
;   denseSupportLayers,0
;   denseSupportInfillPercentage,70
;   supportLayerInterval,1
;   supportHorizontalPartOffset,0.3
;   supportUpperSeparationLayers,1
;   supportLowerSeparationLayers,1
;   supportType,1
;   supportGridSpacing,3
;   maxOverhangAngle,45
;   supportAngles,0
;   temperatureName,Primary Extruder,Heated Bed
;   temperatureNumber,0,0
;   temperatureSetpointCount,1,1
;   temperatureSetpointLayers,1,1
;   temperatureSetpointTemperatures,210,60
;   temperatureStabilizeAtStartup,1,1
;   temperatureHeatedBed,0,1
;   temperatureRelayBetweenLayers,0,0
;   temperatureRelayBetweenLoops,0,0
;   fanLayers,1,3
;   fanSpeeds,0,60
;   blipFanToFullPower,1
;   adjustSpeedForCooling,1
;   minSpeedLayerTime,10
;   minCoolingSpeedSlowdown,50
;   increaseFanForCooling,0
;   minFanLayerTime,45
;   maxCoolingFanSpeed,100
;   increaseFanForBridging,0
;   bridgingFanSpeed,100
;   use5D,1
;   relativeEdistances,0
;   allowEaxisZeroing,1
;   independentExtruderAxes,0
;   includeM10123,0
;   stickySupport,1
;   applyToolheadOffsets,0
;   gcodeXoffset,0
;   gcodeYoffset,0
;   gcodeZoffset,0
;   overrideMachineDefinition,1
;   machineTypeOverride,0
;   strokeXoverride,300
;   strokeYoverride,300
;   strokeZoverride,400
;   originOffsetXoverride,0
;   originOffsetYoverride,0
;   originOffsetZoverride,0
;   homeXdirOverride,-1
;   homeYdirOverride,-1
;   homeZdirOverride,-1
;   flipXoverride,1
;   flipYoverride,-1
;   flipZoverride,1
;   toolheadOffsets,100,100|0,0|0,0|0,0|0,0|0,0
;   overrideFirmwareConfiguration,1
;   firmwareTypeOverride,RepRap (Marlin/Repetier/Sprinter)
;   GPXconfigOverride,r2
;   baudRateOverride,250000
;   overridePrinterModels,0
;   printerModelsOverride
;   startingGcode,G28 ; home all axes,G1 Z5 F3000 ; lift,G1 X40 Y5 F1500 ; avoid binder clips,G92 E0 ; reset extrusion distance,G1 Z0 F3000; set to base,G1 X120 E10 F600 ; prime nozzle,G1 X150 F5000 ; quick wipe,M205 X10 ; Lower Jerk to 10,M204 P500 T1000 ; Lower Acceleration
;   layerChangeGcode,
;   retractionGcode,
;   toolChangeGcode,
;   endingGcode,G28 X0 ; Home X Axis,G1 X285 ; Present Build Plate,M106 S0 ; Turn off Cooling Fan,M104 S0 ; Turn Off Extruder Heat,M140 S0 ; Turn of Bed Heat,M84 ; Disable Steppers
;   exportFileFormat,gcode
;   celebration,0
;   celebrationSong,Random Song
;   postProcessing,
;   defaultSpeed,3600
;   outlineUnderspeed,0.8
;   solidInfillUnderspeed,0.8
;   supportUnderspeed,0.8
;   rapidXYspeed,2400
;   rapidZspeed,600
;   minBridgingArea,50
;   bridgingExtraInflation,0
;   bridgingExtrusionMultiplier,1
;   bridgingSpeedMultiplier,1
;   useFixedBridgingAngle,0
;   fixedBridgingAngle,0
;   applyBridgingToPerimeters,0
;   filamentDiameters,1.73|1.73|1.73|1.73|1.73|1.73
;   filamentPricesPerKg,18|18|18|18|18|18
;   filamentDensities,1.25|1.25|1.25|1.25|1.25|1.25
;   useMinPrintHeight,0
;   minPrintHeight,30
;   useMaxPrintHeight,0
;   maxPrintHeight,30
;   useDiaphragm,0
;   diaphragmLayerInterval,20
;   robustSlicing,1
;   mergeAllIntoSolid,0
;   onlyRetractWhenCrossingOutline,1
;   retractBetweenLayers,0
;   useRetractionMinTravel,0
;   retractionMinTravel,3
;   retractWhileWiping,0
;   onlyWipeOutlines,0
;   avoidCrossingOutline,1
;   maxMovementDetourFactor,300
;   toolChangeRetractionDistance,12
;   toolChangeExtraRestartDistance,-1
;   toolChangeRetractionSpeed,600
;   externalThinWallType,0
;   internalThinWallType,2
;   thinWallAllowedOverlapPercentage,50
;   singleExtrusionMinLength,1
;   singleExtrusionMinPrintingWidthPercentage,50
;   singleExtrusionMaxPrintingWidthPercentage,200
;   singleExtrusionEndpointExtension,0.2
;   horizontalSizeCompensation,0
G90
M82
M106 S255
G4 P500
M106 S0
M140 S60
M190 S60
M104 S210 T0
M109 S210 T0
G28 ; home all axes
G1 Z5 F3000 ; lift
G1 X40 Y5 F1500 ; avoid binder clips
G92 E0 ; reset extrusion distance
G1 Z0 F3000; set to base
G1 X120 E10 F600 ; prime nozzle
G1 X150 F5000 ; quick wipe
M205 X10 ; Lower Jerk to 10
M204 P500 T1000 ; Lower Acceleration
G92 E0
G1 E-6.0000 F3600
G1 Z0.240 F600
; process Process1
; layer 1, Z = 0.160
T0
; tool H0.200 W0.480
; skirt
G1 X133.426 Y123.905 F2400
G1 Z0.160 F600
G1 E0.0000 F1080
G92 E0
G1 X133.532 Y123.793 E0.0065 F1440
G1 X135.208 Y122.418 E0.0977
G1 X135.388 Y122.316 E0.1064
G1 X137.213 Y121.663 E0.1879
G1 X137.416 Y121.628 E0.1966
G1 X142.080 Y121.624 E0.3928
G1 X142.080 Y117.470 E0.5675
G1 X142.263 Y117.029 E0.5876
G1 X145.529 Y113.763 E0.7819
G1 X145.970 Y113.580 E0.8020
G1 X160.030 Y113.580 E1.3934
G1 X160.471 Y113.763 E1.4135
G1 X163.737 Y117.029 E1.6078
G1 X163.920 Y117.470 E1.6279
G1 X163.920 Y122.023 E1.8194
G1 X164.364 Y122.139 E1.8387
G1 X164.595 Y122.257 E1.8496
G1 X166.587 Y123.890 E1.9580
G1 X166.711 Y124.029 E1.9658
G1 X167.660 Y125.494 E2.0392
G1 X167.735 Y125.664 E2.0471
G1 X168.133 Y127.129 E2.1109
G1 X168.148 Y127.206 E2.1142
G1 X168.247 Y127.931 E2.1450
G1 X168.252 Y128.009 E2.1483
G1 X168.285 Y136.172 E2.4917
G1 X168.285 Y136.184 E2.4921
G1 X168.285 Y164.502 E3.6833
G1 X168.285 Y164.515 E3.6839
G1 X168.252 Y171.777 E3.9893
G1 X168.247 Y171.851 E3.9924
G1 X168.157 Y172.543 E4.0218
G1 X168.143 Y172.616 E4.0249
G1 X167.803 Y173.930 E4.0820
G1 X167.743 Y174.078 E4.0887
G1 X166.999 Y175.378 E4.1517
G1 X166.902 Y175.505 E4.1585
G1 X165.606 Y176.802 E4.2356
G1 X165.479 Y176.899 E4.2423
G1 X164.178 Y177.643 E4.3054
G1 X164.030 Y177.703 E4.3121
G1 X163.920 Y177.732 E4.3169
G1 X163.920 Y182.530 E4.5187
G1 X163.737 Y182.971 E4.5388
G1 X160.471 Y186.237 E4.7331
G1 X160.030 Y186.420 E4.7532
G1 X145.970 Y186.420 E5.3446
G1 X145.529 Y186.237 E5.3647
G1 X142.263 Y182.971 E5.5590
G1 X142.080 Y182.530 E5.5791
G1 X142.080 Y178.176 E5.7622
G1 X137.416 Y178.172 E5.9584
G1 X137.213 Y178.137 E5.9671
G1 X135.388 Y177.484 E6.0486
G1 X135.208 Y177.382 E6.0573
G1 X133.413 Y175.910 E6.1550
G1 X133.289 Y175.771 E6.1628
G1 X132.340 Y174.305 E6.2363
G1 X132.265 Y174.135 E6.2441
G1 X131.867 Y172.671 E6.3079
G1 X131.852 Y172.595 E6.3112
G1 X131.754 Y171.871 E6.3419
G1 X131.748 Y171.793 E6.3452
G1 X131.715 Y164.516 E6.6513
G1 X131.715 Y164.514 E6.6514
G1 X131.715 Y164.501 E6.6519
G1 X131.715 Y136.184 E7.8431
G1 X131.715 Y136.173 E7.8436
G1 X131.747 Y128.154 E8.1809
G1 X131.749 Y128.107 E8.1829
G1 X131.786 Y127.666 E8.2015
G1 X131.792 Y127.619 E8.2034
G1 X131.898 Y126.969 E8.2312
G1 X131.912 Y126.907 E8.2338
G1 X132.067 Y126.338 E8.2586
G1 X132.087 Y126.278 E8.2613
G1 X132.506 Y125.205 E8.3098
G1 X132.580 Y125.070 E8.3162
G1 X133.252 Y124.145 E8.3643
G1 X133.426 Y123.905 F1440
G1 X133.796 Y124.212 F2400
G92 E0
G1 X133.860 Y124.145 E0.0039 F1440
G1 X135.481 Y122.815 E0.0921
G1 X135.588 Y122.754 E0.0973
G1 X137.336 Y122.129 E0.1753
G1 X137.458 Y122.108 E0.1806
G1 X142.560 Y122.104 E0.3952
G1 X142.560 Y117.566 E0.5861
G1 X142.670 Y117.301 E0.5981
G1 X145.801 Y114.170 E0.7844
G1 X146.066 Y114.060 E0.7965
G1 X159.934 Y114.060 E1.3799
G1 X160.199 Y114.170 E1.3919
G1 X163.330 Y117.301 E1.5782
G1 X163.440 Y117.566 E1.5902
G1 X163.440 Y122.393 E1.7933
G1 X164.192 Y122.590 E1.8260
G1 X164.331 Y122.661 E1.8326
G1 X166.254 Y124.238 E1.9372
G1 X166.328 Y124.321 E1.9419
G1 X167.236 Y125.724 E2.0122
G1 X167.282 Y125.826 E2.0169
G1 X167.666 Y127.240 E2.0785
G1 X167.675 Y127.286 E2.0805
G1 X167.769 Y127.980 E2.1099
G1 X167.772 Y128.027 E2.1119
G1 X167.805 Y136.174 E2.4546
G1 X167.805 Y136.185 E2.4551
G1 X167.805 Y164.501 E3.6462
G1 X167.805 Y164.513 E3.6467
G1 X167.772 Y171.760 E3.9515
G1 X167.769 Y171.804 E3.9534
G1 X167.683 Y172.466 E3.9815
G1 X167.675 Y172.510 E3.9833
G1 X167.346 Y173.778 E4.0385
G1 X167.310 Y173.867 E4.0425
G1 X166.599 Y175.112 E4.1028
G1 X166.540 Y175.189 E4.1069
G1 X165.289 Y176.440 E4.1813
G1 X165.213 Y176.499 E4.1854
G1 X163.967 Y177.210 E4.2457
G1 X163.878 Y177.247 E4.2497
G1 X163.440 Y177.360 E4.2688
G1 X163.440 Y182.434 E4.4822
G1 X163.330 Y182.699 E4.4943
G1 X160.199 Y185.830 E4.6806
G1 X159.934 Y185.940 E4.6926
G1 X146.066 Y185.940 E5.2760
G1 X145.801 Y185.830 E5.2881
G1 X142.670 Y182.699 E5.4743
G1 X142.560 Y182.434 E5.4864
G1 X142.560 Y177.696 E5.6857
G1 X137.458 Y177.692 E5.9003
G1 X137.336 Y177.671 E5.9055
G1 X135.588 Y177.046 E5.9836
G1 X135.481 Y176.985 E5.9888
G1 X133.746 Y175.562 E6.0832
G1 X133.672 Y175.479 E6.0879
G1 X132.764 Y174.076 E6.1582
G1 X132.718 Y173.974 E6.1629
G1 X132.335 Y172.561 E6.2245
G1 X132.325 Y172.515 E6.2265
G1 X132.231 Y171.822 E6.2559
G1 X132.228 Y171.775 E6.2578
G1 X132.195 Y164.514 E6.5633
G1 X132.195 Y164.501 E6.5638
G1 X132.195 Y136.185 E7.7549
G1 X132.195 Y136.174 E7.7554
G1 X132.227 Y128.165 E8.0922
G1 X132.229 Y128.137 E8.0934
G1 X132.264 Y127.715 E8.1112
G1 X132.267 Y127.687 E8.1124
G1 X132.370 Y127.058 E8.1392
G1 X132.378 Y127.021 E8.1408
G1 X132.527 Y126.477 E8.1646
G1 X132.539 Y126.441 E8.1662
G1 X132.942 Y125.408 E8.2128
G1 X132.986 Y125.327 E8.2167
G1 X133.622 Y124.452 E8.2622
G1 X133.796 Y124.212 F1440
G1 X134.167 Y124.519 F2400
G92 E0
G1 X134.188 Y124.496 E0.0013 F1440
G1 X135.753 Y123.213 E0.0864
G1 X135.789 Y123.192 E0.0882
G1 X137.459 Y122.595 E0.1628
G1 X137.499 Y122.588 E0.1645
G1 X143.040 Y122.584 E0.3976
G1 X143.040 Y117.661 E0.6047
G1 X143.077 Y117.573 E0.6087
G1 X146.073 Y114.577 E0.7869
G1 X146.161 Y114.540 E0.7909
G1 X159.839 Y114.540 E1.3663
G1 X159.927 Y114.577 E1.3703
G1 X162.923 Y117.573 E1.5486
G1 X162.960 Y117.661 E1.5526
G1 X162.960 Y122.764 E1.7672
G1 X164.020 Y123.041 E1.8133
G1 X164.066 Y123.065 E1.8155
G1 X165.921 Y124.585 E1.9164
G1 X165.945 Y124.613 E1.9179
G1 X166.813 Y125.954 E1.9851
G1 X166.828 Y125.988 E1.9867
G1 X167.198 Y127.350 E2.0461
G1 X167.201 Y127.366 E2.0467
G1 X167.291 Y128.029 E2.0749
G1 X167.292 Y128.044 E2.0755
G1 X167.325 Y136.175 E2.4176
G1 X167.325 Y136.186 E2.4180
G1 X167.325 Y164.500 E3.6091
G1 X167.325 Y164.512 E3.6096
G1 X167.292 Y171.743 E3.9137
G1 X167.291 Y171.757 E3.9144
G1 X167.209 Y172.390 E3.9412
G1 X167.206 Y172.404 E3.9418
G1 X166.890 Y173.627 E3.9949
G1 X166.878 Y173.657 E3.9963
G1 X166.198 Y174.846 E4.0539
G1 X166.178 Y174.872 E4.0553
G1 X164.972 Y176.078 E4.1270
G1 X164.947 Y176.098 E4.1284
G1 X163.757 Y176.778 E4.1860
G1 X163.727 Y176.790 E4.1874
G1 X162.960 Y176.988 E4.2207
G1 X162.960 Y182.339 E4.4458
G1 X162.923 Y182.427 E4.4498
G1 X159.927 Y185.423 E4.6280
G1 X159.839 Y185.460 E4.6321
G1 X146.161 Y185.460 E5.2074
G1 X146.073 Y185.423 E5.2114
G1 X143.077 Y182.427 E5.3897
G1 X143.040 Y182.339 E5.3937
G1 X143.040 Y177.216 E5.6092
G1 X137.499 Y177.212 E5.8423
G1 X137.459 Y177.205 E5.8440
G1 X135.789 Y176.608 E5.9186
G1 X135.753 Y176.587 E5.9203
G1 X134.079 Y175.215 E6.0114
G1 X134.055 Y175.187 E6.0129
G1 X133.187 Y173.846 E6.0801
G1 X133.172 Y173.812 E6.0817
G1 X132.802 Y172.450 E6.1411
G1 X132.799 Y172.435 E6.1417
G1 X132.709 Y171.773 E6.1698
G1 X132.708 Y171.758 E6.1705
G1 X132.675 Y164.512 E6.4753
G1 X132.675 Y164.500 E6.4757
G1 X132.675 Y136.186 E7.6668
G1 X132.675 Y136.175 E7.6672
G1 X132.707 Y128.177 E8.0037
G1 X132.708 Y128.167 E8.0041
G1 X132.741 Y127.764 E8.0211
G1 X132.742 Y127.755 E8.0215
G1 X132.841 Y127.148 E8.0474
G1 X132.844 Y127.136 E8.0479
G1 X132.986 Y126.616 E8.0706
G1 X132.990 Y126.604 E8.0711
G1 X133.378 Y125.611 E8.1159
G1 X133.393 Y125.584 E8.1172
G1 X133.991 Y124.761 E8.1600
G1 X134.167 Y124.519 F1440
G92 E0
G1 E-6.0000 F3600
G1 Z0.240 F600
; inner perimeter
G1 X138.216 Y128.274 F2400
G1 X138.456 Y128.077 F2400
G1 X138.480 Y128.082 F2400
G1 X145.289 Y128.050 F2400
G1 X150.301 Y128.050 F2400
G1 X154.709 Y129.015 F2400
G1 Z0.160 F600
G1 E0.0000 F3600
G92 E0
G1 X160.856 Y129.043 E0.2586 F1296
G1 X160.885 Y136.194 E0.5594
G1 X160.885 Y164.491 E1.7497
G1 X160.856 Y170.757 E2.0133
G1 X154.709 Y170.785 E2.2719
G1 X145.291 Y170.785 E2.6680
G1 X139.144 Y170.757 E2.9267
G1 X139.115 Y164.491 E3.1903
G1 X139.115 Y136.194 E4.3806
G1 X139.144 Y129.043 E4.6814
G1 X145.291 Y129.015 E4.9400
G1 X154.409 Y129.015 E5.3235
G1 X154.709 Y129.015 F1296
G1 X154.711 Y128.535 F2400
G92 E0
G1 X161.334 Y128.566 E0.2786 F1296
G1 X161.365 Y136.191 E0.5994
G1 X161.365 Y164.493 E1.7899
G1 X161.334 Y171.234 E2.0735
G1 X154.711 Y171.265 E2.3521
G1 X145.289 Y171.265 E2.7485
G1 X138.666 Y171.234 E3.0271
G1 X138.635 Y164.493 E3.3107
G1 X138.635 Y136.191 E4.5012
G1 X138.666 Y128.566 E4.8220
G1 X145.289 Y128.535 E5.1006
G1 X154.411 Y128.535 E5.4843
G1 X154.711 Y128.535 F1296
; outer perimeter
G1 X154.711 Y128.055 F2400
G92 E0
G1 X161.520 Y128.087 E0.2864 F1152
G1 X161.543 Y128.083 E0.2874
G1 X161.780 Y128.277 E0.3003
G1 X161.798 Y128.323 E0.3024
G1 X161.814 Y128.420 E0.3065
G1 X161.845 Y136.191 E0.6334
G1 X161.845 Y164.493 E1.8239
G1 X161.814 Y171.369 E2.1132
G1 X161.773 Y171.528 E2.1201
G1 X161.628 Y171.673 E2.1287
G1 X161.469 Y171.714 E2.1356
G1 X154.711 Y171.745 E2.4199
G1 X145.289 Y171.745 E2.8162
G1 X138.480 Y171.713 E3.1027
G1 X138.457 Y171.717 E3.1036
G1 X138.220 Y171.523 E3.1165
G1 X138.202 Y171.477 E3.1186
G1 X138.186 Y171.380 E3.1227
G1 X138.155 Y164.494 E3.4124
G1 X138.155 Y136.192 E4.6029
G1 X138.186 Y128.420 E4.9299
G1 X138.202 Y128.323 E4.9340
G1 X138.220 Y128.277 E4.9361
G1 X138.457 Y128.083 E4.9490
G1 X138.480 Y128.087 E4.9500
G1 X145.289 Y128.055 E5.2364
G1 X154.411 Y128.055 E5.6201
G1 X154.711 Y128.055 F1152
; solid layer
G1 X159.995 Y129.447 F2400
G92 E0
G1 X160.452 Y129.905 E0.0272 F1152
G1 X160.454 Y130.586 E0.0559
G1 X159.313 Y129.444 E0.1238
G1 X158.631 Y129.441 E0.1525
G1 X160.457 Y131.268 E0.2611
G1 X160.460 Y131.949 E0.2898
G1 X157.949 Y129.438 E0.4392
G1 X157.267 Y129.435 E0.4679
G1 X160.463 Y132.631 E0.6580
G1 X160.465 Y133.312 E0.6867
G1 X156.585 Y129.432 E0.9176
G1 X155.903 Y129.429 E0.9463
G1 X160.468 Y133.994 E1.2179
G1 X160.471 Y134.676 E1.2465
G1 X155.221 Y129.425 E1.5589
G1 X154.706 Y129.423 E1.5805
G1 X154.539 Y129.423 E1.5875
G1 X160.474 Y135.357 E1.9405
G1 X160.476 Y136.039 E1.9692
G1 X153.861 Y129.423 E2.3628
G1 X153.182 Y129.423 E2.3913
G1 X160.477 Y136.718 E2.8253
G1 X160.477 Y137.397 E2.8539
G1 X152.503 Y129.423 E3.3283
